;FLAVOR:Marlin
;TIME:944
;Filament used: 0.244596m
;Layer height: 0.1
;MINX:99.22
;MINY:99.225
;MINZ:0.2
;MAXX:120.755
;MAXY:120.775
;MAXZ:14
;Generated with Cura_SteamEngine 4.6.1
M140 S60
M105
M190 S60
M104 S200
M105
M109 S200
M82 ;absolute extrusion mode
; -- START GCODE --
G21        ;metric values
G90        ;absolute positioning
M82        ;set extruder to absolute mode
M107       ;start with the fan off
G28 X0 Y0  ;move X/Y to min endstops
G28 Z0       ;move Z to min endstops
G92 E0                  ;zero the extruded length again
G1 Z1 F1000             ;move up slightly
G1 Y60.0 Z0 E9.0 F1000.0;intro line
G1 Y100.0 E21.5 F1000.0 ;continue line
G92 E0                  ;zero the extruded length again
G1 F80
;Put printing message on LCD screen
M117 Printing...
; -- end of START GCODE --
G92 E0
G92 E0
G1 F2700 E-5
;LAYER_COUNT:139
;LAYER:0
M107
G0 F3600 X111.034 Y100.882 Z0.2
;TYPE:SKIRT
G1 F2700 E0
G1 F1200 X111.58 Y100.962 E0.01835
G1 X112.318 Y101.137 E0.04358
G1 X112.862 Y101.283 E0.06231
G1 X113.387 Y101.475 E0.08091
G1 X114.078 Y101.799 E0.10629
G1 X114.584 Y102.055 E0.12515
G1 X115.05 Y102.344 E0.14339
G1 X115.585 Y102.744 E0.16561
G1 X116.077 Y103.134 E0.18649
G1 X116.469 Y103.504 E0.20442
G1 X116.887 Y103.971 E0.22526
G1 X117.318 Y104.48 E0.24745
G1 X117.637 Y104.933 E0.26587
G1 X117.991 Y105.542 E0.2893
G1 X118.282 Y106.076 E0.30953
G1 X118.506 Y106.591 E0.32821
G1 X118.747 Y107.314 E0.35356
G1 X118.91 Y107.855 E0.37235
G1 X119.021 Y108.386 E0.39039
G1 X119.094 Y108.988 E0.41056
G1 X119.158 Y109.668 E0.43328
G1 X119.16 Y110.222 E0.4517
G1 X119.097 Y110.991 E0.47737
G1 X119.036 Y111.539 E0.49571
G1 X118.926 Y112.077 E0.51397
G1 X118.734 Y112.728 E0.53655
G1 X118.547 Y113.308 E0.55681
G1 X118.333 Y113.813 E0.57506
G1 X118.009 Y114.426 E0.59812
G1 X117.706 Y114.964 E0.61865
G1 X117.39 Y115.423 E0.63719
G1 X116.94 Y115.968 E0.6607
G1 X116.542 Y116.424 E0.68083
G1 X116.145 Y116.804 E0.69911
G1 X115.55 Y117.283 E0.72451
G1 X115.095 Y117.626 E0.74346
G1 X114.648 Y117.906 E0.76101
G1 X114.091 Y118.194 E0.78186
G1 X113.477 Y118.488 E0.8045
G1 X112.96 Y118.682 E0.82287
G1 X112.291 Y118.869 E0.84597
G1 X111.712 Y119.014 E0.86583
G1 X111.165 Y119.1 E0.88424
G1 X110.45 Y119.15 E0.90808
G1 X109.847 Y119.176 E0.92816
G1 X109.295 Y119.151 E0.94654
G1 X108.601 Y119.059 E0.96982
G1 X108.004 Y118.962 E0.98994
G1 X107.47 Y118.827 E1.00826
G1 X106.756 Y118.578 E1.03341
G1 X106.223 Y118.374 E1.05239
G1 X105.734 Y118.136 E1.07048
G1 X105.146 Y117.785 E1.09325
G1 X104.629 Y117.456 E1.11363
G1 X104.194 Y117.122 E1.13188
G1 X103.623 Y116.6 E1.15761
G1 X103.216 Y116.202 E1.17654
G1 X102.872 Y115.802 E1.19409
G1 X102.514 Y115.309 E1.21435
G1 X102.121 Y114.734 E1.23752
G1 X101.852 Y114.252 E1.25588
G1 X101.528 Y113.533 E1.28211
G1 X101.337 Y113.075 E1.29861
G1 X101.178 Y112.584 E1.31578
G1 X101.028 Y111.947 E1.33754
G1 X100.891 Y111.247 E1.36127
G1 X100.835 Y110.713 E1.37912
G1 X100.82 Y110.01 E1.40251
G1 X100.824 Y109.405 E1.42263
G1 X100.878 Y108.851 E1.44115
G1 X101.02 Y108.089 E1.46693
G1 X101.138 Y107.546 E1.48541
G1 X101.299 Y107.03 E1.50339
G1 X101.544 Y106.428 E1.52501
G1 X101.81 Y105.825 E1.54693
G1 X102.077 Y105.34 E1.56534
G1 X102.496 Y104.715 E1.59037
G1 X102.817 Y104.264 E1.60878
G1 X103.168 Y103.852 E1.62678
G1 X103.641 Y103.384 E1.64891
G1 X104.104 Y102.951 E1.67
G1 X104.543 Y102.609 E1.68851
G1 X105.207 Y102.178 E1.71484
G1 X105.652 Y101.907 E1.73216
G1 X106.126 Y101.673 E1.74975
G1 X106.722 Y101.437 E1.77107
G1 X107.375 Y101.202 E1.79415
G1 X107.894 Y101.065 E1.812
G1 X108.571 Y100.946 E1.83486
G1 X109.203 Y100.855 E1.8561
G1 X109.751 Y100.824 E1.87436
G1 X110.373 Y100.843 E1.89506
G1 X111.034 Y100.882 E1.91708
G0 F3600 X111.057 Y100.482
G1 F1200 X111.673 Y100.573 E1.93779
G1 X112.411 Y100.748 E1.96302
G1 X112.967 Y100.897 E1.98216
G1 X113.556 Y101.113 E2.00303
G1 X114.247 Y101.437 E2.02841
G1 X114.766 Y101.698 E2.04773
G1 X115.29 Y102.024 E2.06826
G1 X115.825 Y102.424 E2.09048
G1 X116.326 Y102.821 E2.11174
G1 X116.767 Y103.237 E2.1319
G1 X117.185 Y103.704 E2.15275
G1 X117.624 Y104.223 E2.17536
G1 X117.982 Y104.732 E2.19605
G1 X118.336 Y105.341 E2.21948
G1 X118.634 Y105.885 E2.24011
G1 X118.885 Y106.465 E2.26113
G1 X119.126 Y107.188 E2.28648
G1 X119.293 Y107.74 E2.30566
G1 X119.418 Y108.338 E2.32598
G1 X119.491 Y108.94 E2.34615
G1 X119.556 Y109.632 E2.36927
G1 X119.559 Y110.255 E2.38999
G1 X119.496 Y111.024 E2.41565
G1 X119.433 Y111.585 E2.43443
G1 X119.31 Y112.19 E2.45496
G1 X119.118 Y112.841 E2.47754
G1 X118.927 Y113.431 E2.49816
G1 X118.687 Y114 E2.5187
G1 X118.363 Y114.613 E2.54176
G1 X118.054 Y115.162 E2.56272
G1 X117.698 Y115.678 E2.58357
G1 X117.248 Y116.223 E2.60707
G1 X116.842 Y116.688 E2.62761
G1 X116.396 Y117.115 E2.64814
G1 X115.801 Y117.594 E2.67355
G1 X115.334 Y117.946 E2.693
G1 X114.831 Y118.261 E2.71274
G1 X114.274 Y118.549 E2.73359
G1 X113.649 Y118.849 E2.75665
G1 X113.068 Y119.067 E2.77729
G1 X112.399 Y119.254 E2.8004
G1 X111.808 Y119.402 E2.82066
G1 X111.193 Y119.499 E2.84137
G1 X110.478 Y119.549 E2.86521
G1 X109.864 Y119.576 E2.88565
G1 X109.243 Y119.548 E2.90632
G1 X108.549 Y119.456 E2.92961
G1 X107.939 Y119.357 E2.95016
G1 X107.339 Y119.204 E2.97076
G1 X106.625 Y118.955 E2.99591
G1 X106.08 Y118.747 E3.01531
G1 X105.529 Y118.479 E3.03569
G1 X104.941 Y118.128 E3.05846
G1 X104.413 Y117.793 E3.07926
G1 X103.924 Y117.417 E3.09978
G1 X103.353 Y116.895 E3.12551
G1 X102.935 Y116.487 E3.14494
G1 X102.548 Y116.037 E3.16468
G1 X102.19 Y115.544 E3.18494
G1 X101.79 Y114.959 E3.20851
G1 X101.487 Y114.416 E3.2292
G1 X101.163 Y113.697 E3.25543
G1 X100.967 Y113.229 E3.2723
G1 X100.789 Y112.676 E3.29162
G1 X100.639 Y112.039 E3.31339
G1 X100.498 Y111.322 E3.33769
G1 X100.435 Y110.722 E3.35776
G1 X100.42 Y110.019 E3.38115
G1 X100.424 Y109.401 E3.4017
G1 X100.485 Y108.777 E3.42256
G1 X100.627 Y108.015 E3.44834
G1 X100.748 Y107.459 E3.46726
G1 X100.929 Y106.879 E3.48747
G1 X101.174 Y106.277 E3.50909
G1 X101.444 Y105.663 E3.5314
G1 X101.745 Y105.117 E3.55213
G1 X102.164 Y104.492 E3.57716
G1 X102.492 Y104.031 E3.59598
G1 X102.887 Y103.568 E3.61622
G1 X103.36 Y103.1 E3.63835
G1 X103.832 Y102.659 E3.65984
G1 X104.325 Y102.273 E3.68066
G1 X104.989 Y101.842 E3.70699
G1 X105.445 Y101.565 E3.72474
G1 X105.979 Y101.301 E3.74455
G1 X106.575 Y101.065 E3.76587
G1 X107.241 Y100.825 E3.78941
G1 X107.825 Y100.671 E3.8095
G1 X108.502 Y100.552 E3.83236
G1 X109.147 Y100.459 E3.85404
G1 X109.763 Y100.425 E3.87456
G1 X110.385 Y100.444 E3.89526
G1 X111.057 Y100.482 E3.91764
G0 F3600 X111.081 Y100.083
G1 F1200 X111.765 Y100.184 E3.94064
G1 X112.503 Y100.359 E3.96587
G1 X113.071 Y100.51 E3.98541
G1 X113.726 Y100.75 E4.00862
G1 X114.417 Y101.074 E4.034
G1 X114.947 Y101.341 E4.05374
G1 X115.529 Y101.703 E4.07653
G1 X116.064 Y102.103 E4.09875
G1 X116.576 Y102.508 E4.12047
G1 X117.065 Y102.97 E4.14284
G1 X117.483 Y103.437 E4.16369
G1 X117.93 Y103.965 E4.1867
G1 X118.328 Y104.531 E4.20971
G1 X118.682 Y105.14 E4.23314
G1 X118.985 Y105.694 E4.25414
G1 X119.265 Y106.338 E4.2775
G1 X119.506 Y107.061 E4.30284
G1 X119.676 Y107.626 E4.32247
G1 X119.815 Y108.289 E4.345
G1 X119.888 Y108.891 E4.36517
G1 X119.954 Y109.595 E4.38869
G1 X119.958 Y110.288 E4.41174
G1 X119.895 Y111.057 E4.4374
G1 X119.831 Y111.63 E4.45658
G1 X119.694 Y112.304 E4.47945
G1 X119.502 Y112.955 E4.50203
G1 X119.308 Y113.555 E4.523
G1 X119.04 Y114.187 E4.54583
G1 X118.716 Y114.8 E4.56889
G1 X118.402 Y115.359 E4.59022
G1 X118.006 Y115.933 E4.61341
G1 X117.556 Y116.478 E4.63692
G1 X117.142 Y116.952 E4.65785
G1 X116.646 Y117.427 E4.68069
G1 X116.051 Y117.906 E4.7061
G1 X115.574 Y118.266 E4.72597
G1 X115.015 Y118.616 E4.74791
G1 X114.458 Y118.904 E4.76877
G1 X113.821 Y119.21 E4.79227
G1 X113.176 Y119.452 E4.81518
G1 X112.507 Y119.639 E4.83829
G1 X111.905 Y119.79 E4.85893
G1 X111.221 Y119.898 E4.88196
G1 X110.506 Y119.948 E4.9058
G1 X109.88 Y119.976 E4.92664
G1 X109.19 Y119.944 E4.94962
G1 X108.496 Y119.852 E4.9729
G1 X107.874 Y119.752 E4.99385
G1 X107.207 Y119.582 E5.01675
G1 X106.493 Y119.333 E5.0419
G1 X105.936 Y119.12 E5.06173
G1 X105.324 Y118.823 E5.08436
G1 X104.736 Y118.472 E5.10713
G1 X104.197 Y118.13 E5.12837
G1 X103.654 Y117.712 E5.15116
G1 X103.083 Y117.19 E5.17689
G1 X102.655 Y116.773 E5.19676
G1 X102.224 Y116.272 E5.21875
G1 X101.866 Y115.779 E5.23901
G1 X101.46 Y115.184 E5.26297
G1 X101.122 Y114.58 E5.28599
G1 X100.798 Y113.861 E5.31222
G1 X100.597 Y113.382 E5.3295
G1 X100.399 Y112.768 E5.35095
G1 X100.249 Y112.131 E5.37272
G1 X100.105 Y111.398 E5.39756
G1 X100.035 Y110.73 E5.4199
G1 X100.02 Y110.027 E5.44329
G1 X100.024 Y109.397 E5.46425
G1 X100.092 Y108.704 E5.48741
G1 X100.234 Y107.942 E5.51319
G1 X100.357 Y107.373 E5.53255
G1 X100.558 Y106.728 E5.55502
G1 X100.803 Y106.126 E5.57664
G1 X101.078 Y105.501 E5.59935
G1 X101.413 Y104.895 E5.62238
G1 X101.832 Y104.27 E5.6474
G1 X102.167 Y103.798 E5.66665
G1 X102.606 Y103.284 E5.68914
G1 X103.079 Y102.816 E5.71127
G1 X103.559 Y102.366 E5.73315
G1 X104.107 Y101.938 E5.75628
G1 X104.771 Y101.507 E5.78261
G1 X105.239 Y101.222 E5.80083
G1 X105.831 Y100.929 E5.8228
G1 X106.427 Y100.693 E5.84412
G1 X107.107 Y100.448 E5.86816
G1 X107.756 Y100.277 E5.89049
G1 X108.433 Y100.158 E5.91335
G1 X109.09 Y100.063 E5.93543
G1 X109.775 Y100.025 E5.95825
G1 X110.397 Y100.044 E5.97894
G1 X111.081 Y100.083 E6.00173
G0 F3600 X111.105 Y99.684
G1 F1200 X111.857 Y99.795 E6.02701
G1 X112.595 Y99.97 E6.05224
G1 X113.175 Y100.124 E6.0722
G1 X113.896 Y100.388 E6.09774
G1 X114.587 Y100.712 E6.12312
G1 X115.128 Y100.985 E6.14327
G1 X115.769 Y101.383 E6.16837
G1 X116.304 Y101.783 E6.19059
G1 X116.825 Y102.195 E6.21268
G1 X117.364 Y102.703 E6.23731
G1 X117.782 Y103.17 E6.25816
G1 X118.236 Y103.708 E6.28157
G1 X118.674 Y104.33 E6.30688
G1 X119.028 Y104.939 E6.33031
G1 X119.337 Y105.503 E6.35169
G1 X119.644 Y106.212 E6.37739
G1 X119.885 Y106.935 E6.40274
G1 X120.06 Y107.511 E6.42276
G1 X120.212 Y108.241 E6.44756
G1 X120.285 Y108.843 E6.46773
G1 X120.353 Y109.559 E6.49165
G1 X120.356 Y110.32 E6.51696
G1 X120.293 Y111.089 E6.54263
G1 X120.228 Y111.676 E6.56227
G1 X120.077 Y112.417 E6.58742
G1 X119.885 Y113.068 E6.61
G1 X119.688 Y113.679 E6.63135
G1 X119.394 Y114.374 E6.65645
G1 X119.07 Y114.987 E6.67951
G1 X118.749 Y115.556 E6.70124
G1 X118.315 Y116.187 E6.72671
G1 X117.865 Y116.732 E6.75022
G1 X117.443 Y117.216 E6.77158
G1 X116.897 Y117.738 E6.7967
G1 X116.302 Y118.217 E6.82211
G1 X115.813 Y118.586 E6.84248
G1 X115.199 Y118.971 E6.86658
G1 X114.642 Y119.259 E6.88744
G1 X113.993 Y119.571 E6.91139
G1 X113.283 Y119.838 E6.93662
G1 X112.614 Y120.025 E6.95972
G1 X112.001 Y120.179 E6.98075
G1 X111.249 Y120.297 E7.00606
G1 X110.534 Y120.347 E7.0299
G1 X109.897 Y120.375 E7.05111
G1 X109.138 Y120.341 E7.07638
G1 X108.444 Y120.249 E7.09966
G1 X107.809 Y120.147 E7.12106
G1 X107.075 Y119.96 E7.14625
G1 X106.361 Y119.711 E7.1714
G1 X105.792 Y119.494 E7.19165
G1 X105.119 Y119.166 E7.21655
G1 X104.531 Y118.815 E7.23933
G1 X103.982 Y118.466 E7.26097
G1 X103.384 Y118.007 E7.28604
G1 X102.813 Y117.485 E7.31177
G1 X102.374 Y117.058 E7.33214
G1 X101.901 Y116.507 E7.35629
G1 X101.543 Y116.014 E7.37656
G1 X101.129 Y115.408 E7.40097
G1 X100.757 Y114.745 E7.42625
G1 X100.433 Y114.026 E7.45248
G1 X100.228 Y113.535 E7.47018
G1 X100.01 Y112.86 E7.49377
G1 X99.86 Y112.223 E7.51554
G1 X99.713 Y111.473 E7.54096
G1 X99.635 Y110.739 E7.56551
G1 X99.62 Y110.036 E7.5889
G1 X99.624 Y109.393 E7.61028
G1 X99.698 Y108.631 E7.63575
G1 X99.84 Y107.869 E7.66153
G1 X99.967 Y107.287 E7.68134
G1 X100.188 Y106.577 E7.70607
G1 X100.433 Y105.975 E7.72769
G1 X100.713 Y105.339 E7.7508
G1 X101.08 Y104.672 E7.77612
G1 X101.499 Y104.047 E7.80115
G1 X101.842 Y103.565 E7.82083
G1 X102.324 Y102.999 E7.84555
G1 X102.797 Y102.531 E7.86768
G1 X103.286 Y102.073 E7.88997
G1 X103.889 Y101.602 E7.91542
G1 X104.553 Y101.171 E7.94175
G1 X105.032 Y100.88 E7.96039
G1 X105.684 Y100.557 E7.98459
G1 X106.28 Y100.321 E8.00591
G1 X106.973 Y100.072 E8.0304
G1 X107.686 Y99.883 E8.05493
G1 X108.363 Y99.764 E8.0778
G1 X109.034 Y99.667 E8.10035
G1 X109.787 Y99.625 E8.12543
G1 X110.409 Y99.644 E8.14613
G1 X111.105 Y99.684 E8.16931
G0 F3600 X111.129 Y99.285
G1 F1200 X111.95 Y99.406 E8.19692
G1 X112.688 Y99.581 E8.22214
G1 X113.28 Y99.738 E8.24251
G1 X114.066 Y100.026 E8.27036
G1 X114.757 Y100.35 E8.29574
G1 X115.309 Y100.628 E8.3163
G1 X116.008 Y101.063 E8.34368
G1 X116.543 Y101.463 E8.3659
G1 X117.074 Y101.882 E8.38839
G1 X117.662 Y102.437 E8.41529
G1 X118.08 Y102.904 E8.43613
G1 X118.542 Y103.45 E8.45992
G1 X119.02 Y104.129 E8.48754
G1 X119.374 Y104.738 E8.51097
G1 X119.688 Y105.312 E8.53273
G1 X120.024 Y106.085 E8.56076
G1 X120.265 Y106.808 E8.58611
G1 X120.443 Y107.396 E8.60654
G1 X120.609 Y108.193 E8.63362
G1 X120.682 Y108.795 E8.65379
G1 X120.751 Y109.522 E8.67808
G1 X120.755 Y110.353 E8.70572
G1 X120.692 Y111.122 E8.73138
G1 X120.625 Y111.722 E8.75146
G1 X120.461 Y112.53 E8.77888
G1 X120.269 Y113.181 E8.80146
G1 X120.069 Y113.803 E8.82319
G1 X119.748 Y114.561 E8.85057
G1 X119.424 Y115.174 E8.87363
G1 X119.097 Y115.754 E8.89578
G1 X118.623 Y116.442 E8.92356
G1 X118.173 Y116.987 E8.94707
G1 X117.743 Y117.48 E8.96883
G1 X117.148 Y118.05 E8.99623
G1 X116.553 Y118.529 E9.02164
G1 X116.053 Y118.907 E9.04249
G1 X115.383 Y119.327 E9.06879
G1 X114.826 Y119.615 E9.08964
G1 X114.166 Y119.932 E9.114
G1 X113.391 Y120.223 E9.14153
G1 X112.722 Y120.41 E9.16463
G1 X112.097 Y120.567 E9.18607
G1 X111.277 Y120.696 E9.21368
G1 X110.562 Y120.746 E9.23752
G1 X109.913 Y120.775 E9.25912
G1 X109.085 Y120.737 E9.28669
G1 X108.391 Y120.645 E9.30998
G1 X107.744 Y120.541 E9.33177
G1 X106.943 Y120.337 E9.35926
G1 X106.229 Y120.088 E9.38441
G1 X105.648 Y119.867 E9.40509
G1 X104.914 Y119.51 E9.43224
G1 X104.326 Y119.159 E9.45501
G1 X103.766 Y118.803 E9.47708
G1 X103.114 Y118.303 E9.50441
G1 X102.543 Y117.781 E9.53014
G1 X102.094 Y117.343 E9.551
G1 X101.577 Y116.742 E9.57737
G1 X101.219 Y116.249 E9.59764
G1 X100.798 Y115.633 E9.62245
G1 X100.393 Y114.909 E9.65004
G1 X100.069 Y114.19 E9.67627
G1 X99.858 Y113.688 E9.69439
G1 X99.621 Y112.951 E9.72014
G1 X99.471 Y112.314 E9.7419
G1 X99.32 Y111.548 E9.76787
G1 X99.235 Y110.747 E9.79466
G1 X99.22 Y110.044 E9.81805
G1 X99.224 Y109.389 E9.83983
G1 X99.305 Y108.558 E9.8676
G1 X99.447 Y107.796 E9.89338
G1 X99.576 Y107.2 E9.91367
G1 X99.817 Y106.427 E9.9406
G1 X100.062 Y105.825 E9.96221
G1 X100.347 Y105.177 E9.98576
G1 X100.748 Y104.449 E10.0134
G1 X101.167 Y103.824 E10.03843
G1 X101.517 Y103.332 E10.05851
G1 X102.043 Y102.715 E10.08548
G1 X102.516 Y102.247 E10.10761
G1 X103.014 Y101.78 E10.13032
G1 X103.672 Y101.267 E10.15807
G1 X104.336 Y100.836 E10.1844
G1 X104.826 Y100.537 E10.20349
G1 X105.537 Y100.185 E10.22988
G1 X106.133 Y99.949 E10.2512
G1 X106.839 Y99.695 E10.27615
G1 X107.617 Y99.489 E10.30292
G1 X108.294 Y99.37 E10.32578
G1 X108.978 Y99.271 E10.34877
G1 X109.8 Y99.225 E10.37615
G1 X110.422 Y99.244 E10.39685
G1 X111.129 Y99.285 E10.4204
G1 F2700 E5.4204
;MESH:FixationPotard-Cabochon.stl
G0 F3600 X109.73 Y103.35
G0 X109.682 Y104.434
G0 X107.172 Y106.119
;TYPE:WALL-INNER
G1 F2700 E10.4204
G1 F1200 X106.333 Y106.898 E10.45848
G1 X105.796 Y107.68 E10.49003
G1 X105.597 Y108.105 E10.50564
G1 X105.382 Y108.7 E10.52668
G1 X105.305 Y108.988 E10.5366
G1 X105.22 Y109.8 E10.56375
G1 X105.183 Y109.981 E10.5699
G1 X105.185 Y110.833 E10.59824
G1 X105.352 Y111.757 E10.62947
G1 X105.656 Y112.478 E10.65549
G1 X105.81 Y112.844 E10.6687
G1 X106.16 Y113.351 E10.68919
G1 X106.312 Y113.571 E10.69808
G1 X106.678 Y113.961 E10.71587
G1 X106.835 Y114.098 E10.7228
G1 X106.989 Y114.233 E10.72961
G1 X107.454 Y114.594 E10.74919
G1 X107.693 Y114.718 E10.75815
G1 X108.424 Y115.098 E10.78555
G1 X108.645 Y115.167 E10.79325
G1 X108.903 Y115.248 E10.80225
G1 X109.101 Y115.293 E10.809
G1 X108.901 Y115.264 E10.80913
G1 X108.628 Y115.223 E10.8101
G1 X108.408 Y115.142 E10.81116
G1 X107.624 Y114.852 E10.81815
G1 X107.386 Y114.705 E10.82151
G1 X106.888 Y114.397 E10.82952
G1 X106.684 Y114.271 E10.83399
G1 X106.527 Y114.121 E10.83811
G1 X106.14 Y113.753 E10.84865
G1 X105.904 Y113.528 E10.85657
G1 X105.552 Y113.026 E10.87251
