;FLAVOR:Marlin
;TIME:1814
;Filament used: 0.613945m
;Layer height: 0.1
;MINX:89.7
;MINY:113.179
;MINZ:0.2
;MAXX:130.3
;MAXY:150.779
;MAXZ:14
;Generated with Cura_SteamEngine 4.6.1
M140 S60
M105
M190 S60
M104 S200
M105
M109 S200
M82 ;absolute extrusion mode
; -- START GCODE --
G21        ;metric values
G90        ;absolute positioning
M82        ;set extruder to absolute mode
M107       ;start with the fan off
G28 X0 Y0  ;move X/Y to min endstops
G28 Z0       ;move Z to min endstops
G92 E0                  ;zero the extruded length again
G1 Z1 F1000             ;move up slightly
G1 Y60.0 Z0 E9.0 F1000.0;intro line
G1 Y100.0 E21.5 F1000.0 ;continue line
G92 E0                  ;zero the extruded length again
G1 F80
;Put printing message on LCD screen
M117 Printing...
; -- end of START GCODE --
G92 E0
G92 E0
G1 F2700 E-5
;LAYER_COUNT:139
;LAYER:0
M107
G0 F3600 X100.003 Y116.902 Z0.2
;TYPE:SKIRT
G1 F2700 E0
G1 F1200 X100.616 Y116.405 E0.02625
G1 X101.301 Y115.959 E0.05343
G1 X102.9 Y115.032 E0.11491
G1 X103.602 Y114.671 E0.14116
G1 X104.363 Y114.374 E0.16833
G1 X106.12 Y113.793 E0.22988
G1 X106.881 Y113.584 E0.25613
G1 X107.688 Y113.449 E0.28335
G1 X109.527 Y113.24 E0.34491
G1 X110.284 Y113.191 E0.37014
G1 X110.976 Y113.18 E0.39315
G1 X122.5 Y113.179 E0.77644
G1 X123.289 Y113.219 E0.80272
G1 X124.069 Y113.338 E0.82896
G1 X124.834 Y113.536 E0.85525
G1 X125.574 Y113.81 E0.88149
G1 X126.283 Y114.158 E0.90776
G1 X126.954 Y114.576 E0.93405
G1 X127.578 Y115.059 E0.9603
G1 X128.151 Y115.602 E0.98656
G1 X128.666 Y116.201 E1.01283
G1 X129.117 Y116.849 E1.03909
G1 X129.501 Y117.54 E1.06538
G1 X129.813 Y118.265 E1.09163
G1 X130.05 Y119.018 E1.11789
G1 X130.209 Y119.792 E1.14417
G1 X130.29 Y120.577 E1.17042
G1 X130.3 Y128.479 E1.43324
G1 X130.26 Y129.268 E1.45952
G1 X130.141 Y130.048 E1.48576
G1 X129.943 Y130.813 E1.51204
G1 X129.669 Y131.553 E1.53829
G1 X129.321 Y132.262 E1.56456
G1 X128.903 Y132.933 E1.59085
G1 X128.863 Y132.984 E1.593
G1 X129.117 Y133.349 E1.6078
G1 X129.501 Y134.04 E1.63409
G1 X129.813 Y134.765 E1.66034
G1 X130.05 Y135.518 E1.6866
G1 X130.209 Y136.292 E1.71288
G1 X130.29 Y137.077 E1.73912
G1 X130.3 Y142.979 E1.93543
G1 X130.26 Y143.768 E1.9617
G1 X130.141 Y144.548 E1.98795
G1 X129.943 Y145.313 E2.01423
G1 X129.669 Y146.053 E2.04047
G1 X129.321 Y146.762 E2.06674
G1 X128.903 Y147.433 E2.09304
G1 X128.42 Y148.057 E2.11928
G1 X127.877 Y148.63 E2.14554
G1 X127.278 Y149.145 E2.17181
G1 X126.63 Y149.596 E2.19807
G1 X125.939 Y149.98 E2.22436
G1 X125.214 Y150.292 E2.25061
G1 X124.461 Y150.529 E2.27687
G1 X123.687 Y150.688 E2.30315
G1 X122.902 Y150.769 E2.3294
G1 X97.5 Y150.779 E3.17427
G1 X96.711 Y150.739 E3.20055
G1 X95.931 Y150.62 E3.22679
G1 X95.166 Y150.422 E3.25308
G1 X94.426 Y150.148 E3.27932
G1 X93.717 Y149.8 E3.30559
G1 X93.046 Y149.382 E3.33188
G1 X92.422 Y148.899 E3.35813
G1 X91.849 Y148.356 E3.38438
G1 X91.334 Y147.757 E3.41066
G1 X90.883 Y147.109 E3.43692
G1 X90.499 Y146.418 E3.46321
G1 X90.187 Y145.693 E3.48946
G1 X89.95 Y144.94 E3.51572
G1 X89.791 Y144.166 E3.542
G1 X89.71 Y143.381 E3.56825
G1 X89.7 Y139.98 E3.68137
G1 X89.74 Y139.191 E3.70764
G1 X89.859 Y138.411 E3.73388
G1 X90.132 Y137.421 E3.76804
G1 X94.63 Y124.467 E4.22413
G1 X94.932 Y123.724 E4.2508
G1 X95.676 Y122.132 E4.30925
G1 X96.046 Y121.434 E4.33553
G1 X96.453 Y120.82 E4.36003
G1 X97.547 Y119.329 E4.42153
G1 X98.046 Y118.716 E4.44782
G1 X98.626 Y118.138 E4.47506
G1 X100.003 Y116.902 E4.5366
G0 F3600 X100.27 Y117.2
G1 F1200 X100.868 Y116.717 E4.56217
G1 X101.502 Y116.305 E4.58732
G1 X103.101 Y115.378 E4.64879
G1 X103.785 Y115.027 E4.67436
G1 X104.489 Y114.754 E4.69947
G1 X106.246 Y114.173 E4.76103
G1 X106.988 Y113.97 E4.78661
G1 X107.733 Y113.846 E4.81173
G1 X109.572 Y113.637 E4.87329
G1 X110.29 Y113.591 E4.89722
G1 X110.982 Y113.58 E4.92024
G1 X122.5 Y113.579 E5.30333
G1 X123.268 Y113.619 E5.32891
G1 X124.028 Y113.738 E5.35449
G1 X124.771 Y113.936 E5.38007
G1 X125.49 Y114.21 E5.40566
G1 X126.176 Y114.557 E5.43123
G1 X126.823 Y114.973 E5.45681
G1 X127.423 Y115.454 E5.48239
G1 X127.97 Y115.995 E5.50798
G1 X128.458 Y116.59 E5.53357
G1 X128.881 Y117.232 E5.55914
G1 X129.236 Y117.915 E5.58475
G1 X129.517 Y118.63 E5.6103
G1 X129.723 Y119.372 E5.63591
G1 X129.851 Y120.13 E5.66148
G1 X129.9 Y120.979 E5.68976
G1 X129.9 Y128.479 E5.93921
G1 X129.86 Y129.247 E5.96479
G1 X129.741 Y130.007 E5.99038
G1 X129.543 Y130.75 E6.01595
G1 X129.269 Y131.469 E6.04154
G1 X128.922 Y132.155 E6.06711
G1 X128.506 Y132.802 E6.0927
G1 X128.366 Y132.977 E6.10015
G1 X128.881 Y133.732 E6.13055
G1 X129.236 Y134.415 E6.15615
G1 X129.517 Y135.13 E6.1817
G1 X129.723 Y135.872 E6.20731
G1 X129.851 Y136.63 E6.23288
G1 X129.9 Y137.479 E6.26117
G1 X129.9 Y142.979 E6.4441
G1 X129.86 Y143.747 E6.46968
G1 X129.741 Y144.507 E6.49526
G1 X129.543 Y145.25 E6.52084
G1 X129.269 Y145.969 E6.54643
G1 X128.922 Y146.655 E6.572
G1 X128.506 Y147.302 E6.59758
G1 X128.025 Y147.902 E6.62316
G1 X127.484 Y148.449 E6.64875
G1 X126.889 Y148.937 E6.67434
G1 X126.247 Y149.36 E6.69991
G1 X125.564 Y149.715 E6.72551
G1 X124.849 Y149.996 E6.75107
G1 X124.107 Y150.202 E6.77668
G1 X123.349 Y150.33 E6.80225
G1 X122.5 Y150.379 E6.83053
G1 X97.5 Y150.379 E7.66203
G1 X96.732 Y150.339 E7.68761
G1 X95.972 Y150.22 E7.7132
G1 X95.229 Y150.022 E7.73877
G1 X94.51 Y149.748 E7.76437
G1 X93.824 Y149.401 E7.78993
G1 X93.177 Y148.985 E7.81552
G1 X92.577 Y148.504 E7.8411
G1 X92.03 Y147.963 E7.86668
G1 X91.542 Y147.368 E7.89228
G1 X91.119 Y146.726 E7.91785
G1 X90.764 Y146.043 E7.94345
G1 X90.483 Y145.328 E7.969
G1 X90.277 Y144.586 E7.99462
G1 X90.149 Y143.828 E8.02018
G1 X90.1 Y142.979 E8.04847
G1 X90.1 Y139.98 E8.14822
G1 X90.14 Y139.212 E8.17379
G1 X90.259 Y138.452 E8.19938
G1 X90.509 Y137.553 E8.23042
G1 X95.007 Y124.599 E8.6865
G1 X95.294 Y123.893 E8.71185
G1 X96.038 Y122.301 E8.7703
G1 X96.399 Y121.622 E8.79587
G1 X96.776 Y121.056 E8.81849
G1 X97.87 Y119.565 E8.88
G1 X98.356 Y118.97 E8.90555
G1 X98.893 Y118.436 E8.93074
G1 X100.27 Y117.2 E8.99228
G0 F3600 X100.537 Y117.498
G1 F1200 X101.12 Y117.029 E9.01717
G1 X101.702 Y116.651 E9.04025
G1 X103.301 Y115.724 E9.10173
G1 X103.967 Y115.384 E9.1266
G1 X104.614 Y115.134 E9.14967
G1 X106.371 Y114.553 E9.21122
G1 X107.093 Y114.356 E9.23611
G1 X107.779 Y114.244 E9.25923
G1 X109.618 Y114.035 E9.32079
G1 X110.297 Y113.991 E9.34342
G1 X110.989 Y113.98 E9.36644
G1 X122.5 Y113.979 E9.74929
G1 X123.247 Y114.019 E9.77417
G1 X123.985 Y114.138 E9.79904
G1 X124.707 Y114.336 E9.82394
G1 X125.403 Y114.609 E9.8488
G1 X126.066 Y114.956 E9.87369
G1 X126.689 Y115.371 E9.89859
G1 X127.263 Y115.85 E9.92346
G1 X127.784 Y116.387 E9.94834
G1 X128.243 Y116.977 E9.9732
G1 X128.638 Y117.613 E9.99811
G1 X128.962 Y118.287 E10.02298
G1 X129.212 Y118.992 E10.04786
G1 X129.386 Y119.72 E10.07275
G1 X129.481 Y120.462 E10.09763
G1 X129.5 Y120.979 E10.11484
G1 X129.5 Y128.479 E10.36429
G1 X129.46 Y129.226 E10.38917
G1 X129.341 Y129.964 E10.41404
G1 X129.143 Y130.686 E10.43894
G1 X128.87 Y131.382 E10.4638
G1 X128.523 Y132.045 E10.48869
G1 X128.108 Y132.668 E10.51359
G1 X127.852 Y132.975 E10.52688
G1 X128.243 Y133.477 E10.54805
G1 X128.638 Y134.113 E10.57295
G1 X128.962 Y134.787 E10.59782
G1 X129.212 Y135.492 E10.6227
G1 X129.386 Y136.22 E10.6476
G1 X129.481 Y136.962 E10.67248
G1 X129.5 Y137.479 E10.68968
G1 X129.5 Y142.979 E10.87261
G1 X129.46 Y143.726 E10.8975
G1 X129.341 Y144.464 E10.92236
G1 X129.143 Y145.186 E10.94726
G1 X128.87 Y145.882 E10.97213
G1 X128.523 Y146.545 E10.99701
G1 X128.108 Y147.168 E11.02191
G1 X127.629 Y147.742 E11.04678
G1 X127.092 Y148.263 E11.07166
G1 X126.502 Y148.722 E11.09653
G1 X125.866 Y149.117 E11.12143
G1 X125.192 Y149.441 E11.1463
G1 X124.487 Y149.691 E11.17118
G1 X123.759 Y149.865 E11.19607
G1 X123.017 Y149.96 E11.22095
G1 X122.5 Y149.979 E11.23816
G1 X97.5 Y149.979 E12.06966
G1 X96.753 Y149.939 E12.09455
G1 X96.015 Y149.82 E12.11941
G1 X95.293 Y149.622 E12.14431
G1 X94.597 Y149.349 E12.16918
G1 X93.934 Y149.002 E12.19406
G1 X93.311 Y148.587 E12.21896
G1 X92.737 Y148.108 E12.24383
G1 X92.216 Y147.571 E12.26871
G1 X91.757 Y146.981 E12.29358
G1 X91.362 Y146.345 E12.31848
G1 X91.038 Y145.671 E12.34335
G1 X90.788 Y144.966 E12.36823
G1 X90.614 Y144.238 E12.39312
G1 X90.519 Y143.496 E12.418
G1 X90.5 Y142.979 E12.43521
G1 X90.5 Y139.98 E12.53496
G1 X90.54 Y139.233 E12.55984
G1 X90.659 Y138.495 E12.5847
G1 X90.887 Y137.684 E12.61272
G1 X95.385 Y124.73 E13.06881
G1 X95.656 Y124.062 E13.09278
G1 X96.4 Y122.47 E13.15123
G1 X96.753 Y121.81 E13.17613
G1 X97.098 Y121.293 E13.1968
G1 X98.192 Y119.802 E13.25831
G1 X98.666 Y119.223 E13.28319
G1 X99.16 Y118.734 E13.30631
G1 X100.537 Y117.498 E13.36786
G0 F3600 X100.804 Y117.795
G1 F1200 X101.371 Y117.341 E13.39202
G1 X101.903 Y116.997 E13.41309
G1 X103.502 Y116.07 E13.47456
G1 X104.149 Y115.741 E13.4987
G1 X104.74 Y115.514 E13.51976
G1 X106.497 Y114.933 E13.58131
G1 X107.198 Y114.743 E13.60547
G1 X107.824 Y114.641 E13.62656
G1 X109.663 Y114.432 E13.68812
G1 X110.303 Y114.391 E13.70945
G1 X110.995 Y114.38 E13.73247
G1 X122.5 Y114.379 E14.11513
G1 X123.225 Y114.419 E14.13928
G1 X123.942 Y114.538 E14.16345
G1 X124.641 Y114.736 E14.18762
G1 X125.314 Y115.009 E14.21177
G1 X125.953 Y115.354 E14.23592
G1 X126.55 Y115.768 E14.26009
G1 X127.098 Y116.244 E14.28423
G1 X127.591 Y116.778 E14.3084
G1 X128.021 Y117.363 E14.33255
G1 X128.385 Y117.992 E14.35672
G1 X128.678 Y118.657 E14.38089
G1 X128.896 Y119.35 E14.40505
G1 X129.036 Y120.062 E14.42919
G1 X129.1 Y120.979 E14.45976
G1 X129.1 Y128.479 E14.70921
G1 X129.06 Y129.204 E14.73336
G1 X128.941 Y129.921 E14.75754
G1 X128.743 Y130.62 E14.7817
G1 X128.47 Y131.293 E14.80586
G1 X128.125 Y131.932 E14.83001
G1 X127.711 Y132.529 E14.85417
G1 X127.318 Y132.982 E14.87412
G1 X127.591 Y133.278 E14.88751
G1 X128.021 Y133.863 E14.91166
G1 X128.385 Y134.492 E14.93583
G1 X128.678 Y135.157 E14.96
G1 X128.896 Y135.85 E14.98416
G1 X129.036 Y136.562 E15.0083
G1 X129.1 Y137.479 E15.03887
G1 X129.1 Y142.979 E15.2218
G1 X129.06 Y143.704 E15.24595
G1 X128.941 Y144.421 E15.27013
G1 X128.743 Y145.12 E15.29429
G1 X128.47 Y145.793 E15.31845
G1 X128.125 Y146.432 E15.3426
G1 X127.711 Y147.029 E15.36676
G1 X127.235 Y147.577 E15.39091
G1 X126.701 Y148.07 E15.41508
G1 X126.116 Y148.5 E15.43923
G1 X125.487 Y148.864 E15.4634
G1 X124.822 Y149.157 E15.48757
G1 X124.129 Y149.375 E15.51173
G1 X123.417 Y149.515 E15.53586
G1 X122.5 Y149.579 E15.56644
G1 X97.5 Y149.579 E16.39794
G1 X96.775 Y149.539 E16.42209
G1 X96.058 Y149.42 E16.44627
G1 X95.359 Y149.222 E16.47043
G1 X94.686 Y148.949 E16.49458
G1 X94.047 Y148.604 E16.51874
G1 X93.45 Y148.19 E16.5429
G1 X92.902 Y147.714 E16.56704
G1 X92.409 Y147.18 E16.59122
G1 X91.979 Y146.595 E16.61536
G1 X91.615 Y145.966 E16.63954
G1 X91.322 Y145.301 E16.66371
G1 X91.104 Y144.608 E16.68787
G1 X90.964 Y143.896 E16.712
G1 X90.9 Y142.979 E16.74258
G1 X90.9 Y139.98 E16.84232
G1 X90.94 Y139.255 E16.86647
G1 X91.059 Y138.538 E16.89065
G1 X91.265 Y137.815 E16.91565
G1 X95.763 Y124.861 E17.37174
G1 X96.019 Y124.232 E17.39433
G1 X96.763 Y122.64 E17.45277
G1 X97.106 Y122 E17.47692
G1 X97.421 Y121.53 E17.49574
G1 X98.515 Y120.039 E17.55725
G1 X98.976 Y119.478 E17.5814
G1 X99.427 Y119.031 E17.60252
G1 X100.804 Y117.795 E17.66406
G0 F3600 X101.072 Y118.093
G1 F1200 X101.621 Y117.653 E17.68746
G1 X102.103 Y117.343 E17.70652
G1 X103.702 Y116.416 E17.768
G1 X104.331 Y116.098 E17.79144
G1 X104.865 Y115.893 E17.81047
G1 X106.622 Y115.312 E17.87202
G1 X107.302 Y115.13 E17.89543
G1 X107.869 Y115.039 E17.91453
G1 X109.708 Y114.83 E17.97609
G1 X110.309 Y114.791 E17.99612
G1 X111.001 Y114.78 E18.01914
G1 X122.5 Y114.779 E18.4016
G1 X123.203 Y114.819 E18.42502
G1 X123.897 Y114.938 E18.44844
G1 X124.572 Y115.136 E18.47183
G1 X125.221 Y115.408 E18.49524
G1 X125.835 Y115.753 E18.51866
G1 X126.406 Y116.164 E18.54206
G1 X126.927 Y116.638 E18.56549
G1 X127.391 Y117.168 E18.58892
G1 X127.791 Y117.747 E18.61232
G1 X128.123 Y118.368 E18.63574
G1 X128.383 Y119.022 E18.65915
G1 X128.567 Y119.702 E18.68258
G1 X128.673 Y120.398 E18.706
G1 X128.7 Y120.979 E18.72534
G1 X128.7 Y128.479 E18.97479
G1 X128.66 Y129.182 E18.99821
G1 X128.541 Y129.876 E19.02163
G1 X128.343 Y130.551 E19.04503
G1 X128.071 Y131.2 E19.06844
G1 X127.726 Y131.814 E19.09186
G1 X127.315 Y132.385 E19.11526
G1 X126.841 Y132.906 E19.13869
G1 X126.755 Y132.981 E19.14248
G1 X126.927 Y133.138 E19.15023
G1 X127.391 Y133.668 E19.17366
G1 X127.791 Y134.247 E19.19706
G1 X128.123 Y134.868 E19.22048
G1 X128.383 Y135.522 E19.24389
G1 X128.567 Y136.202 E19.26732
G1 X128.673 Y136.898 E19.29074
G1 X128.7 Y137.479 E19.31008
G1 X128.7 Y142.979 E19.49301
G1 X128.66 Y143.682 E19.51643
G1 X128.541 Y144.376 E19.53985
G1 X128.343 Y145.051 E19.56325
G1 X128.071 Y145.7 E19.58665
G1 X127.726 Y146.314 E19.61008
G1 X127.315 Y146.885 E19.63348
G1 X126.841 Y147.406 E19.65691
G1 X126.311 Y147.87 E19.68033
G1 X125.732 Y148.27 E19.70374
G1 X125.111 Y148.602 E19.72716
G1 X124.457 Y148.862 E19.75057
G1 X123.777 Y149.046 E19.774
G1 X123.081 Y149.152 E19.79742
G1 X122.5 Y149.179 E19.81676
G1 X97.5 Y149.179 E20.64826
G1 X96.797 Y149.139 E20.67168
G1 X96.103 Y149.02 E20.6951
G1 X95.428 Y148.822 E20.7185
G1 X94.779 Y148.55 E20.7419
G1 X94.165 Y148.205 E20.76533
G1 X93.594 Y147.794 E20.78873
G1 X93.073 Y147.32 E20.81216
G1 X92.609 Y146.79 E20.83559
G1 X92.209 Y146.211 E20.85899
G1 X91.877 Y145.59 E20.88241
G1 X91.617 Y144.936 E20.90582
G1 X91.433 Y144.256 E20.92925
G1 X91.327 Y143.56 E20.95267
G1 X91.3 Y142.979 E20.97201
G1 X91.3 Y139.98 E21.07176
G1 X91.34 Y139.277 E21.09518
G1 X91.459 Y138.583 E21.1186
G1 X91.643 Y137.946 E21.14065
G1 X96.141 Y124.992 E21.59674
G1 X96.381 Y124.401 E21.61795
G1 X97.125 Y122.809 E21.6764
G1 X97.459 Y122.189 E21.69982
G1 X97.743 Y121.766 E21.71677
G1 X98.837 Y120.275 E21.77828
G1 X99.285 Y119.732 E21.80169
G1 X99.695 Y119.329 E21.82081
G1 X101.072 Y118.093 E21.88235
G0 F3600 X101.339 Y118.391
G1 F1200 X101.871 Y117.966 E21.905
G1 X102.304 Y117.689 E21.9221
G1 X103.903 Y116.762 E21.98357
G1 X104.511 Y116.456 E22.00621
G1 X104.991 Y116.273 E22.0233
G1 X106.748 Y115.692 E22.08485
G1 X107.406 Y115.517 E22.10749
G1 X107.914 Y115.436 E22.1246
G1 X109.753 Y115.227 E22.18616
G1 X110.316 Y115.191 E22.20493
G1 X111.008 Y115.18 E22.22794
G1 X122.5 Y115.179 E22.61017
G1 X123.18 Y115.219 E22.63283
G1 X123.85 Y115.338 E22.65546
G1 X124.502 Y115.535 E22.67811
G1 X125.126 Y115.807 E22.70075
G1 X125.714 Y116.151 E22.72341
G1 X126.258 Y116.561 E22.74607
G1 X126.749 Y117.032 E22.7687
G1 X127.183 Y117.557 E22.79135
G1 X127.552 Y118.129 E22.81399
G1 X127.851 Y118.741 E22.83665
G1 X128.076 Y119.383 E22.85927
G1 X128.225 Y120.048 E22.88194
G1 X128.3 Y120.979 E22.91301
G1 X128.3 Y128.479 E23.16246
G1 X128.26 Y129.159 E23.18511
G1 X128.141 Y129.829 E23.20775
G1 X127.944 Y130.481 E23.2304
G1 X127.672 Y131.105 E23.25304
G1 X127.328 Y131.693 E23.2757
G1 X126.918 Y132.237 E23.29836
G1 X126.447 Y132.728 E23.32099
G1 X126.146 Y132.977 E23.33398
G1 X126.258 Y133.061 E23.33863
G1 X126.749 Y133.532 E23.36126
G1 X127.183 Y134.057 E23.38392
G1 X127.552 Y134.629 E23.40656
G1 X127.851 Y135.241 E23.42921
G1 X128.076 Y135.883 E23.45184
G1 X128.225 Y136.548 E23.47451
G1 X128.3 Y137.479 E23.50557
G1 X128.3 Y142.979 E23.6885
G1 X128.26 Y143.659 E23.71116
G1 X128.141 Y144.329 E23.73379
G1 X127.944 Y144.981 E23.75645
G1 X127.672 Y145.605 E23.77909
G1 X127.328 Y146.193 E23.80174
G1 X126.918 Y146.737 E23.8244
G1 X126.447 Y147.228 E23.84703
G1 X125.922 Y147.662 E23.86969
G1 X125.35 Y148.031 E23.89233
G1 X124.738 Y148.33 E23.91498
G1 X124.096 Y148.555 E23.93761
G1 X123.431 Y148.704 E23.96027
G1 X122.5 Y148.779 E23.99134
G1 X97.5 Y148.779 E24.82284
G1 X96.82 Y148.739 E24.8455
G1 X96.15 Y148.62 E24.86813
G1 X95.498 Y148.423 E24.89079
G1 X94.874 Y148.151 E24.91343
G1 X94.286 Y147.807 E24.93608
G1 X93.742 Y147.397 E24.95874
G1 X93.251 Y146.926 E24.98137
G1 X92.817 Y146.401 E25.00403
G1 X92.448 Y145.829 E25.02667
G1 X92.149 Y145.217 E25.04932
G1 X91.924 Y144.575 E25.07195
G1 X91.775 Y143.91 E25.09461
G1 X91.7 Y142.979 E25.12568
G1 X91.7 Y139.98 E25.22543
G1 X91.74 Y139.3 E25.24808
G1 X91.859 Y138.63 E25.27072
