;FLAVOR:Marlin
;TIME:1206
;Filament used: 0.620538m
;Layer height: 0.15
;MINX:89.2
;MINY:56.066
;MINZ:0.2
;MAXX:130.8
;MAXY:93.666
;MAXZ:11.9
;Generated with Cura_SteamEngine 4.6.1
M140 S60
M105
M190 S60
M104 S200
M105
M109 S200
M82 ;absolute extrusion mode
; -- START GCODE --
G21        ;metric values
G90        ;absolute positioning
M82        ;set extruder to absolute mode
M107       ;start with the fan off
G28 X0 Y0  ;move X/Y to min endstops
G28 Z0       ;move Z to min endstops
G92 E0                  ;zero the extruded length again
G1 Z1 F1000             ;move up slightly
G1 Y60.0 Z0 E9.0 F1000.0;intro line
G1 Y100.0 E21.5 F1000.0 ;continue line
G92 E0                  ;zero the extruded length again
G1 F80
;Put printing message on LCD screen
M117 Printing...
; -- end of START GCODE --
G92 E0
G92 E0
G1 F2700 E-5
;LAYER_COUNT:79
;LAYER:0
M107
G0 F3600 X96.36 Y60.407 Z0.2
;TYPE:SKIRT
G1 F2700 E0
G1 F1200 X96.606 Y60.058 E0.0142
G1 X97.093 Y59.437 E0.04045
G1 X97.678 Y58.832 E0.06844
G1 X97.993 Y58.54 E0.08273
G1 X98.599 Y58.033 E0.10901
G1 X99.343 Y57.536 E0.13877
G1 X99.707 Y57.322 E0.15281
G1 X100.407 Y56.957 E0.17907
G1 X101.188 Y56.648 E0.207
G1 X101.592 Y56.513 E0.22117
G1 X102.353 Y56.301 E0.24744
G1 X103.243 Y56.154 E0.27745
G1 X103.668 Y56.109 E0.29166
G1 X104.489 Y56.066 E0.319
G1 X123 Y56.066 E0.93468
G1 X123.789 Y56.106 E0.96096
G1 X124.569 Y56.225 E0.9872
G1 X125.334 Y56.423 E1.01348
G1 X126.074 Y56.697 E1.03973
G1 X126.783 Y57.045 E1.066
G1 X127.454 Y57.463 E1.09229
G1 X128.078 Y57.946 E1.11854
G1 X128.651 Y58.489 E1.14479
G1 X129.166 Y59.088 E1.17107
G1 X129.617 Y59.736 E1.19733
G1 X130.001 Y60.427 E1.22362
G1 X130.313 Y61.152 E1.24987
G1 X130.55 Y61.905 E1.27613
G1 X130.709 Y62.679 E1.30241
G1 X130.79 Y63.464 E1.32866
G1 X130.8 Y85.866 E2.07375
G1 X130.76 Y86.655 E2.10003
G1 X130.641 Y87.435 E2.12627
G1 X130.443 Y88.2 E2.15255
G1 X130.169 Y88.94 E2.1788
G1 X129.821 Y89.649 E2.20507
G1 X129.403 Y90.32 E2.23136
G1 X128.92 Y90.944 E2.25761
G1 X128.377 Y91.517 E2.28386
G1 X127.778 Y92.032 E2.31014
G1 X127.13 Y92.483 E2.33639
G1 X126.439 Y92.867 E2.36269
G1 X125.714 Y93.179 E2.38894
G1 X124.961 Y93.416 E2.41519
G1 X124.187 Y93.575 E2.44148
G1 X123.402 Y93.656 E2.46772
G1 X97 Y93.666 E3.34586
G1 X96.211 Y93.626 E3.37213
G1 X95.431 Y93.507 E3.39838
G1 X94.666 Y93.309 E3.42466
G1 X93.926 Y93.035 E3.4509
G1 X93.217 Y92.687 E3.47717
G1 X92.546 Y92.269 E3.50347
G1 X91.922 Y91.786 E3.52971
G1 X91.349 Y91.243 E3.55597
G1 X90.834 Y90.644 E3.58224
G1 X90.383 Y89.996 E3.6085
G1 X89.999 Y89.305 E3.63479
G1 X89.687 Y88.58 E3.66105
G1 X89.45 Y87.827 E3.6873
G1 X89.291 Y87.053 E3.71358
G1 X89.21 Y86.268 E3.73983
G1 X89.2 Y83.866 E3.81972
G1 X89.24 Y83.077 E3.846
G1 X89.359 Y82.297 E3.87224
G1 X89.529 Y81.625 E3.8953
G1 X95.1 Y63.051 E4.54026
G1 X95.378 Y62.275 E4.56768
G1 X95.542 Y61.884 E4.58178
G1 X95.884 Y61.172 E4.60805
G1 X96.36 Y60.407 E4.63802
G0 F3600 X96.687 Y60.638
G1 F1200 X96.933 Y60.289 E4.65222
G1 X97.408 Y59.684 E4.6778
G1 X97.95 Y59.125 E4.7037
G1 X98.265 Y58.833 E4.71798
G1 X98.856 Y58.34 E4.74358
G1 X99.546 Y57.881 E4.77115
G1 X99.91 Y57.667 E4.78519
G1 X100.592 Y57.312 E4.81076
G1 X101.315 Y57.027 E4.83661
G1 X101.719 Y56.892 E4.85078
G1 X102.46 Y56.687 E4.87635
G1 X103.285 Y56.552 E4.90415
G1 X103.71 Y56.507 E4.91837
G1 X104.489 Y56.466 E4.94431
G1 X123 Y56.466 E5.55999
G1 X123.768 Y56.506 E5.58557
G1 X124.528 Y56.625 E5.61116
G1 X125.271 Y56.823 E5.63673
G1 X125.99 Y57.097 E5.66232
G1 X126.676 Y57.444 E5.68789
G1 X127.323 Y57.86 E5.71348
G1 X127.923 Y58.341 E5.73905
G1 X128.47 Y58.882 E5.76464
G1 X128.958 Y59.477 E5.79024
G1 X129.381 Y60.119 E5.81581
G1 X129.736 Y60.802 E5.84141
G1 X130.017 Y61.517 E5.86696
G1 X130.223 Y62.259 E5.89257
G1 X130.351 Y63.017 E5.91814
G1 X130.4 Y63.866 E5.94643
G1 X130.4 Y85.866 E6.67815
G1 X130.36 Y86.634 E6.70373
G1 X130.241 Y87.394 E6.72931
G1 X130.043 Y88.137 E6.75489
G1 X129.769 Y88.856 E6.78048
G1 X129.422 Y89.542 E6.80605
G1 X129.006 Y90.189 E6.83163
G1 X128.525 Y90.789 E6.85721
G1 X127.984 Y91.336 E6.8828
G1 X127.389 Y91.824 E6.90839
G1 X126.747 Y92.247 E6.93396
G1 X126.064 Y92.602 E6.95957
G1 X125.349 Y92.883 E6.98512
G1 X124.607 Y93.089 E7.01073
G1 X123.849 Y93.217 E7.0363
G1 X123 Y93.266 E7.06458
G1 X97 Y93.266 E7.92935
G1 X96.232 Y93.226 E7.95492
G1 X95.472 Y93.107 E7.98051
G1 X94.729 Y92.909 E8.00609
G1 X94.01 Y92.635 E8.03168
G1 X93.324 Y92.288 E8.05725
G1 X92.677 Y91.872 E8.08283
G1 X92.077 Y91.391 E8.10841
G1 X91.53 Y90.85 E8.134
G1 X91.042 Y90.255 E8.15959
G1 X90.619 Y89.613 E8.18516
G1 X90.264 Y88.93 E8.21076
G1 X89.983 Y88.215 E8.23631
G1 X89.777 Y87.473 E8.26193
G1 X89.649 Y86.715 E8.2875
G1 X89.6 Y85.866 E8.31578
G1 X89.6 Y83.866 E8.3823
G1 X89.64 Y83.098 E8.40788
G1 X89.759 Y82.338 E8.43346
G1 X89.912 Y81.74 E8.45399
G1 X95.483 Y63.166 E9.09896
G1 X95.747 Y62.43 E9.12496
G1 X95.911 Y62.039 E9.13907
G1 X96.245 Y61.346 E9.16465
G1 X96.687 Y60.638 E9.19241
G0 F3600 X97.014 Y60.868
G1 F1200 X97.26 Y60.519 E9.20662
G1 X97.723 Y59.932 E9.23148
G1 X98.222 Y59.418 E9.25531
G1 X98.537 Y59.126 E9.26959
G1 X99.112 Y58.648 E9.29446
G1 X99.748 Y58.226 E9.31985
G1 X100.112 Y58.012 E9.33389
G1 X100.777 Y57.667 E9.35881
G1 X101.441 Y57.407 E9.38253
G1 X101.845 Y57.272 E9.3967
G1 X102.567 Y57.073 E9.42161
G1 X103.327 Y56.95 E9.44721
G1 X103.752 Y56.905 E9.46143
G1 X104.489 Y56.866 E9.48597
G1 X123 Y56.866 E10.10165
G1 X123.747 Y56.906 E10.12653
G1 X124.485 Y57.025 E10.1514
G1 X125.207 Y57.223 E10.1763
G1 X125.903 Y57.496 E10.20116
G1 X126.566 Y57.843 E10.22605
G1 X127.189 Y58.258 E10.25095
G1 X127.763 Y58.737 E10.27582
G1 X128.284 Y59.274 E10.3007
G1 X128.743 Y59.864 E10.32556
G1 X129.138 Y60.5 E10.35046
G1 X129.462 Y61.174 E10.37534
G1 X129.712 Y61.879 E10.40022
G1 X129.886 Y62.607 E10.42511
G1 X129.981 Y63.349 E10.44999
G1 X130 Y63.866 E10.4672
G1 X130 Y85.866 E11.19892
G1 X129.96 Y86.613 E11.2238
G1 X129.841 Y87.351 E11.24867
G1 X129.643 Y88.073 E11.27357
G1 X129.37 Y88.769 E11.29843
G1 X129.023 Y89.432 E11.32332
G1 X128.608 Y90.055 E11.34822
G1 X128.129 Y90.629 E11.37308
G1 X127.592 Y91.15 E11.39797
G1 X127.002 Y91.609 E11.42283
G1 X126.366 Y92.004 E11.44773
G1 X125.692 Y92.328 E11.47261
G1 X124.987 Y92.578 E11.49749
G1 X124.259 Y92.752 E11.52238
G1 X123.517 Y92.847 E11.54726
G1 X123 Y92.866 E11.56447
G1 X97 Y92.866 E12.42923
G1 X96.253 Y92.826 E12.45411
G1 X95.515 Y92.707 E12.47898
G1 X94.793 Y92.509 E12.50388
G1 X94.097 Y92.236 E12.52874
G1 X93.434 Y91.889 E12.55363
G1 X92.811 Y91.474 E12.57853
G1 X92.237 Y90.995 E12.6034
G1 X91.716 Y90.458 E12.62828
G1 X91.257 Y89.868 E12.65314
G1 X90.862 Y89.232 E12.67804
G1 X90.538 Y88.558 E12.70292
G1 X90.288 Y87.853 E12.7278
G1 X90.114 Y87.125 E12.75269
G1 X90.019 Y86.383 E12.77757
G1 X90 Y85.866 E12.79478
G1 X90 Y83.866 E12.8613
G1 X90.04 Y83.119 E12.88618
G1 X90.159 Y82.381 E12.91104
G1 X90.295 Y81.855 E12.92911
G1 X95.866 Y63.281 E13.57408
G1 X96.116 Y62.584 E13.59871
G1 X96.28 Y62.193 E13.61281
G1 X96.606 Y61.52 E13.63768
G1 X97.014 Y60.868 E13.66326
G0 F3600 X97.34 Y61.099
G1 F1200 X97.586 Y60.75 E13.67746
G1 X98.037 Y60.18 E13.70164
G1 X98.494 Y59.712 E13.72339
G1 X98.809 Y59.42 E13.73768
G1 X99.368 Y58.956 E13.76184
G1 X99.951 Y58.57 E13.7851
G1 X100.315 Y58.356 E13.79914
G1 X100.961 Y58.023 E13.82331
G1 X101.568 Y57.786 E13.84499
G1 X101.972 Y57.651 E13.85916
G1 X102.673 Y57.459 E13.88333
G1 X103.369 Y57.348 E13.90677
G1 X103.794 Y57.303 E13.92099
G1 X104.489 Y57.266 E13.94413
G1 X123 Y57.266 E14.55981
G1 X123.725 Y57.306 E14.58396
G1 X124.442 Y57.425 E14.60814
G1 X125.141 Y57.623 E14.6323
G1 X125.814 Y57.896 E14.65646
G1 X126.453 Y58.241 E14.68061
G1 X127.05 Y58.655 E14.70477
G1 X127.598 Y59.131 E14.72891
G1 X128.091 Y59.665 E14.75309
G1 X128.521 Y60.25 E14.77724
G1 X128.885 Y60.879 E14.80141
G1 X129.178 Y61.544 E14.82558
G1 X129.396 Y62.237 E14.84974
G1 X129.536 Y62.949 E14.87387
G1 X129.6 Y63.866 E14.90445
G1 X129.6 Y85.866 E15.63617
G1 X129.56 Y86.591 E15.66032
G1 X129.441 Y87.308 E15.68449
G1 X129.243 Y88.007 E15.70866
G1 X128.97 Y88.68 E15.73281
G1 X128.625 Y89.319 E15.75697
G1 X128.211 Y89.916 E15.78113
G1 X127.735 Y90.464 E15.80527
G1 X127.201 Y90.957 E15.82945
G1 X126.616 Y91.387 E15.85359
G1 X125.987 Y91.751 E15.87776
G1 X125.322 Y92.044 E15.90193
G1 X124.629 Y92.262 E15.9261
G1 X123.917 Y92.402 E15.95023
G1 X123 Y92.466 E15.98081
G1 X97 Y92.466 E16.84557
G1 X96.275 Y92.426 E16.86972
G1 X95.558 Y92.307 E16.89389
G1 X94.859 Y92.109 E16.91806
G1 X94.186 Y91.836 E16.94221
G1 X93.547 Y91.491 E16.96637
G1 X92.95 Y91.077 E16.99053
G1 X92.402 Y90.601 E17.01467
G1 X91.909 Y90.067 E17.03884
G1 X91.479 Y89.482 E17.06299
G1 X91.115 Y88.853 E17.08716
G1 X90.822 Y88.188 E17.11133
G1 X90.604 Y87.495 E17.1355
G1 X90.464 Y86.783 E17.15963
G1 X90.4 Y85.866 E17.1902
G1 X90.4 Y83.866 E17.25672
G1 X90.44 Y83.141 E17.28087
G1 X90.559 Y82.424 E17.30505
G1 X90.678 Y81.97 E17.32066
G1 X96.249 Y63.396 E17.96562
G1 X96.485 Y62.739 E17.98884
G1 X96.649 Y62.348 E18.00294
G1 X96.966 Y61.695 E18.02709
G1 X97.34 Y61.099 E18.05049
G0 F3600 X97.667 Y61.329
G1 F1200 X97.913 Y60.98 E18.06469
G1 X98.351 Y60.429 E18.0881
G1 X98.766 Y60.005 E18.10783
G1 X99.081 Y59.713 E18.12212
G1 X99.624 Y59.265 E18.14553
G1 X100.154 Y58.915 E18.16666
G1 X100.518 Y58.701 E18.1807
G1 X101.144 Y58.379 E18.20412
G1 X101.695 Y58.166 E18.22376
G1 X102.099 Y58.031 E18.23793
G1 X102.778 Y57.846 E18.26134
G1 X103.411 Y57.745 E18.28266
G1 X103.836 Y57.7 E18.29687
G1 X104.489 Y57.666 E18.31862
G1 X123 Y57.666 E18.9343
G1 X123.703 Y57.706 E18.95772
G1 X124.397 Y57.825 E18.98114
G1 X125.072 Y58.023 E19.00454
G1 X125.721 Y58.295 E19.02794
G1 X126.335 Y58.64 E19.05137
G1 X126.906 Y59.051 E19.07476
G1 X127.427 Y59.525 E19.09819
G1 X127.891 Y60.055 E19.12162
G1 X128.291 Y60.634 E19.14503
G1 X128.623 Y61.255 E19.16845
G1 X128.883 Y61.909 E19.19186
G1 X129.067 Y62.589 E19.21529
G1 X129.173 Y63.285 E19.2387
G1 X129.2 Y63.866 E19.25805
G1 X129.2 Y85.866 E19.98977
G1 X129.16 Y86.569 E20.01319
G1 X129.041 Y87.263 E20.03661
G1 X128.843 Y87.938 E20.06001
G1 X128.571 Y88.587 E20.08341
G1 X128.226 Y89.201 E20.10684
G1 X127.815 Y89.772 E20.13024
G1 X127.341 Y90.293 E20.15366
G1 X126.811 Y90.757 E20.17709
G1 X126.232 Y91.157 E20.2005
G1 X125.611 Y91.489 E20.22392
G1 X124.957 Y91.749 E20.24733
G1 X124.277 Y91.933 E20.27076
G1 X123.581 Y92.039 E20.29417
G1 X123 Y92.066 E20.31352
G1 X97 Y92.066 E21.17828
G1 X96.297 Y92.026 E21.2017
G1 X95.603 Y91.907 E21.22512
G1 X94.928 Y91.709 E21.24852
G1 X94.279 Y91.437 E21.27192
G1 X93.665 Y91.092 E21.29535
G1 X93.094 Y90.681 E21.31875
G1 X92.573 Y90.207 E21.34217
G1 X92.109 Y89.677 E21.3656
G1 X91.709 Y89.098 E21.38901
G1 X91.377 Y88.477 E21.41243
G1 X91.117 Y87.823 E21.43584
G1 X90.933 Y87.143 E21.45927
G1 X90.827 Y86.447 E21.48268
G1 X90.8 Y85.866 E21.50203
G1 X90.8 Y83.866 E21.56855
G1 X90.84 Y83.163 E21.59197
G1 X90.959 Y82.469 E21.61539
G1 X96.632 Y63.511 E22.27356
G1 X96.854 Y62.894 E22.29537
G1 X97.018 Y62.503 E22.30947
G1 X97.326 Y61.87 E22.33288
G1 X97.667 Y61.329 E22.35415
G0 F3600 X97.994 Y61.559
G1 F1200 X98.24 Y61.21 E22.36836
G1 X98.665 Y60.678 E22.391
G1 X99.038 Y60.298 E22.40871
G1 X99.353 Y60.006 E22.423
G1 X99.879 Y59.574 E22.44564
G1 X100.356 Y59.26 E22.46463
G1 X100.72 Y59.046 E22.47868
G1 X101.327 Y58.736 E22.50135
G1 X101.822 Y58.545 E22.51899
G1 X102.226 Y58.41 E22.53316
G1 X102.883 Y58.232 E22.5558
G1 X103.453 Y58.143 E22.57499
G1 X103.878 Y58.098 E22.5892
G1 X104.489 Y58.066 E22.60955
G1 X123 Y58.066 E23.22523
G1 X123.68 Y58.106 E23.24789
G1 X124.35 Y58.225 E23.27052
G1 X125.002 Y58.422 E23.29317
G1 X125.626 Y58.694 E23.31581
G1 X126.214 Y59.038 E23.33847
G1 X126.758 Y59.448 E23.36113
G1 X127.249 Y59.919 E23.38376
G1 X127.683 Y60.444 E23.40641
G1 X128.052 Y61.016 E23.42905
G1 X128.351 Y61.628 E23.45171
G1 X128.576 Y62.27 E23.47433
G1 X128.725 Y62.935 E23.497
G1 X128.8 Y63.866 E23.52807
G1 X128.8 Y85.866 E24.25979
G1 X128.76 Y86.546 E24.28245
G1 X128.641 Y87.216 E24.30508
G1 X128.444 Y87.868 E24.32773
G1 X128.172 Y88.492 E24.35037
G1 X127.828 Y89.08 E24.37303
G1 X127.418 Y89.624 E24.39569
G1 X126.947 Y90.115 E24.41832
G1 X126.422 Y90.549 E24.44097
G1 X125.85 Y90.918 E24.46361
G1 X125.238 Y91.217 E24.48627
G1 X124.596 Y91.442 E24.50889
G1 X123.931 Y91.591 E24.53156
G1 X123 Y91.666 E24.56263
G1 X97 Y91.666 E25.42739
G1 X96.32 Y91.626 E25.45005
G1 X95.65 Y91.507 E25.47268
G1 X94.998 Y91.31 E25.49533
G1 X94.374 Y91.038 E25.51797
G1 X93.786 Y90.694 E25.54063
G1 X93.242 Y90.284 E25.56329
G1 X92.751 Y89.813 E25.58592
G1 X92.317 Y89.288 E25.60857
G1 X91.948 Y88.716 E25.63121
G1 X91.649 Y88.104 E25.65387
G1 X91.424 Y87.462 E25.67649
G1 X91.275 Y86.797 E25.69916
G1 X91.2 Y85.866 E25.73023
G1 X91.2 Y83.866 E25.79675
G1 X91.24 Y83.186 E25.8194
G1 X91.445 Y82.2 E25.8529
G1 X97.016 Y63.626 E26.49786
G1 X97.222 Y63.049 E26.51824
G1 X97.386 Y62.658 E26.53234
G1 X97.686 Y62.046 E26.55501
G1 X97.994 Y61.559 E26.57418
G0 F3600 X98.321 Y61.79
G1 F1200 X98.567 Y61.441 E26.58838
G1 X98.978 Y60.928 E26.61024
G1 X99.625 Y60.3 E26.64023
G1 X100.133 Y59.883 E26.66209
G1 X100.559 Y59.605 E26.67901
G1 X100.923 Y59.391 E26.69305
G1 X101.509 Y59.093 E26.71492
G1 X102.353 Y58.789 E26.74475
G1 X102.987 Y58.619 E26.76659
G1 X103.495 Y58.541 E26.78368
G1 X103.92 Y58.496 E26.7979
G1 X104.489 Y58.466 E26.81685
G1 X123 Y58.466 E27.43252
G1 X123.656 Y58.506 E27.45438
G1 X124.302 Y58.625 E27.47623
G1 X124.929 Y58.822 E27.49809
G1 X125.527 Y59.094 E27.51994
G1 X126.088 Y59.436 E27.54179
G1 X126.603 Y59.844 E27.56365
G1 X127.065 Y60.311 E27.5855
G1 X127.466 Y60.831 E27.60734
G1 X127.802 Y61.395 E27.62917
G1 X128.066 Y61.997 E27.65104
G1 X128.256 Y62.626 E27.67289
G1 X128.367 Y63.273 E27.69472
G1 X128.4 Y63.866 E27.71448
G1 X128.4 Y85.866 E28.4462
G1 X128.36 Y86.522 E28.46806
G1 X128.241 Y87.168 E28.48991
G1 X128.044 Y87.795 E28.51177
G1 X127.772 Y88.393 E28.53362
G1 X127.43 Y88.954 E28.55547
G1 X127.022 Y89.469 E28.57732
G1 X126.555 Y89.931 E28.59917
G1 X126.035 Y90.332 E28.62101
G1 X125.471 Y90.668 E28.64285
G1 X124.869 Y90.932 E28.66471
G1 X124.24 Y91.122 E28.68656
G1 X123.593 Y91.233 E28.7084
G1 X123 Y91.266 E28.72815
G1 X97 Y91.266 E29.59292
G1 X96.344 Y91.226 E29.61477
G1 X95.698 Y91.107 E29.63662
G1 X95.071 Y90.91 E29.65848
G1 X94.473 Y90.638 E29.68033
G1 X93.912 Y90.296 E29.70218
G1 X93.397 Y89.888 E29.72404
G1 X92.935 Y89.421 E29.74589
G1 X92.534 Y88.901 E29.76773
G1 X92.198 Y88.337 E29.78956
G1 X91.934 Y87.735 E29.81143
G1 X91.744 Y87.106 E29.83328
G1 X91.633 Y86.459 E29.85511
G1 X91.6 Y85.866 E29.87487
G1 X91.6 Y83.866 E29.94139
G1 X91.64 Y83.21 E29.96325
G1 X91.828 Y82.315 E29.99366
G1 X97.399 Y63.741 E30.63863
G1 X97.591 Y63.203 E30.65763
G1 X97.755 Y62.812 E30.67173
G1 X98.046 Y62.223 E30.69358
G1 X98.321 Y61.79 E30.71064
G0 F3600 X98.894 Y61.671
G1 F1200 X99.29 Y61.179 E30.73165
G1 X99.897 Y60.593 E30.75971
G1 X100.387 Y60.194 E30.78073
G1 X101.126 Y59.736 E30.80964
G1 X101.69 Y59.45 E30.83068
G1 X102.479 Y59.169 E30.85853
G1 X103.09 Y59.007 E30.87956
G1 X103.963 Y58.894 E30.90883
G1 X104.489 Y58.866 E30.92635
G1 X123 Y58.866 E31.54203
G1 X123.631 Y58.906 E31.56306
G1 X124.252 Y59.025 E31.58409
G1 X124.852 Y59.222 E31.6051
G1 X125.424 Y59.493 E31.62615
G1 X125.956 Y59.833 E31.64715
G1 X126.441 Y60.239 E31.66818
G1 X126.871 Y60.702 E31.6892
G1 X127.24 Y61.216 E31.71025
G1 X127.54 Y61.772 E31.73126
G1 X127.768 Y62.361 E31.75227
G1 X127.92 Y62.975 E31.7733
G1 X128 Y63.866 E31.80306
G1 X128 Y85.866 E32.53478
G1 X127.96 Y86.497 E32.55581
G1 X127.841 Y87.118 E32.57684
G1 X127.644 Y87.718 E32.59784
G1 X127.373 Y88.29 E32.6189
G1 X127.033 Y88.822 E32.6399
G1 X126.627 Y89.307 E32.66093
G1 X126.164 Y89.737 E32.68195
G1 X125.65 Y90.106 E32.70299
G1 X125.094 Y90.406 E32.72401
G1 X124.505 Y90.634 E32.74501
G1 X123.891 Y90.786 E32.76605
G1 X123 Y90.866 E32.79581
G1 X97 Y90.866 E33.66057
G1 X96.369 Y90.826 E33.6816
G1 X95.748 Y90.707 E33.70263
G1 X95.148 Y90.51 E33.72363
G1 X94.576 Y90.239 E33.74469
G1 X94.044 Y89.899 E33.76568
G1 X93.559 Y89.493 E33.78672
G1 X93.129 Y89.03 E33.80774
G1 X92.76 Y88.516 E33.82878
