;FLAVOR:Marlin
;TIME:1562
;Filament used: 0.69852m
;Layer height: 0.15
;MINX:89.7
;MINY:97.2
;MINZ:0.2
;MAXX:130.3
;MAXY:120.8
;MAXZ:26.45
;Generated with Cura_SteamEngine 4.6.1
M140 S60
M105
M190 S60
M104 S200
M105
M109 S200
M82 ;absolute extrusion mode
; -- START GCODE --
G21        ;metric values
G90        ;absolute positioning
M82        ;set extruder to absolute mode
M107       ;start with the fan off
G28 X0 Y0  ;move X/Y to min endstops
G28 Z0       ;move Z to min endstops
G92 E0                  ;zero the extruded length again
G1 Z1 F1000             ;move up slightly
G1 Y60.0 Z0 E9.0 F1000.0;intro line
G1 Y100.0 E21.5 F1000.0 ;continue line
G92 E0                  ;zero the extruded length again
G1 F80
;Put printing message on LCD screen
M117 Printing...
; -- end of START GCODE --
G92 E0
G92 E0
G1 F2700 E-5
;LAYER_COUNT:176
;LAYER:0
M107
G0 F3600 X92.123 Y99.349 Z0.2
;TYPE:SKIRT
G1 F2700 E0
G1 F1200 X92.722 Y98.834 E0.02627
G1 X93.37 Y98.383 E0.05253
G1 X94.061 Y97.999 E0.07883
G1 X94.786 Y97.687 E0.10508
G1 X95.539 Y97.45 E0.13133
G1 X96.313 Y97.291 E0.15761
G1 X97.098 Y97.21 E0.18386
G1 X99.486 Y97.2 E0.26329
G1 X100.275 Y97.24 E0.28956
G1 X101.055 Y97.359 E0.31581
G1 X101.82 Y97.557 E0.34209
G1 X102.56 Y97.831 E0.36834
G1 X103.269 Y98.179 E0.3946
G1 X103.94 Y98.597 E0.4209
G1 X104.235 Y98.825 E0.4333
G1 X104.87 Y98.383 E0.45903
G1 X105.561 Y97.999 E0.48532
G1 X106.286 Y97.687 E0.51158
G1 X107.039 Y97.45 E0.53783
G1 X107.813 Y97.291 E0.56411
G1 X108.598 Y97.21 E0.59036
G1 X115 Y97.2 E0.80329
G1 X115.789 Y97.24 E0.82957
G1 X116.569 Y97.359 E0.85581
G1 X117.334 Y97.557 E0.88209
G1 X118.074 Y97.831 E0.90834
G1 X118.783 Y98.179 E0.93461
G1 X119.454 Y98.597 E0.9609
G1 X120.078 Y99.08 E0.98715
G1 X120.651 Y99.623 E1.0134
G1 X121.166 Y100.222 E1.03968
G1 X121.617 Y100.87 E1.06594
G1 X121.8 Y101.2 E1.07849
G1 X122.5 Y101.2 E1.10177
G1 X123.289 Y101.24 E1.12804
G1 X124.069 Y101.359 E1.15429
G1 X124.834 Y101.557 E1.18057
G1 X125.574 Y101.831 E1.20682
G1 X126.283 Y102.179 E1.23308
G1 X126.954 Y102.597 E1.25938
G1 X127.578 Y103.08 E1.28562
G1 X128.151 Y103.623 E1.31188
G1 X128.666 Y104.222 E1.33815
G1 X129.117 Y104.87 E1.36441
G1 X129.501 Y105.561 E1.39071
G1 X129.813 Y106.286 E1.41696
G1 X130.05 Y107.039 E1.44321
G1 X130.209 Y107.813 E1.46949
G1 X130.29 Y108.598 E1.49574
G1 X130.3 Y113 E1.64215
G1 X130.26 Y113.789 E1.66843
G1 X130.141 Y114.569 E1.69467
G1 X129.943 Y115.334 E1.72096
G1 X129.669 Y116.074 E1.7472
G1 X129.321 Y116.783 E1.77347
G1 X128.903 Y117.454 E1.79976
G1 X128.42 Y118.078 E1.82601
G1 X127.877 Y118.651 E1.85226
G1 X127.278 Y119.166 E1.87854
G1 X126.63 Y119.617 E1.9048
G1 X125.939 Y120.001 E1.93109
G1 X125.214 Y120.313 E1.95734
G1 X124.461 Y120.55 E1.9836
G1 X123.687 Y120.709 E2.00988
G1 X122.902 Y120.79 E2.03613
G1 X97.5 Y120.8 E2.881
G1 X96.711 Y120.76 E2.90728
G1 X95.931 Y120.641 E2.93352
G1 X95.166 Y120.443 E2.9598
G1 X94.426 Y120.169 E2.98605
G1 X93.717 Y119.821 E3.01232
G1 X93.046 Y119.403 E3.03861
G1 X92.422 Y118.92 E3.06486
G1 X91.849 Y118.377 E3.09111
G1 X91.334 Y117.778 E3.11739
G1 X90.883 Y117.13 E3.14364
G1 X90.499 Y116.439 E3.16994
G1 X90.187 Y115.714 E3.19619
G1 X89.95 Y114.961 E3.22245
G1 X89.791 Y114.187 E3.24873
G1 X89.71 Y113.402 E3.27497
G1 X89.7 Y105 E3.55443
G1 X89.74 Y104.211 E3.5807
G1 X89.859 Y103.431 E3.60695
G1 X90.057 Y102.666 E3.63323
G1 X90.331 Y101.926 E3.65947
G1 X90.679 Y101.217 E3.68574
G1 X91.097 Y100.546 E3.71204
G1 X91.58 Y99.922 E3.73828
G1 X92.123 Y99.349 E3.76454
G0 F3600 X92.516 Y99.53
G1 F1200 X93.111 Y99.042 E3.79013
G1 X93.753 Y98.619 E3.8157
G1 X94.436 Y98.264 E3.8413
G1 X95.151 Y97.983 E3.86686
G1 X95.893 Y97.777 E3.89247
G1 X96.651 Y97.649 E3.91804
G1 X97.5 Y97.6 E3.94632
G1 X99.486 Y97.6 E4.01238
G1 X100.254 Y97.64 E4.03795
G1 X101.014 Y97.759 E4.06354
G1 X101.757 Y97.957 E4.08912
G1 X102.476 Y98.231 E4.11471
G1 X103.162 Y98.578 E4.14028
G1 X103.809 Y98.994 E4.16586
G1 X104.244 Y99.343 E4.18441
G1 X104.611 Y99.042 E4.2002
G1 X105.253 Y98.619 E4.22577
G1 X105.936 Y98.264 E4.25137
G1 X106.651 Y97.983 E4.27692
G1 X107.393 Y97.777 E4.30253
G1 X108.151 Y97.649 E4.3281
G1 X109 Y97.6 E4.35639
G1 X115 Y97.6 E4.55595
G1 X115.768 Y97.64 E4.58153
G1 X116.528 Y97.759 E4.60711
G1 X117.271 Y97.957 E4.63269
G1 X117.99 Y98.231 E4.65828
G1 X118.676 Y98.578 E4.68385
G1 X119.323 Y98.994 E4.70943
G1 X119.923 Y99.475 E4.73501
G1 X120.47 Y100.016 E4.7606
G1 X120.958 Y100.611 E4.78619
G1 X121.381 Y101.253 E4.81176
G1 X121.561 Y101.6 E4.82476
G1 X122.5 Y101.6 E4.85599
G1 X123.268 Y101.64 E4.88157
G1 X124.028 Y101.759 E4.90716
G1 X124.771 Y101.957 E4.93273
G1 X125.49 Y102.231 E4.95833
G1 X126.176 Y102.578 E4.98389
G1 X126.823 Y102.994 E5.00948
G1 X127.423 Y103.475 E5.03506
G1 X127.97 Y104.016 E5.06064
G1 X128.458 Y104.611 E5.08624
G1 X128.881 Y105.253 E5.11181
G1 X129.236 Y105.936 E5.13741
G1 X129.517 Y106.651 E5.16296
G1 X129.723 Y107.393 E5.18858
G1 X129.851 Y108.151 E5.21414
G1 X129.9 Y109 E5.24243
G1 X129.9 Y113 E5.37547
G1 X129.86 Y113.768 E5.40105
G1 X129.741 Y114.528 E5.42663
G1 X129.543 Y115.271 E5.45221
G1 X129.269 Y115.99 E5.4778
G1 X128.922 Y116.676 E5.50337
G1 X128.506 Y117.323 E5.52895
G1 X128.025 Y117.923 E5.55453
G1 X127.484 Y118.47 E5.58012
G1 X126.889 Y118.958 E5.60571
G1 X126.247 Y119.381 E5.63128
G1 X125.564 Y119.736 E5.65689
G1 X124.849 Y120.017 E5.68244
G1 X124.107 Y120.223 E5.70805
G1 X123.349 Y120.351 E5.73362
G1 X122.5 Y120.4 E5.7619
G1 X97.5 Y120.4 E6.59341
G1 X96.732 Y120.36 E6.61898
G1 X95.972 Y120.241 E6.64457
G1 X95.229 Y120.043 E6.67014
G1 X94.51 Y119.769 E6.69574
G1 X93.824 Y119.422 E6.72131
G1 X93.177 Y119.006 E6.74689
G1 X92.577 Y118.525 E6.77247
G1 X92.03 Y117.984 E6.79805
G1 X91.542 Y117.389 E6.82365
G1 X91.119 Y116.747 E6.84922
G1 X90.764 Y116.064 E6.87482
G1 X90.483 Y115.349 E6.90037
G1 X90.277 Y114.607 E6.92599
G1 X90.149 Y113.849 E6.95155
G1 X90.1 Y113 E6.97984
G1 X90.1 Y105 E7.24592
G1 X90.14 Y104.232 E7.2715
G1 X90.259 Y103.472 E7.29708
G1 X90.457 Y102.729 E7.32266
G1 X90.731 Y102.01 E7.34825
G1 X91.078 Y101.324 E7.37382
G1 X91.494 Y100.677 E7.3994
G1 X91.975 Y100.077 E7.42498
G1 X92.516 Y99.53 E7.45057
G0 F3600 X92.908 Y99.716
G1 F1200 X93.498 Y99.257 E7.47543
G1 X94.134 Y98.862 E7.50033
G1 X94.808 Y98.538 E7.52521
G1 X95.513 Y98.288 E7.55009
G1 X96.241 Y98.114 E7.57498
G1 X96.983 Y98.019 E7.59986
G1 X97.5 Y98 E7.61707
G1 X99.486 Y98 E7.68312
G1 X100.233 Y98.04 E7.708
G1 X100.971 Y98.159 E7.73287
G1 X101.693 Y98.357 E7.75777
G1 X102.389 Y98.63 E7.78263
G1 X103.052 Y98.977 E7.80752
G1 X103.675 Y99.392 E7.83242
G1 X104.249 Y99.871 E7.85729
G1 X104.408 Y99.716 E7.86467
G1 X104.998 Y99.257 E7.88953
G1 X105.634 Y98.862 E7.91443
G1 X106.308 Y98.538 E7.93931
G1 X107.013 Y98.288 E7.96419
G1 X107.741 Y98.114 E7.98908
G1 X108.483 Y98.019 E8.01396
G1 X109 Y98 E8.03117
G1 X115 Y98 E8.23073
G1 X115.747 Y98.04 E8.25561
G1 X116.485 Y98.159 E8.28047
G1 X117.207 Y98.357 E8.30537
G1 X117.903 Y98.63 E8.33024
G1 X118.566 Y98.977 E8.35513
G1 X119.189 Y99.392 E8.38003
G1 X119.763 Y99.871 E8.40489
G1 X120.284 Y100.408 E8.42978
G1 X120.743 Y100.998 E8.45464
G1 X121.138 Y101.634 E8.47954
G1 X121.314 Y102 E8.49305
G1 X122.5 Y102 E8.5325
G1 X123.247 Y102.04 E8.55738
G1 X123.985 Y102.159 E8.58224
G1 X124.707 Y102.357 E8.60714
G1 X125.403 Y102.63 E8.63201
G1 X126.066 Y102.977 E8.6569
G1 X126.689 Y103.392 E8.68179
G1 X127.263 Y103.871 E8.70666
G1 X127.784 Y104.408 E8.73154
G1 X128.243 Y104.998 E8.75641
G1 X128.638 Y105.634 E8.78131
G1 X128.962 Y106.308 E8.80618
G1 X129.212 Y107.013 E8.83106
G1 X129.386 Y107.741 E8.85596
G1 X129.481 Y108.483 E8.88084
G1 X129.5 Y109 E8.89804
G1 X129.5 Y113 E9.03108
G1 X129.46 Y113.747 E9.05596
G1 X129.341 Y114.485 E9.08083
G1 X129.143 Y115.207 E9.10573
G1 X128.87 Y115.903 E9.13059
G1 X128.523 Y116.566 E9.15548
G1 X128.108 Y117.189 E9.18038
G1 X127.629 Y117.763 E9.20525
G1 X127.092 Y118.284 E9.23013
G1 X126.502 Y118.743 E9.25499
G1 X125.866 Y119.138 E9.2799
G1 X125.192 Y119.462 E9.30477
G1 X124.487 Y119.712 E9.32965
G1 X123.759 Y119.886 E9.35454
G1 X123.017 Y119.981 E9.37942
G1 X122.5 Y120 E9.39663
G1 X97.5 Y120 E10.22813
G1 X96.753 Y119.96 E10.25301
G1 X96.015 Y119.841 E10.27788
G1 X95.293 Y119.643 E10.30278
G1 X94.597 Y119.37 E10.32764
G1 X93.934 Y119.023 E10.35253
G1 X93.311 Y118.608 E10.37743
G1 X92.737 Y118.129 E10.4023
G1 X92.216 Y117.592 E10.42718
G1 X91.757 Y117.002 E10.45204
G1 X91.362 Y116.366 E10.47695
G1 X91.038 Y115.692 E10.50182
G1 X90.788 Y114.987 E10.5267
G1 X90.614 Y114.259 E10.55159
G1 X90.519 Y113.517 E10.57647
G1 X90.5 Y113 E10.59368
G1 X90.5 Y105 E10.85976
G1 X90.54 Y104.253 E10.88464
G1 X90.659 Y103.515 E10.90951
G1 X90.857 Y102.793 E10.93441
G1 X91.13 Y102.097 E10.95927
G1 X91.477 Y101.434 E10.98416
G1 X91.892 Y100.811 E11.00906
G1 X92.371 Y100.237 E11.03392
G1 X92.908 Y99.716 E11.05881
G0 F3600 X92.765 Y100.402
G1 F1200 X93.299 Y99.909 E11.08298
G1 X93.884 Y99.479 E11.10713
G1 X94.513 Y99.115 E11.1313
G1 X95.178 Y98.822 E11.15547
G1 X95.871 Y98.604 E11.17963
G1 X96.583 Y98.464 E11.20377
G1 X97.5 Y98.4 E11.23434
G1 X99.486 Y98.4 E11.3004
G1 X100.211 Y98.44 E11.32455
G1 X100.928 Y98.559 E11.34872
G1 X101.627 Y98.757 E11.37288
G1 X102.3 Y99.03 E11.39704
G1 X102.939 Y99.375 E11.42119
G1 X103.536 Y99.789 E11.44536
G1 X104.084 Y100.265 E11.4695
G1 X104.239 Y100.432 E11.47708
G1 X104.799 Y99.909 E11.50256
G1 X105.384 Y99.479 E11.52671
G1 X106.013 Y99.115 E11.55088
G1 X106.678 Y98.822 E11.57505
G1 X107.371 Y98.604 E11.59921
G1 X108.083 Y98.464 E11.62335
G1 X109 Y98.4 E11.65392
G1 X115 Y98.4 E11.85348
G1 X115.725 Y98.44 E11.87763
G1 X116.442 Y98.559 E11.90181
G1 X117.141 Y98.757 E11.92597
G1 X117.814 Y99.03 E11.95013
G1 X118.453 Y99.375 E11.97428
G1 X119.05 Y99.789 E11.99844
G1 X119.598 Y100.265 E12.02259
G1 X120.091 Y100.799 E12.04676
G1 X120.521 Y101.384 E12.07091
G1 X120.885 Y102.013 E12.09508
G1 X121.056 Y102.4 E12.10915
G1 X122.5 Y102.4 E12.15718
G1 X123.225 Y102.44 E12.18133
G1 X123.942 Y102.559 E12.2055
G1 X124.641 Y102.757 E12.22966
G1 X125.314 Y103.03 E12.25382
G1 X125.953 Y103.375 E12.27797
G1 X126.55 Y103.789 E12.30214
G1 X127.098 Y104.265 E12.32628
G1 X127.591 Y104.799 E12.35045
G1 X128.021 Y105.384 E12.3746
G1 X128.385 Y106.013 E12.39877
G1 X128.678 Y106.678 E12.42294
G1 X128.896 Y107.371 E12.4471
G1 X129.036 Y108.083 E12.47124
G1 X129.1 Y109 E12.50181
G1 X129.1 Y113 E12.63485
G1 X129.06 Y113.725 E12.659
G1 X128.941 Y114.442 E12.68318
G1 X128.743 Y115.141 E12.70734
G1 X128.47 Y115.814 E12.7315
G1 X128.125 Y116.453 E12.75565
G1 X127.711 Y117.05 E12.77981
G1 X127.235 Y117.598 E12.80395
G1 X126.701 Y118.091 E12.82813
G1 X126.116 Y118.521 E12.85228
G1 X125.487 Y118.885 E12.87645
G1 X124.822 Y119.178 E12.90062
G1 X124.129 Y119.396 E12.92478
G1 X123.417 Y119.536 E12.94891
G1 X122.5 Y119.6 E12.97949
G1 X97.5 Y119.6 E13.81099
G1 X96.775 Y119.56 E13.83514
G1 X96.058 Y119.441 E13.85931
G1 X95.359 Y119.243 E13.88348
G1 X94.686 Y118.97 E13.90763
G1 X94.047 Y118.625 E13.93179
G1 X93.45 Y118.211 E13.95595
G1 X92.902 Y117.735 E13.98009
G1 X92.409 Y117.201 E14.00427
G1 X91.979 Y116.616 E14.02841
G1 X91.615 Y115.987 E14.05258
G1 X91.322 Y115.322 E14.07675
G1 X91.104 Y114.629 E14.10092
G1 X90.964 Y113.917 E14.12505
G1 X90.9 Y113 E14.15563
G1 X90.9 Y105 E14.42171
G1 X90.94 Y104.275 E14.44586
G1 X91.059 Y103.558 E14.47003
G1 X91.257 Y102.859 E14.49419
G1 X91.53 Y102.186 E14.51835
G1 X91.875 Y101.547 E14.5425
G1 X92.289 Y100.95 E14.56667
G1 X92.765 Y100.402 E14.59081
G0 F3600 X93.159 Y100.573
G1 F1200 X93.689 Y100.109 E14.61424
G1 X94.268 Y99.709 E14.63764
G1 X94.889 Y99.377 E14.66107
G1 X95.543 Y99.117 E14.68447
G1 X96.223 Y98.933 E14.7079
G1 X96.919 Y98.827 E14.73132
G1 X97.5 Y98.8 E14.75066
G1 X99.486 Y98.8 E14.81672
G1 X100.189 Y98.84 E14.84014
G1 X100.883 Y98.959 E14.86356
G1 X101.558 Y99.157 E14.88695
G1 X102.207 Y99.429 E14.91036
G1 X102.821 Y99.774 E14.93378
G1 X103.392 Y100.185 E14.95718
G1 X103.913 Y100.659 E14.98061
G1 X104.24 Y101.033 E14.99713
G1 X104.659 Y100.573 E15.01783
G1 X105.189 Y100.109 E15.04126
G1 X105.768 Y99.709 E15.06466
G1 X106.389 Y99.377 E15.08809
G1 X107.043 Y99.117 E15.11149
G1 X107.723 Y98.933 E15.13492
G1 X108.419 Y98.827 E15.15834
G1 X109 Y98.8 E15.17769
G1 X115 Y98.8 E15.37725
G1 X115.703 Y98.84 E15.40067
G1 X116.397 Y98.959 E15.42408
G1 X117.072 Y99.157 E15.44748
G1 X117.721 Y99.429 E15.47089
G1 X118.335 Y99.774 E15.49431
G1 X118.906 Y100.185 E15.51771
G1 X119.427 Y100.659 E15.54114
G1 X119.891 Y101.189 E15.56457
G1 X120.291 Y101.768 E15.58797
G1 X120.623 Y102.389 E15.61139
G1 X120.786 Y102.8 E15.6261
G1 X122.5 Y102.8 E15.68311
G1 X123.203 Y102.84 E15.70653
G1 X123.897 Y102.959 E15.72995
G1 X124.572 Y103.157 E15.75334
G1 X125.221 Y103.429 E15.77675
G1 X125.835 Y103.774 E15.80017
G1 X126.406 Y104.185 E15.82357
G1 X126.927 Y104.659 E15.847
G1 X127.391 Y105.189 E15.87043
G1 X127.791 Y105.768 E15.89383
G1 X128.123 Y106.389 E15.91726
G1 X128.383 Y107.043 E15.94066
G1 X128.567 Y107.723 E15.96409
G1 X128.673 Y108.419 E15.98751
G1 X128.7 Y109 E16.00685
G1 X128.7 Y113 E16.1399
G1 X128.66 Y113.703 E16.16332
G1 X128.541 Y114.397 E16.18673
G1 X128.343 Y115.072 E16.21013
G1 X128.071 Y115.721 E16.23354
G1 X127.726 Y116.335 E16.25696
G1 X127.315 Y116.906 E16.28036
G1 X126.841 Y117.427 E16.30379
G1 X126.311 Y117.891 E16.32722
G1 X125.732 Y118.291 E16.35062
G1 X125.111 Y118.623 E16.37404
G1 X124.457 Y118.883 E16.39745
G1 X123.777 Y119.067 E16.42088
G1 X123.081 Y119.173 E16.4443
G1 X122.5 Y119.2 E16.46364
G1 X97.5 Y119.2 E17.29515
G1 X96.797 Y119.16 E17.31857
G1 X96.103 Y119.041 E17.34199
G1 X95.428 Y118.843 E17.36538
G1 X94.779 Y118.571 E17.38879
G1 X94.165 Y118.226 E17.41221
G1 X93.594 Y117.815 E17.43561
G1 X93.073 Y117.341 E17.45904
G1 X92.609 Y116.811 E17.48247
G1 X92.209 Y116.232 E17.50587
G1 X91.877 Y115.611 E17.52929
G1 X91.617 Y114.957 E17.5527
G1 X91.433 Y114.277 E17.57613
G1 X91.327 Y113.581 E17.59955
G1 X91.3 Y113 E17.61889
G1 X91.3 Y105 E17.88497
G1 X91.34 Y104.297 E17.90839
G1 X91.459 Y103.603 E17.93181
G1 X91.657 Y102.928 E17.95521
G1 X91.929 Y102.279 E17.97862
G1 X92.274 Y101.665 E18.00204
G1 X92.685 Y101.094 E18.02544
G1 X93.159 Y100.573 E18.04887
G0 F3600 X93.553 Y100.751
G1 F1200 X94.078 Y100.317 E18.07152
G1 X94.65 Y99.948 E18.09416
G1 X95.262 Y99.649 E18.11682
G1 X95.904 Y99.424 E18.13944
G1 X96.569 Y99.275 E18.16211
G1 X97.5 Y99.2 E18.19317
G1 X99.486 Y99.2 E18.25923
G1 X100.166 Y99.24 E18.28189
G1 X100.836 Y99.359 E18.30452
G1 X101.488 Y99.556 E18.32717
G1 X102.112 Y99.828 E18.34981
G1 X102.7 Y100.172 E18.37247
G1 X103.244 Y100.582 E18.39513
G1 X103.735 Y101.053 E18.41776
G1 X104.169 Y101.578 E18.44041
G1 X104.243 Y101.692 E18.44493
G1 X104.582 Y101.242 E18.46367
G1 X105.053 Y100.751 E18.4863
G1 X105.578 Y100.317 E18.50896
G1 X106.15 Y99.948 E18.5316
G1 X106.762 Y99.649 E18.55425
G1 X107.404 Y99.424 E18.57688
G1 X108.069 Y99.275 E18.59954
G1 X109 Y99.2 E18.63061
G1 X115 Y99.2 E18.83017
G1 X115.68 Y99.24 E18.85283
G1 X116.35 Y99.359 E18.87546
G1 X117.002 Y99.556 E18.89811
G1 X117.626 Y99.828 E18.92075
G1 X118.214 Y100.172 E18.94341
G1 X118.758 Y100.582 E18.96607
G1 X119.249 Y101.053 E18.9887
G1 X119.683 Y101.578 E19.01135
G1 X120.052 Y102.15 E19.03399
G1 X120.351 Y102.762 E19.05665
G1 X120.505 Y103.2 E19.07209
G1 X122.5 Y103.2 E19.13844
G1 X123.18 Y103.24 E19.1611
G1 X123.85 Y103.359 E19.18373
G1 X124.502 Y103.556 E19.20639
G1 X125.126 Y103.828 E19.22903
G1 X125.714 Y104.172 E19.25169
G1 X126.258 Y104.582 E19.27434
G1 X126.749 Y105.053 E19.29697
G1 X127.183 Y105.578 E19.31963
G1 X127.552 Y106.15 E19.34227
G1 X127.851 Y106.762 E19.36492
G1 X128.076 Y107.404 E19.38755
G1 X128.225 Y108.069 E19.41022
G1 X128.3 Y109 E19.44128
G1 X128.3 Y113 E19.57432
G1 X128.26 Y113.68 E19.59698
G1 X128.141 Y114.35 E19.61961
G1 X127.944 Y115.002 E19.64226
G1 X127.672 Y115.626 E19.6649
G1 X127.328 Y116.214 E19.68756
G1 X126.918 Y116.758 E19.71022
G1 X126.447 Y117.249 E19.73285
G1 X125.922 Y117.683 E19.7555
G1 X125.35 Y118.052 E19.77814
G1 X124.738 Y118.351 E19.8008
G1 X124.096 Y118.576 E19.82343
G1 X123.431 Y118.725 E19.84609
G1 X122.5 Y118.8 E19.87716
G1 X97.5 Y118.8 E20.70866
