;FLAVOR:Marlin
;TIME:1984
;Filament used: 0.639435m
;Layer height: 0.1
;MINX:94.5
;MINY:92.772
;MINZ:0.2
;MAXX:125.5
;MAXY:127.228
;MAXZ:8
;Generated with Cura_SteamEngine 4.6.1
M140 S60
M105
M190 S60
M104 S200
M105
M109 S200
M82 ;absolute extrusion mode
; -- START GCODE --
G21        ;metric values
G90        ;absolute positioning
M82        ;set extruder to absolute mode
M107       ;start with the fan off
G28 X0 Y0  ;move X/Y to min endstops
G28 Z0       ;move Z to min endstops
G92 E0                  ;zero the extruded length again
G1 Z1 F1000             ;move up slightly
G1 Y60.0 Z0 E9.0 F1000.0;intro line
G1 Y100.0 E21.5 F1000.0 ;continue line
G92 E0                  ;zero the extruded length again
G1 F80
;Put printing message on LCD screen
M117 Printing...
; -- end of START GCODE --
G92 E0
G92 E0
G1 F2700 E-5
;LAYER_COUNT:79
;LAYER:0
M107
G0 F3600 X122.04 Y93.629 Z0.2
;TYPE:SKIRT
G1 F2700 E0
G1 F1200 X122.53 Y93.755 E0.01683
G1 X122.994 Y93.957 E0.03366
G1 X123.42 Y94.229 E0.05047
G1 X123.798 Y94.564 E0.06727
G1 X124.118 Y94.955 E0.08407
G1 X124.373 Y95.392 E0.1009
G1 X124.556 Y95.863 E0.11771
G1 X124.663 Y96.357 E0.13452
G1 X124.699 Y97.012 E0.15634
G1 X124.7 Y112.113 E0.6586
G1 X124.691 Y112.714 E0.67859
G1 X124.607 Y113.915 E0.71863
G1 X124.506 Y114.927 E0.75246
G1 X124.417 Y115.409 E0.76876
G1 X124.09 Y116.649 E0.81142
G1 X123.866 Y117.416 E0.83799
G1 X123.708 Y117.838 E0.85298
G1 X123.144 Y119.013 E0.89633
G1 X122.792 Y119.705 E0.92215
G1 X122.391 Y120.33 E0.94685
G1 X121.765 Y121.172 E0.98175
G1 X121.333 Y121.732 E1.00527
G1 X120.81 Y122.291 E1.03073
G1 X120.036 Y123.01 E1.06587
G1 X119.512 Y123.478 E1.08924
G1 X118.903 Y123.928 E1.11442
G1 X118.025 Y124.48 E1.14892
G1 X117.37 Y124.876 E1.17437
G1 X116.971 Y125.081 E1.18929
G1 X115.768 Y125.566 E1.23243
G1 X115.039 Y125.841 E1.25835
G1 X114.612 Y125.968 E1.27317
G1 X113.265 Y126.237 E1.31885
G1 X112.535 Y126.367 E1.34351
G1 X111.886 Y126.423 E1.36518
G1 X110.743 Y126.428 E1.4032
G1 X110.093 Y126.419 E1.42482
G1 X109.626 Y126.378 E1.44041
G1 X108.649 Y126.22 E1.47333
G1 X107.574 Y126.015 E1.50973
G1 X107.143 Y125.899 E1.52457
G1 X105.881 Y125.43 E1.56935
G1 X105.136 Y125.133 E1.59603
G1 X104.693 Y124.915 E1.61245
G1 X104.228 Y124.64 E1.63041
G1 X103.601 Y124.252 E1.65494
G1 X103.055 Y123.904 E1.67647
G1 X102.668 Y123.615 E1.69254
G1 X101.695 Y122.764 E1.73553
G1 X101.103 Y122.215 E1.76239
G1 X100.787 Y121.876 E1.7778
G1 X100 Y120.861 E1.82052
G1 X99.538 Y120.235 E1.8464
G1 X99.297 Y119.856 E1.86133
G1 X98.7 Y118.752 E1.90308
G1 X97.356 Y116.35 E1.99462
G1 X96.285 Y114.542 E2.06452
G1 X95.876 Y113.866 E2.0908
G1 X95.599 Y113.284 E2.11223
G1 X95.523 Y113.071 E2.11976
G1 X95.36 Y112.377 E2.14347
G1 X95.31 Y111.816 E2.1622
G1 X95.3 Y111.112 E2.18562
G1 X95.3 Y97.398 E2.64175
G1 X95.31 Y96.733 E2.66387
G1 X95.358 Y96.23 E2.68067
G1 X95.484 Y95.74 E2.6975
G1 X95.686 Y95.276 E2.71433
G1 X95.958 Y94.85 E2.73114
G1 X96.294 Y94.473 E2.74794
G1 X96.685 Y94.152 E2.76477
G1 X97.122 Y93.898 E2.78158
G1 X97.593 Y93.715 E2.79838
G1 X98.088 Y93.609 E2.81522
G1 X98.74 Y93.573 E2.83694
G1 X120.839 Y93.572 E3.57195
G1 X121.537 Y93.582 E3.59517
G1 X122.04 Y93.629 E3.61198
G0 F3600 X122.077 Y93.23
G1 F1200 X122.598 Y93.356 E3.6298
G1 X123.095 Y93.559 E3.64766
G1 X123.556 Y93.833 E3.6655
G1 X123.971 Y94.172 E3.68332
G1 X124.331 Y94.57 E3.70117
G1 X124.628 Y95.016 E3.71899
G1 X124.856 Y95.502 E3.73685
G1 X125.008 Y96.016 E3.75467
G1 X125.09 Y96.681 E3.77696
G1 X125.1 Y112.119 E4.29043
G1 X125.091 Y112.72 E4.31042
G1 X125.006 Y113.944 E4.35123
G1 X124.903 Y114.969 E4.38549
G1 X124.804 Y115.511 E4.40382
G1 X124.477 Y116.751 E4.44647
G1 X124.249 Y117.529 E4.47343
G1 X124.072 Y118.004 E4.49029
G1 X123.503 Y119.189 E4.53402
G1 X123.148 Y119.887 E4.56006
G1 X122.886 Y120.321 E4.57692
G1 X122.085 Y121.411 E4.62191
G1 X121.65 Y121.976 E4.64563
G1 X121.339 Y122.329 E4.66128
G1 X120.308 Y123.304 E4.70847
G1 X119.779 Y123.776 E4.73205
G1 X119.419 Y124.058 E4.74726
G1 X119.003 Y124.34 E4.76398
G1 X118.238 Y124.819 E4.794
G1 X117.577 Y125.219 E4.8197
G1 X117.128 Y125.449 E4.83647
G1 X115.915 Y125.938 E4.87997
G1 X115.18 Y126.215 E4.9061
G1 X114.7 Y126.358 E4.92276
G1 X113.34 Y126.63 E4.96889
G1 X112.605 Y126.761 E4.99372
G1 X111.901 Y126.822 E5.01722
G1 X110.737 Y126.828 E5.05594
G1 X110.087 Y126.819 E5.07756
G1 X109.562 Y126.773 E5.09509
G1 X108.585 Y126.615 E5.128
G1 X107.497 Y126.408 E5.16484
G1 X107.012 Y126.277 E5.18155
G1 X105.739 Y125.804 E5.22672
G1 X104.987 Y125.505 E5.25363
G1 X104.489 Y125.26 E5.27209
G1 X104.024 Y124.985 E5.29006
G1 X103.39 Y124.592 E5.31487
G1 X102.84 Y124.242 E5.33655
G1 X102.405 Y123.916 E5.35463
G1 X101.432 Y123.065 E5.39763
G1 X100.831 Y122.509 E5.42486
G1 X100.475 Y122.127 E5.44223
G1 X99.682 Y121.103 E5.4853
G1 X99.216 Y120.473 E5.51137
G1 X98.945 Y120.046 E5.52819
G1 X98.348 Y118.942 E5.56993
G1 X97.012 Y116.555 E5.66091
G1 X95.958 Y114.775 E5.72972
G1 X95.533 Y114.073 E5.75701
G1 X95.222 Y113.419 E5.7811
G1 X95.146 Y113.206 E5.78862
G1 X94.963 Y112.425 E5.8153
G1 X94.91 Y111.822 E5.83543
G1 X94.9 Y111.118 E5.85885
G1 X94.9 Y97.392 E6.31538
G1 X94.91 Y96.727 E6.3375
G1 X94.958 Y96.193 E6.35533
G1 X95.085 Y95.672 E6.37317
G1 X95.288 Y95.175 E6.39102
G1 X95.562 Y94.714 E6.40886
G1 X95.902 Y94.299 E6.4267
G1 X96.3 Y93.94 E6.44453
G1 X96.746 Y93.643 E6.46235
G1 X97.232 Y93.415 E6.48021
G1 X97.746 Y93.263 E6.49803
G1 X98.409 Y93.182 E6.52025
G1 X120.845 Y93.172 E7.26647
G1 X121.543 Y93.182 E7.28969
G1 X122.077 Y93.23 E7.30752
G0 F3600 X122.112 Y92.83
G1 F1200 X122.662 Y92.957 E7.3263
G1 X123.19 Y93.161 E7.34513
G1 X123.684 Y93.436 E7.36393
G1 X124.133 Y93.779 E7.38272
G1 X124.53 Y94.181 E7.40151
G1 X124.867 Y94.636 E7.42035
G1 X125.135 Y95.133 E7.43913
G1 X125.331 Y95.663 E7.45792
G1 X125.451 Y96.216 E7.47674
G1 X125.498 Y96.99 E7.50253
G1 X125.5 Y112.125 E8.00593
G1 X125.491 Y112.726 E8.02592
G1 X125.405 Y113.974 E8.06752
G1 X125.301 Y115.01 E8.10216
G1 X125.191 Y115.613 E8.12254
G1 X124.864 Y116.853 E8.16519
G1 X124.633 Y117.642 E8.19254
G1 X124.436 Y118.17 E8.21128
G1 X123.862 Y119.365 E8.25538
G1 X123.504 Y120.068 E8.28161
G1 X123.213 Y120.551 E8.30037
G1 X122.406 Y121.65 E8.34572
G1 X121.967 Y122.221 E8.36967
G1 X121.622 Y122.612 E8.38702
G1 X120.579 Y123.597 E8.43473
G1 X120.045 Y124.075 E8.45857
G1 X119.645 Y124.388 E8.47546
G1 X119.215 Y124.679 E8.49273
G1 X118.45 Y125.158 E8.52275
G1 X117.784 Y125.561 E8.54864
G1 X117.284 Y125.817 E8.56733
G1 X116.062 Y126.31 E8.61115
G1 X115.32 Y126.59 E8.63753
G1 X114.787 Y126.749 E8.65603
G1 X113.415 Y127.023 E8.70256
G1 X112.675 Y127.155 E8.72757
G1 X112.126 Y127.214 E8.74593
G1 X111.492 Y127.228 E8.76702
G1 X110.732 Y127.228 E8.7923
G1 X110.082 Y127.219 E8.81392
G1 X109.498 Y127.168 E8.83342
G1 X108.521 Y127.01 E8.86634
G1 X107.42 Y126.8 E8.90362
G1 X106.881 Y126.655 E8.92218
G1 X105.596 Y126.178 E8.96777
G1 X104.839 Y125.876 E8.99488
G1 X104.286 Y125.604 E9.01537
G1 X103.821 Y125.329 E9.03334
G1 X103.179 Y124.932 E9.05845
G1 X102.625 Y124.579 E9.0803
G1 X102.142 Y124.217 E9.10037
G1 X101.169 Y123.366 E9.14337
G1 X100.559 Y122.802 E9.171
G1 X100.163 Y122.377 E9.19032
G1 X99.364 Y121.346 E9.2337
G1 X98.894 Y120.71 E9.26001
G1 X98.593 Y120.237 E9.27865
G1 X97.996 Y119.133 E9.3204
G1 X96.659 Y116.743 E9.41148
G1 X95.616 Y114.983 E9.47953
G1 X95.191 Y114.281 E9.50682
G1 X94.846 Y113.553 E9.53362
G1 X94.618 Y112.796 E9.55991
G1 X94.538 Y112.248 E9.57833
G1 X94.51 Y111.828 E9.59233
G1 X94.5 Y111.124 E9.61575
G1 X94.5 Y97.386 E10.07268
G1 X94.51 Y96.721 E10.0948
G1 X94.559 Y96.158 E10.11359
G1 X94.686 Y95.607 E10.1324
G1 X94.89 Y95.079 E10.15123
G1 X95.166 Y94.586 E10.17002
G1 X95.509 Y94.137 E10.18881
G1 X95.912 Y93.74 E10.20763
G1 X96.366 Y93.404 E10.22641
G1 X96.864 Y93.135 E10.24524
G1 X97.394 Y92.94 E10.26402
G1 X97.947 Y92.821 E10.28283
G1 X98.718 Y92.774 E10.30853
G1 X120.85 Y92.772 E11.04464
G1 X121.548 Y92.782 E11.06786
G1 X122.112 Y92.83 E11.08668
G1 F2700 E6.08668
;MESH:FixationPotard-Socle.stl
G0 F3600 X120.886 Y96.107
G0 X120.886 Y97.386
G0 X109.863 Y109.883
;TYPE:WALL-INNER
G1 F2700 E11.08668
G1 F1200 X109.206 Y110.239 E11.11154
G1 X108.652 Y110.741 E11.1364
G1 X108.235 Y111.362 E11.16128
G1 X107.978 Y112.065 E11.18618
G1 X107.896 Y112.809 E11.21107
G1 X107.995 Y113.552 E11.236
G1 X108.27 Y114.249 E11.26092
G1 X108.702 Y114.859 E11.28579
G1 X109.267 Y115.348 E11.31064
G1 X109.935 Y115.688 E11.33557
G1 X110.662 Y115.857 E11.36039
G1 X111.411 Y115.849 E11.38531
G1 X112.137 Y115.662 E11.41024
G1 X112.794 Y115.306 E11.4351
G1 X113.349 Y114.802 E11.46003
G1 X113.765 Y114.182 E11.48486
G1 X114.022 Y113.48 E11.50973
G1 X114.104 Y112.735 E11.53466
G1 X114.005 Y111.993 E11.55955
G1 X113.73 Y111.295 E11.58451
G1 X113.298 Y110.686 E11.60934
G1 X112.733 Y110.197 E11.63419
G1 X112.065 Y109.857 E11.65912
G1 X111.338 Y109.688 E11.68395
G1 X110.589 Y109.696 E11.70886
G1 X109.863 Y109.883 E11.7338
G0 F3600 X101.407 Y111.772
G1 F1200 X99.579 Y111.772 E11.7946
G1 X99.506 Y111.765 E11.79703
G1 X99.5 Y111.708 E11.79894
G1 X99.5 Y97.772 E12.26245
G1 X120.5 Y97.772 E12.96092
G1 X120.5 Y112.735 E13.45859
G1 X120.339 Y114.465 E13.51638
G1 X119.866 Y116.16 E13.57491
G1 X119.094 Y117.731 E13.63313
G1 X118.042 Y119.135 E13.69148
G1 X116.758 Y120.318 E13.74955
G1 X115.265 Y121.252 E13.80812
G1 X113.644 Y121.89 E13.86606
G1 X112.869 Y122.038 E13.8923
G1 X112.756 Y122.059 E13.89613
G1 X112.296 Y122.147 E13.9117
G1 X112.216 Y122.163 E13.91442
G1 X112.291 Y122.123 E13.9146
G1 X112.698 Y121.76 E13.92314
G1 X112.762 Y121.665 E13.92653
G1 X113.005 Y121.309 E13.94087
G1 X113.195 Y120.797 E13.95903
G1 X113.256 Y120.258 E13.97707
G1 X113.188 Y119.721 E13.99508
G1 X112.993 Y119.212 E14.01321
G1 X112.68 Y118.764 E14.03138
G1 X112.268 Y118.407 E14.04951
G1 X111.786 Y118.157 E14.06757
G1 X111.258 Y118.032 E14.08562
G1 X110.714 Y118.034 E14.10371
G1 X110.188 Y118.168 E14.12177
G1 X109.709 Y118.422 E14.1398
G1 X109.304 Y118.784 E14.15787
G1 X108.995 Y119.234 E14.17602
G1 X108.805 Y119.747 E14.19422
G1 X108.744 Y120.287 E14.21229
G1 X108.812 Y120.824 E14.2303
G1 X109.007 Y121.332 E14.2484
G1 X109.243 Y121.668 E14.26205
G1 X109.32 Y121.778 E14.26652
G1 X109.73 Y122.137 E14.28464
G1 X109.758 Y122.152 E14.2857
G1 X109.729 Y122.147
G1 X109.269 Y122.063 E14.29225
G1 X109.137 Y122.039 E14.29614
G1 X108.445 Y121.912 E14.31954
G1 X106.762 Y121.27 E14.37945
G1 X105.316 Y120.374 E14.43603
G1 X104.013 Y119.197 E14.49443
G1 X102.957 Y117.812 E14.55236
G1 X102.166 Y116.24 E14.61089
G1 X101.68 Y114.562 E14.669
G1 X101.407 Y111.772 E14.76224
G0 F3600 X101.044 Y112.172
G1 F1200 X99.558 Y112.172 E14.81166
G1 X99.411 Y112.157 E14.81657
G1 X99.325 Y112.127 E14.8196
G1 X99.255 Y112.083 E14.82235
G1 X99.187 Y112.016 E14.82553
G1 X99.145 Y111.948 E14.82819
G1 X99.114 Y111.861 E14.83126
G1 X99.1 Y111.733 E14.83554
G1 X99.1 Y97.372 E15.31319
G1 X120.9 Y97.372 E16.03826
G1 X120.9 Y112.75 E16.54974
G1 X120.734 Y114.539 E16.60949
G1 X120.241 Y116.305 E16.67048
G1 X119.437 Y117.94 E16.73108
G1 X118.341 Y119.404 E16.7919
G1 X117.002 Y120.637 E16.85244
G1 X115.447 Y121.61 E16.91345
G1 X113.753 Y122.276 E16.97399
G1 X111.914 Y122.628 E17.03627
G1 X110.138 Y122.628 E17.09534
G1 X108.337 Y122.3 E17.15623
G1 X106.585 Y121.631 E17.2186
G1 X105.075 Y120.695 E17.27769
G1 X103.719 Y119.471 E17.33845
G1 X102.616 Y118.024 E17.39896
G1 X101.792 Y116.387 E17.45992
G1 X101.285 Y114.637 E17.52052
G1 X101.044 Y112.172 E17.60289
G0 F3600 X101.111 Y112.098
G0 X109.975 Y110.165
G0 X110.011 Y110.258
G1 F1200 X109.439 Y110.568 E17.62453
G1 X108.957 Y111.005 E17.64617
G1 X108.594 Y111.545 E17.66781
G1 X108.37 Y112.157 E17.68949
G1 X108.299 Y112.804 E17.71114
G1 X108.385 Y113.451 E17.73285
G1 X108.624 Y114.057 E17.75451
G1 X109 Y114.588 E17.77615
G1 X109.492 Y115.014 E17.7978
G1 X110.073 Y115.309 E17.81947
G1 X110.706 Y115.457 E17.84109
G1 X111.358 Y115.45 E17.86278
G1 X111.989 Y115.287 E17.88446
G1 X112.561 Y114.977 E17.9061
G1 X113.044 Y114.539 E17.92778
G1 X113.406 Y113.999 E17.94941
G1 X113.63 Y113.388 E17.97105
G1 X113.701 Y112.74 E17.99273
G1 X113.615 Y112.094 E18.01441
G1 X113.376 Y111.487 E18.0361
G1 X113 Y110.957 E18.05772
G1 X112.508 Y110.531 E18.07936
G1 X111.927 Y110.236 E18.10104
G1 X111.294 Y110.088 E18.12266
G1 X110.642 Y110.095 E18.14434
G1 X110.011 Y110.258 E18.16602
G0 F3600 X109.975 Y110.165
G0 X108.927 Y110.979
G0 X108.332 Y112.148
G0 X109.165 Y120.735
G0 X109.54 Y121.463
G0 X110.319 Y122.103
G0 X110.353 Y122.01
G1 F1200 X110.788 Y122.113 E18.18089
G1 X111.235 Y122.111 E18.19576
G1 X111.667 Y122.001 E18.21058
G1 X112.061 Y121.792 E18.22542
G1 X112.395 Y121.494 E18.2403
G1 X112.647 Y121.124 E18.25519
G1 X112.803 Y120.704 E18.2701
G1 X112.853 Y120.261 E18.28492
G1 X112.797 Y119.819 E18.29974
G1 X112.637 Y119.401 E18.31463
G1 X112.38 Y119.034 E18.32953
G1 X112.042 Y118.74 E18.34443
G1 X111.646 Y118.535 E18.35926
G1 X111.212 Y118.432 E18.3741
G1 X110.765 Y118.434 E18.38896
G1 X110.333 Y118.544 E18.40379
G1 X109.939 Y118.753 E18.41863
G1 X109.606 Y119.05 E18.43347
G1 X109.353 Y119.419 E18.44835
G1 X109.197 Y119.84 E18.46328
G1 X109.147 Y120.284 E18.47814
G1 X109.203 Y120.726 E18.49296
G1 X109.363 Y121.143 E18.50781
G1 X109.62 Y121.509 E18.52269
G1 X109.957 Y121.804 E18.53759
G1 X110.353 Y122.01 E18.55243
G0 F3600 X110.319 Y122.103
G0 X109.31 Y121.24
G0 X109.719 Y120.954
;TYPE:WALL-OUTER
G1 F1200 X109.92 Y121.24 E18.56406
G1 X110.184 Y121.471 E18.57573
G1 X110.494 Y121.632 E18.58734
G1 X110.834 Y121.713 E18.59897
G1 X111.184 Y121.711 E18.61061
G1 X111.522 Y121.625 E18.62221
G1 X111.831 Y121.461 E18.63385
G1 X112.092 Y121.228 E18.64548
G1 X112.289 Y120.939 E18.65712
G1 X112.411 Y120.611 E18.66876
G1 X112.45 Y120.264 E18.68037
G1 X112.406 Y119.917 E18.692
G1 X112.281 Y119.59 E18.70365
G1 X112.08 Y119.303 E18.7153
G1 X111.816 Y119.073 E18.72695
G1 X111.506 Y118.913 E18.73855
G1 X111.166 Y118.832 E18.75017
G1 X110.816 Y118.834 E18.76182
G1 X110.478 Y118.92 E18.77342
G1 X110.169 Y119.084 E18.78505
G1 X109.909 Y119.316 E18.79664
G1 X109.711 Y119.605 E18.80829
G1 X109.589 Y119.933 E18.81993
G1 X109.55 Y120.281 E18.83158
G1 X109.594 Y120.628 E18.84321
G1 X109.719 Y120.954 E18.85482
G0 F3600 X109.834 Y121.117
G0 X109.425 Y121.404
G0 X109.107 Y120.284
G0 X109.318 Y119.401
G0 X113.154 Y114.554
G0 X112.739 Y114.276
G1 F1200 X113.047 Y113.816 E18.87324
G1 X113.238 Y113.296 E18.89166
G1 X113.298 Y112.745 E18.9101
G1 X113.225 Y112.195 E18.92855
G1 X113.022 Y111.679 E18.94699
G1 X112.702 Y111.228 E18.96539
G1 X112.283 Y110.865 E18.98382
G1 X111.789 Y110.614 E19.00225
G1 X111.25 Y110.488 E19.02066
G1 X110.695 Y110.494 E19.03913
G1 X110.159 Y110.633 E19.05754
G1 X109.672 Y110.897 E19.07597
G1 X109.262 Y111.269 E19.09438
G1 X108.953 Y111.728 E19.11278
G1 X108.762 Y112.249 E19.13124
G1 X108.702 Y112.799 E19.14964
G1 X108.775 Y113.35 E19.16813
G1 X108.978 Y113.865 E19.18654
G1 X109.298 Y114.317 E19.20496
G1 X109.717 Y114.68 E19.2234
G1 X110.211 Y114.931 E19.24183
G1 X110.75 Y115.057 E19.26024
G1 X111.305 Y115.051 E19.2787
G1 X111.841 Y114.912 E19.29712
G1 X112.328 Y114.648 E19.31554
G1 X112.739 Y114.276 E19.33398
G0 F3600 X112.85 Y114.11
G0 X113.265 Y114.388
G0 X112.584 Y115.009
G0 X111.363 Y115.489
G0 X110.06 Y115.346
G0 X108.971 Y114.614
G0 X100.681 Y112.072
G0 X100.681 Y112.572
G1 F1200 X99.536 Y112.572 E19.37206
G1 X99.322 Y112.55 E19.37922
G1 X99.153 Y112.491 E19.38517
G1 X99.003 Y112.397 E19.39106
G1 X98.873 Y112.268 E19.39715
G1 X98.782 Y112.122 E19.40287
G1 X98.721 Y111.95 E19.40894
G1 X98.7 Y111.759 E19.41533
G1 X98.7 Y96.972 E19.90715
G1 X121.3 Y96.972 E20.65883
G1 X121.3 Y112.765 E21.18411
G1 X121.129 Y114.613 E21.24583
G1 X120.616 Y116.45 E21.30927
G1 X119.78 Y118.149 E21.37225
G1 X118.64 Y119.673 E21.43555
G1 X117.246 Y120.956 E21.49856
G1 X115.629 Y121.968 E21.56201
G1 X113.862 Y122.662 E21.62515
G1 X111.952 Y123.028 E21.68983
G1 X110.099 Y123.028 E21.75146
G1 X108.229 Y122.688 E21.81468
G1 X106.408 Y121.992 E21.87952
G1 X104.834 Y121.017 E21.9411
G1 X103.425 Y119.745 E22.00424
G1 X102.275 Y118.236 E22.06734
G1 X101.418 Y116.534 E22.13072
G1 X100.89 Y114.712 E22.19381
