;FLAVOR:Marlin
;TIME:1762
;Filament used: 0.562452m
;Layer height: 0.1
;MINX:91.2
;MINY:56.493
;MINZ:0.2
;MAXX:128.8
;MAXY:94.093
;MAXZ:16
;Generated with Cura_SteamEngine 4.6.1
M140 S60
M105
M190 S60
M104 S200
M105
M109 S200
M82 ;absolute extrusion mode
; -- START GCODE --
G21        ;metric values
G90        ;absolute positioning
M82        ;set extruder to absolute mode
M107       ;start with the fan off
G28 X0 Y0  ;move X/Y to min endstops
G28 Z0       ;move Z to min endstops
G92 E0                  ;zero the extruded length again
G1 Z1 F1000             ;move up slightly
G1 Y60.0 Z0 E9.0 F1000.0;intro line
G1 Y100.0 E21.5 F1000.0 ;continue line
G92 E0                  ;zero the extruded length again
G1 F80
;Put printing message on LCD screen
M117 Printing...
; -- end of START GCODE --
G92 E0
G92 E0
G1 F2700 E-5
;LAYER_COUNT:159
;LAYER:0
M107
G0 F3600 X98.366 Y60.826 Z0.2
;TYPE:SKIRT
G1 F2700 E0
G1 F1200 X98.612 Y60.478 E0.01417
G1 X99.1 Y59.857 E0.04044
G1 X99.678 Y59.26 E0.06808
G1 X99.993 Y58.968 E0.08237
G1 X100.599 Y58.461 E0.10865
G1 X101.329 Y57.972 E0.13787
G1 X101.693 Y57.757 E0.15193
G1 X102.393 Y57.39 E0.17822
G1 X103.188 Y57.075 E0.20666
G1 X103.592 Y56.94 E0.22083
G1 X104.353 Y56.728 E0.2471
G1 X105.243 Y56.581 E0.27711
G1 X105.668 Y56.536 E0.29132
G1 X106.489 Y56.493 E0.31866
G1 X121 Y56.493 E0.8013
G1 X121.789 Y56.533 E0.82758
G1 X122.569 Y56.652 E0.85382
G1 X123.334 Y56.85 E0.8801
G1 X124.074 Y57.124 E0.90635
G1 X124.783 Y57.472 E0.93262
G1 X125.454 Y57.89 E0.95891
G1 X126.078 Y58.373 E0.98516
G1 X126.651 Y58.916 E1.01141
G1 X127.166 Y59.515 E1.03769
G1 X127.617 Y60.163 E1.06395
G1 X128.001 Y60.854 E1.09024
G1 X128.313 Y61.579 E1.11649
G1 X128.55 Y62.332 E1.14275
G1 X128.709 Y63.106 E1.16903
G1 X128.79 Y63.891 E1.19528
G1 X128.8 Y86.293 E1.94037
G1 X128.76 Y87.082 E1.96665
G1 X128.641 Y87.862 E1.99289
G1 X128.443 Y88.627 E2.01917
G1 X128.169 Y89.367 E2.04542
G1 X127.821 Y90.076 E2.07168
G1 X127.403 Y90.747 E2.09798
G1 X126.92 Y91.371 E2.12422
G1 X126.377 Y91.944 E2.15048
G1 X125.778 Y92.459 E2.17675
G1 X125.13 Y92.91 E2.20301
G1 X124.439 Y93.294 E2.22931
G1 X123.714 Y93.606 E2.25556
G1 X122.961 Y93.843 E2.28181
G1 X122.187 Y94.002 E2.30809
G1 X121.402 Y94.083 E2.33434
G1 X99 Y94.093 E3.07944
G1 X98.211 Y94.053 E3.10571
G1 X97.431 Y93.934 E3.13196
G1 X96.666 Y93.736 E3.15824
G1 X95.926 Y93.462 E3.18448
G1 X95.217 Y93.114 E3.21075
G1 X94.546 Y92.696 E3.23705
G1 X93.922 Y92.213 E3.26329
G1 X93.349 Y91.67 E3.28955
G1 X92.834 Y91.071 E3.31582
G1 X92.383 Y90.423 E3.34208
G1 X91.999 Y89.732 E3.36837
G1 X91.687 Y89.007 E3.39462
G1 X91.45 Y88.254 E3.42088
G1 X91.291 Y87.48 E3.44716
G1 X91.21 Y86.695 E3.47341
G1 X91.2 Y84.293 E3.5533
G1 X91.24 Y83.504 E3.57958
G1 X91.359 Y82.724 E3.60582
G1 X91.529 Y82.052 E3.62887
G1 X97.1 Y63.479 E4.27381
G1 X97.375 Y62.71 E4.30097
G1 X97.539 Y62.318 E4.3151
G1 X97.881 Y61.605 E4.3414
G1 X98.366 Y60.826 E4.37192
G0 F3600 X98.692 Y61.056
G1 F1200 X98.938 Y60.708 E4.3861
G1 X99.414 Y60.104 E4.41168
G1 X99.95 Y59.553 E4.43724
G1 X100.265 Y59.261 E4.45153
G1 X100.856 Y58.768 E4.47713
G1 X101.533 Y58.316 E4.5042
G1 X101.897 Y58.101 E4.51826
G1 X102.578 Y57.745 E4.54382
G1 X103.315 Y57.454 E4.57018
G1 X103.719 Y57.319 E4.58434
G1 X104.46 Y57.114 E4.60991
G1 X105.285 Y56.979 E4.63772
G1 X105.71 Y56.934 E4.65193
G1 X106.489 Y56.893 E4.67788
G1 X121 Y56.893 E5.16052
G1 X121.768 Y56.933 E5.1861
G1 X122.528 Y57.052 E5.21168
G1 X123.271 Y57.25 E5.23726
G1 X123.99 Y57.524 E5.26285
G1 X124.676 Y57.871 E5.28842
G1 X125.323 Y58.287 E5.314
G1 X125.923 Y58.768 E5.33958
G1 X126.47 Y59.309 E5.36517
G1 X126.958 Y59.904 E5.39076
G1 X127.381 Y60.546 E5.41633
G1 X127.736 Y61.229 E5.44193
G1 X128.017 Y61.944 E5.46749
G1 X128.223 Y62.686 E5.4931
G1 X128.351 Y63.444 E5.51867
G1 X128.4 Y64.293 E5.54695
G1 X128.4 Y86.293 E6.27867
G1 X128.36 Y87.061 E6.30425
G1 X128.241 Y87.821 E6.32984
G1 X128.043 Y88.564 E6.35541
G1 X127.769 Y89.283 E6.381
G1 X127.422 Y89.969 E6.40657
G1 X127.006 Y90.616 E6.43216
G1 X126.525 Y91.216 E6.45773
G1 X125.984 Y91.763 E6.48332
G1 X125.389 Y92.251 E6.50892
G1 X124.747 Y92.674 E6.53449
G1 X124.064 Y93.029 E6.56009
G1 X123.349 Y93.31 E6.58564
G1 X122.607 Y93.516 E6.61125
G1 X121.849 Y93.644 E6.63682
G1 X121 Y93.693 E6.66511
G1 X99 Y93.693 E7.39683
G1 X98.232 Y93.653 E7.42241
G1 X97.472 Y93.534 E7.44799
G1 X96.729 Y93.336 E7.47357
G1 X96.01 Y93.062 E7.49916
G1 X95.324 Y92.715 E7.52473
G1 X94.677 Y92.299 E7.55031
G1 X94.077 Y91.818 E7.57589
G1 X93.53 Y91.277 E7.60148
G1 X93.042 Y90.682 E7.62707
G1 X92.619 Y90.04 E7.65265
G1 X92.264 Y89.357 E7.67825
G1 X91.983 Y88.642 E7.7038
G1 X91.777 Y87.9 E7.72941
G1 X91.649 Y87.142 E7.75498
G1 X91.6 Y86.293 E7.78326
G1 X91.6 Y84.293 E7.84978
G1 X91.64 Y83.525 E7.87536
G1 X91.759 Y82.765 E7.90095
G1 X91.912 Y82.167 E7.92148
G1 X97.483 Y63.594 E8.56641
G1 X97.744 Y62.864 E8.5922
G1 X97.908 Y62.472 E8.60633
G1 X98.242 Y61.779 E8.63192
G1 X98.692 Y61.056 E8.66024
G0 F3600 X99.019 Y61.287
G1 F1200 X99.265 Y60.939 E8.67441
G1 X99.729 Y60.352 E8.6993
G1 X100.222 Y59.846 E8.7228
G1 X100.537 Y59.554 E8.73708
G1 X101.112 Y59.076 E8.76195
G1 X101.736 Y58.661 E8.78688
G1 X102.1 Y58.446 E8.80094
G1 X102.764 Y58.1 E8.82584
G1 X103.441 Y57.834 E8.85004
G1 X103.845 Y57.699 E8.8642
G1 X104.567 Y57.5 E8.88911
G1 X105.327 Y57.377 E8.91472
G1 X105.752 Y57.332 E8.92893
G1 X106.489 Y57.293 E8.95348
G1 X121 Y57.293 E9.43612
G1 X121.747 Y57.333 E9.461
G1 X122.485 Y57.452 E9.48586
G1 X123.207 Y57.65 E9.51076
G1 X123.903 Y57.923 E9.53563
G1 X124.566 Y58.27 E9.56052
G1 X125.189 Y58.685 E9.58542
G1 X125.763 Y59.164 E9.61028
G1 X126.284 Y59.701 E9.63517
G1 X126.743 Y60.291 E9.66003
G1 X127.138 Y60.927 E9.68493
G1 X127.462 Y61.601 E9.7098
G1 X127.712 Y62.306 E9.73468
G1 X127.886 Y63.034 E9.75958
G1 X127.981 Y63.776 E9.78446
G1 X128 Y64.293 E9.80166
G1 X128 Y86.293 E10.53339
G1 X127.96 Y87.04 E10.55827
G1 X127.841 Y87.778 E10.58313
G1 X127.643 Y88.5 E10.60803
G1 X127.37 Y89.196 E10.6329
G1 X127.023 Y89.859 E10.65779
G1 X126.608 Y90.482 E10.68269
G1 X126.129 Y91.056 E10.70755
G1 X125.592 Y91.577 E10.73244
G1 X125.002 Y92.036 E10.7573
G1 X124.366 Y92.431 E10.7822
G1 X123.692 Y92.755 E10.80707
G1 X122.987 Y93.005 E10.83195
G1 X122.259 Y93.179 E10.85685
G1 X121.517 Y93.274 E10.88173
G1 X121 Y93.293 E10.89893
G1 X99 Y93.293 E11.63066
G1 X98.253 Y93.253 E11.65554
G1 X97.515 Y93.134 E11.6804
G1 X96.793 Y92.936 E11.7053
G1 X96.097 Y92.663 E11.73017
G1 X95.434 Y92.316 E11.75506
G1 X94.811 Y91.901 E11.77995
G1 X94.237 Y91.422 E11.80482
G1 X93.716 Y90.885 E11.82971
G1 X93.257 Y90.295 E11.85457
G1 X92.862 Y89.659 E11.87947
G1 X92.538 Y88.985 E11.90434
G1 X92.288 Y88.28 E11.92922
G1 X92.114 Y87.552 E11.95412
G1 X92.019 Y86.81 E11.979
G1 X92 Y86.293 E11.9962
G1 X92 Y84.293 E12.06272
G1 X92.04 Y83.546 E12.08761
G1 X92.159 Y82.808 E12.11247
G1 X92.295 Y82.282 E12.13054
G1 X97.866 Y63.709 E12.77547
G1 X98.113 Y63.018 E12.79988
G1 X98.277 Y62.626 E12.81401
G1 X98.603 Y61.953 E12.83888
G1 X99.019 Y61.287 E12.865
G0 F3600 X99.346 Y61.518
G1 F1200 X99.592 Y61.17 E12.87917
G1 X100.043 Y60.601 E12.90332
G1 X100.494 Y60.14 E12.92477
G1 X100.809 Y59.848 E12.93906
G1 X101.368 Y59.384 E12.96322
G1 X101.939 Y59.005 E12.98602
G1 X102.303 Y58.79 E13.00008
G1 X102.948 Y58.456 E13.02424
G1 X103.568 Y58.213 E13.04638
G1 X103.972 Y58.078 E13.06055
G1 X104.673 Y57.886 E13.08473
G1 X105.369 Y57.775 E13.10817
G1 X105.794 Y57.73 E13.12238
G1 X106.489 Y57.693 E13.14553
G1 X121 Y57.693 E13.62817
G1 X121.725 Y57.733 E13.65232
G1 X122.442 Y57.852 E13.67649
G1 X123.141 Y58.05 E13.70066
G1 X123.814 Y58.323 E13.72481
G1 X124.453 Y58.668 E13.74896
G1 X125.05 Y59.082 E13.77313
G1 X125.598 Y59.558 E13.79727
G1 X126.091 Y60.092 E13.82144
G1 X126.521 Y60.677 E13.84559
G1 X126.885 Y61.306 E13.86976
G1 X127.178 Y61.971 E13.89393
G1 X127.396 Y62.664 E13.91809
G1 X127.536 Y63.376 E13.94223
G1 X127.6 Y64.293 E13.9728
G1 X127.6 Y86.293 E14.70453
G1 X127.56 Y87.018 E14.72868
G1 X127.441 Y87.735 E14.75285
G1 X127.243 Y88.434 E14.77701
G1 X126.97 Y89.107 E14.80117
G1 X126.625 Y89.746 E14.82532
G1 X126.211 Y90.343 E14.84949
G1 X125.735 Y90.891 E14.87363
G1 X125.201 Y91.384 E14.8978
G1 X124.616 Y91.814 E14.92195
G1 X123.987 Y92.178 E14.94612
G1 X123.322 Y92.471 E14.97029
G1 X122.629 Y92.689 E14.99445
G1 X121.917 Y92.829 E15.01859
G1 X121 Y92.893 E15.04916
G1 X99 Y92.893 E15.78088
G1 X98.275 Y92.853 E15.80503
G1 X97.558 Y92.734 E15.82921
G1 X96.859 Y92.536 E15.85337
G1 X96.186 Y92.263 E15.87753
G1 X95.547 Y91.918 E15.90168
G1 X94.95 Y91.504 E15.92584
G1 X94.402 Y91.028 E15.94999
G1 X93.909 Y90.494 E15.97416
G1 X93.479 Y89.909 E15.99831
G1 X93.115 Y89.28 E16.02248
G1 X92.822 Y88.615 E16.04665
G1 X92.604 Y87.922 E16.07081
G1 X92.464 Y87.21 E16.09494
G1 X92.4 Y86.293 E16.12552
G1 X92.4 Y84.293 E16.19204
G1 X92.44 Y83.568 E16.21619
G1 X92.559 Y82.851 E16.24036
G1 X92.678 Y82.397 E16.25597
G1 X98.249 Y63.824 E16.9009
G1 X98.482 Y63.173 E16.9239
G1 X98.646 Y62.781 E16.93803
G1 X98.963 Y62.127 E16.96221
G1 X99.346 Y61.518 E16.98614
G0 F3600 X99.672 Y61.749
G1 F1200 X99.918 Y61.401 E17.00031
G1 X100.357 Y60.85 E17.02374
G1 X100.766 Y60.433 E17.04317
G1 X101.081 Y60.141 E17.05745
G1 X101.624 Y59.693 E17.08087
G1 X102.143 Y59.35 E17.10156
G1 X102.507 Y59.135 E17.11562
G1 X103.132 Y58.812 E17.13902
G1 X103.695 Y58.593 E17.15911
G1 X104.099 Y58.458 E17.17328
G1 X104.778 Y58.273 E17.19669
G1 X105.411 Y58.172 E17.21801
G1 X105.836 Y58.127 E17.23222
G1 X106.489 Y58.093 E17.25397
G1 X121 Y58.093 E17.73661
G1 X121.703 Y58.133 E17.76003
G1 X122.397 Y58.252 E17.78345
G1 X123.072 Y58.45 E17.80684
G1 X123.721 Y58.722 E17.83025
G1 X124.335 Y59.067 E17.85367
G1 X124.906 Y59.478 E17.87707
G1 X125.427 Y59.952 E17.9005
G1 X125.891 Y60.482 E17.92393
G1 X126.291 Y61.061 E17.94733
G1 X126.623 Y61.682 E17.97076
G1 X126.883 Y62.336 E17.99416
G1 X127.067 Y63.016 E18.01759
G1 X127.173 Y63.712 E18.04101
G1 X127.2 Y64.293 E18.06035
G1 X127.2 Y86.293 E18.79208
G1 X127.16 Y86.996 E18.8155
G1 X127.041 Y87.69 E18.83892
G1 X126.843 Y88.365 E18.86231
G1 X126.571 Y89.014 E18.88572
G1 X126.226 Y89.628 E18.90914
G1 X125.815 Y90.199 E18.93254
G1 X125.341 Y90.72 E18.95597
G1 X124.811 Y91.184 E18.9794
G1 X124.232 Y91.584 E19.0028
G1 X123.611 Y91.916 E19.02623
G1 X122.957 Y92.176 E19.04963
G1 X122.277 Y92.36 E19.07306
G1 X121.581 Y92.466 E19.09648
G1 X121 Y92.493 E19.11582
G1 X99 Y92.493 E19.84755
G1 X98.297 Y92.453 E19.87097
G1 X97.603 Y92.334 E19.89439
G1 X96.928 Y92.136 E19.91778
G1 X96.279 Y91.864 E19.94119
G1 X95.665 Y91.519 E19.96461
G1 X95.094 Y91.108 E19.98801
G1 X94.573 Y90.634 E20.01144
G1 X94.109 Y90.104 E20.03487
G1 X93.709 Y89.525 E20.05827
G1 X93.377 Y88.904 E20.0817
G1 X93.117 Y88.25 E20.1051
G1 X92.933 Y87.57 E20.12853
G1 X92.827 Y86.874 E20.15195
G1 X92.8 Y86.293 E20.1713
G1 X92.8 Y84.293 E20.23782
G1 X92.84 Y83.59 E20.26124
G1 X92.959 Y82.896 E20.28465
G1 X98.632 Y63.939 E20.94279
G1 X98.851 Y63.327 E20.96441
G1 X99.015 Y62.935 E20.97855
G1 X99.324 Y62.302 E21.00197
G1 X99.672 Y61.749 E21.02371
G0 F3600 X99.999 Y61.98
G1 F1200 X100.245 Y61.632 E21.03788
G1 X100.67 Y61.1 E21.06053
G1 X101.038 Y60.726 E21.07798
G1 X101.353 Y60.434 E21.09227
G1 X101.879 Y60.002 E21.1149
G1 X102.346 Y59.694 E21.13351
G1 X102.71 Y59.479 E21.14757
G1 X103.316 Y59.168 E21.17023
G1 X103.822 Y58.972 E21.18827
G1 X104.226 Y58.837 E21.20244
G1 X104.883 Y58.659 E21.22508
G1 X105.453 Y58.57 E21.24427
G1 X105.878 Y58.525 E21.25848
G1 X106.489 Y58.493 E21.27883
G1 X121 Y58.493 E21.76147
G1 X121.68 Y58.533 E21.78413
G1 X122.35 Y58.652 E21.80676
G1 X123.002 Y58.849 E21.82941
G1 X123.626 Y59.121 E21.85206
G1 X124.214 Y59.465 E21.87471
G1 X124.758 Y59.875 E21.89737
G1 X125.249 Y60.346 E21.92
G1 X125.683 Y60.871 E21.94266
G1 X126.052 Y61.443 E21.9653
G1 X126.351 Y62.055 E21.98795
G1 X126.576 Y62.697 E22.01058
G1 X126.725 Y63.362 E22.03324
G1 X126.8 Y64.293 E22.06431
G1 X126.8 Y86.293 E22.79603
G1 X126.76 Y86.973 E22.81869
G1 X126.641 Y87.643 E22.84132
G1 X126.444 Y88.295 E22.86397
G1 X126.172 Y88.919 E22.88661
G1 X125.828 Y89.507 E22.90927
G1 X125.418 Y90.051 E22.93193
G1 X124.947 Y90.542 E22.95456
G1 X124.422 Y90.976 E22.97721
G1 X123.85 Y91.345 E22.99985
G1 X123.238 Y91.644 E23.02251
G1 X122.596 Y91.869 E23.04514
G1 X121.931 Y92.018 E23.0678
G1 X121 Y92.093 E23.09887
G1 X99 Y92.093 E23.83059
G1 X98.32 Y92.053 E23.85325
G1 X97.65 Y91.934 E23.87588
G1 X96.998 Y91.737 E23.89853
G1 X96.374 Y91.465 E23.92117
G1 X95.786 Y91.121 E23.94383
G1 X95.242 Y90.711 E23.96649
G1 X94.751 Y90.24 E23.98912
G1 X94.317 Y89.715 E24.01177
G1 X93.948 Y89.143 E24.03441
G1 X93.649 Y88.531 E24.05707
G1 X93.424 Y87.889 E24.07969
G1 X93.275 Y87.224 E24.10236
G1 X93.2 Y86.293 E24.13343
G1 X93.2 Y84.293 E24.19995
G1 X93.24 Y83.613 E24.2226
G1 X93.445 Y82.627 E24.2561
G1 X99.016 Y64.054 E24.90103
G1 X99.22 Y63.481 E24.92126
G1 X99.384 Y63.089 E24.93539
G1 X99.684 Y62.478 E24.95803
G1 X99.999 Y61.98 E24.97763
G0 F3600 X100.325 Y62.211
G1 F1200 X100.571 Y61.863 E24.99181
G1 X100.983 Y61.351 E25.01366
G1 X101.625 Y60.728 E25.04342
G1 X102.133 Y60.311 E25.06528
G1 X102.914 Y59.823 E25.09591
G1 X103.499 Y59.524 E25.11776
G1 X104.353 Y59.216 E25.14795
G1 X104.987 Y59.046 E25.16979
G1 X105.495 Y58.968 E25.18688
G1 X105.92 Y58.923 E25.20109
G1 X106.489 Y58.893 E25.22005
G1 X121 Y58.893 E25.70268
G1 X121.656 Y58.933 E25.72454
G1 X122.302 Y59.052 E25.74639
G1 X122.929 Y59.249 E25.76825
G1 X123.527 Y59.521 E25.7901
G1 X124.088 Y59.863 E25.81195
G1 X124.603 Y60.271 E25.83381
G1 X125.065 Y60.738 E25.85565
G1 X125.466 Y61.258 E25.8775
G1 X125.802 Y61.822 E25.89933
G1 X126.066 Y62.424 E25.92119
G1 X126.256 Y63.053 E25.94305
G1 X126.367 Y63.7 E25.96488
G1 X126.4 Y64.293 E25.98464
G1 X126.4 Y86.293 E26.71636
G1 X126.36 Y86.949 E26.73822
G1 X126.241 Y87.595 E26.76007
G1 X126.044 Y88.222 E26.78192
G1 X125.772 Y88.82 E26.80377
G1 X125.43 Y89.381 E26.82563
G1 X125.022 Y89.896 E26.84748
G1 X124.555 Y90.358 E26.86933
G1 X124.035 Y90.759 E26.89117
G1 X123.471 Y91.095 E26.91301
G1 X122.869 Y91.359 E26.93487
G1 X122.24 Y91.549 E26.95672
G1 X121.593 Y91.66 E26.97856
G1 X121 Y91.693 E26.99831
G1 X99 Y91.693 E27.73003
G1 X98.344 Y91.653 E27.75189
G1 X97.698 Y91.534 E27.77374
G1 X97.071 Y91.337 E27.7956
G1 X96.473 Y91.065 E27.81745
G1 X95.912 Y90.723 E27.8393
G1 X95.397 Y90.315 E27.86116
G1 X94.935 Y89.848 E27.883
G1 X94.534 Y89.328 E27.90484
G1 X94.198 Y88.764 E27.92668
G1 X93.934 Y88.162 E27.94854
G1 X93.744 Y87.533 E27.9704
G1 X93.633 Y86.886 E27.99223
G1 X93.6 Y86.293 E28.01199
G1 X93.6 Y84.293 E28.07851
G1 X93.64 Y83.637 E28.10036
G1 X93.828 Y82.742 E28.13078
G1 X99.399 Y64.169 E28.77571
G1 X99.589 Y63.636 E28.79453
G1 X99.753 Y63.244 E28.80867
G1 X100.043 Y62.654 E28.83053
G1 X100.325 Y62.211 E28.848
G0 F3600 X100.898 Y62.094
G1 F1200 X101.295 Y61.602 E28.86903
G1 X101.897 Y61.021 E28.89685
G1 X102.387 Y60.622 E28.91787
G1 X103.117 Y60.168 E28.94646
G1 X103.681 Y59.881 E28.96751
G1 X104.479 Y59.596 E28.99569
G1 X105.09 Y59.434 E29.01672
G1 X105.963 Y59.321 E29.046
G1 X106.489 Y59.293 E29.06352
G1 X121 Y59.293 E29.54615
G1 X121.631 Y59.333 E29.56718
G1 X122.252 Y59.452 E29.58821
G1 X122.852 Y59.649 E29.60922
G1 X123.424 Y59.92 E29.63027
G1 X123.956 Y60.26 E29.65127
G1 X124.441 Y60.666 E29.67231
G1 X124.871 Y61.129 E29.69332
G1 X125.24 Y61.643 E29.71437
G1 X125.54 Y62.199 E29.73538
G1 X125.768 Y62.788 E29.75639
G1 X125.92 Y63.402 E29.77742
G1 X126 Y64.293 E29.80718
G1 X126 Y86.293 E30.5389
G1 X125.96 Y86.924 E30.55993
G1 X125.841 Y87.545 E30.58096
G1 X125.644 Y88.145 E30.60197
G1 X125.373 Y88.717 E30.62302
G1 X125.033 Y89.249 E30.64402
G1 X124.627 Y89.734 E30.66505
G1 X124.164 Y90.164 E30.68607
G1 X123.65 Y90.533 E30.70712
G1 X123.094 Y90.833 E30.72813
G1 X122.505 Y91.061 E30.74913
G1 X121.891 Y91.213 E30.77017
G1 X121 Y91.293 E30.79993
G1 X99 Y91.293 E31.53165
G1 X98.369 Y91.253 E31.55268
G1 X97.748 Y91.134 E31.57371
G1 X97.148 Y90.937 E31.59471
G1 X96.576 Y90.666 E31.61577
G1 X96.044 Y90.326 E31.63677
G1 X95.559 Y89.92 E31.6578
G1 X95.129 Y89.457 E31.67882
G1 X94.76 Y88.943 E31.69986
G1 X94.46 Y88.387 E31.72088
