;FLAVOR:Marlin
;TIME:1878
;Filament used: 0.903165m
;Layer height: 0.15
;MINX:89.7
;MINY:91.2
;MINZ:0.2
;MAXX:130.3
;MAXY:126.8
;MAXZ:26.45
;Generated with Cura_SteamEngine 4.6.1
M140 S60
M105
M190 S60
M104 S200
M105
M109 S200
M82 ;absolute extrusion mode
; -- START GCODE --
G21        ;metric values
G90        ;absolute positioning
M82        ;set extruder to absolute mode
M107       ;start with the fan off
G28 X0 Y0  ;move X/Y to min endstops
G28 Z0       ;move Z to min endstops
G92 E0                  ;zero the extruded length again
G1 Z1 F1000             ;move up slightly
G1 Y60.0 Z0 E9.0 F1000.0;intro line
G1 Y100.0 E21.5 F1000.0 ;continue line
G92 E0                  ;zero the extruded length again
G1 F80
;Put printing message on LCD screen
M117 Printing...
; -- end of START GCODE --
G92 E0
G92 E0
G1 F2700 E-5
;LAYER_COUNT:176
;LAYER:0
M107
G0 F3600 X92.123 Y93.349 Z0.2
;TYPE:SKIRT
G1 F2700 E0
G1 F1200 X92.722 Y92.834 E0.02627
G1 X93.37 Y92.383 E0.05253
G1 X94.061 Y91.999 E0.07883
G1 X94.786 Y91.687 E0.10508
G1 X95.539 Y91.45 E0.13133
G1 X96.313 Y91.291 E0.15761
G1 X97.098 Y91.21 E0.18386
G1 X99.5 Y91.2 E0.26375
G1 X100.289 Y91.24 E0.29003
G1 X101.069 Y91.359 E0.31627
G1 X101.834 Y91.557 E0.34256
G1 X102.574 Y91.831 E0.3688
G1 X103.283 Y92.179 E0.39507
G1 X103.954 Y92.597 E0.42136
G1 X104.578 Y93.08 E0.44761
G1 X105.151 Y93.623 E0.47386
G1 X105.666 Y94.222 E0.50014
G1 X106.117 Y94.87 E0.5264
G1 X106.501 Y95.561 E0.55269
G1 X106.813 Y96.286 E0.57894
G1 X107.05 Y97.039 E0.6052
G1 X107.209 Y97.813 E0.63148
G1 X107.29 Y98.598 E0.65773
G1 X107.3 Y99.396 E0.68427
G1 X107.813 Y99.291 E0.70169
G1 X108.598 Y99.21 E0.72793
G1 X115 Y99.2 E0.94087
G1 X115.789 Y99.24 E0.96714
G1 X116.569 Y99.359 E0.99339
G1 X117.334 Y99.557 E1.01967
G1 X118.074 Y99.831 E1.04591
G1 X118.783 Y100.179 E1.07218
G1 X119.454 Y100.597 E1.09848
G1 X120.078 Y101.08 E1.12472
G1 X120.651 Y101.623 E1.15098
G1 X121.166 Y102.222 E1.17725
G1 X121.617 Y102.87 E1.20351
G1 X122.001 Y103.561 E1.2298
G1 X122.313 Y104.286 E1.25605
G1 X122.55 Y105.039 E1.28231
G1 X122.709 Y105.813 E1.30859
G1 X122.79 Y106.598 E1.33484
G1 X122.8 Y107.015 E1.34871
G1 X123.289 Y107.04 E1.365
G1 X124.069 Y107.159 E1.39124
G1 X124.834 Y107.357 E1.41752
G1 X125.574 Y107.631 E1.44377
G1 X126.283 Y107.979 E1.47004
G1 X126.954 Y108.397 E1.49633
G1 X127.578 Y108.88 E1.52258
G1 X128.151 Y109.423 E1.54883
G1 X128.666 Y110.022 E1.57511
G1 X129.117 Y110.67 E1.60137
G1 X129.501 Y111.361 E1.62766
G1 X129.813 Y112.086 E1.65391
G1 X130.05 Y112.839 E1.68017
G1 X130.209 Y113.613 E1.70645
G1 X130.29 Y114.398 E1.7327
G1 X130.3 Y119 E1.88576
G1 X130.26 Y119.789 E1.91204
G1 X130.141 Y120.569 E1.93828
G1 X129.943 Y121.334 E1.96456
G1 X129.669 Y122.074 E1.99081
G1 X129.321 Y122.783 E2.01708
G1 X128.903 Y123.454 E2.04337
G1 X128.42 Y124.078 E2.06961
G1 X127.877 Y124.651 E2.09587
G1 X127.278 Y125.166 E2.12214
G1 X126.63 Y125.617 E2.1484
G1 X125.939 Y126.001 E2.1747
G1 X125.214 Y126.313 E2.20095
G1 X124.461 Y126.55 E2.2272
G1 X123.687 Y126.709 E2.25349
G1 X122.902 Y126.79 E2.27973
G1 X97.5 Y126.8 E3.12461
G1 X96.711 Y126.76 E3.15088
G1 X95.931 Y126.641 E3.17713
G1 X95.166 Y126.443 E3.20341
G1 X94.426 Y126.169 E3.22965
G1 X93.717 Y125.821 E3.25592
G1 X93.046 Y125.403 E3.28222
G1 X92.422 Y124.92 E3.30846
G1 X91.849 Y124.377 E3.33472
G1 X91.334 Y123.778 E3.36099
G1 X90.883 Y123.13 E3.38725
G1 X90.499 Y122.439 E3.41354
G1 X90.187 Y121.714 E3.4398
G1 X89.95 Y120.961 E3.46605
G1 X89.791 Y120.187 E3.49233
G1 X89.71 Y119.402 E3.51858
G1 X89.7 Y99 E4.19715
G1 X89.74 Y98.211 E4.22343
G1 X89.859 Y97.431 E4.24967
G1 X90.057 Y96.666 E4.27596
G1 X90.331 Y95.926 E4.3022
G1 X90.679 Y95.217 E4.32847
G1 X91.097 Y94.546 E4.35476
G1 X91.58 Y93.922 E4.38101
G1 X92.123 Y93.349 E4.40726
G0 F3600 X92.516 Y93.53
G1 F1200 X93.111 Y93.042 E4.43286
G1 X93.753 Y92.619 E4.45843
G1 X94.436 Y92.264 E4.48403
G1 X95.151 Y91.983 E4.50958
G1 X95.893 Y91.777 E4.5352
G1 X96.651 Y91.649 E4.56076
G1 X97.5 Y91.6 E4.58905
G1 X99.5 Y91.6 E4.65557
G1 X100.268 Y91.64 E4.68115
G1 X101.028 Y91.759 E4.70673
G1 X101.771 Y91.957 E4.73231
G1 X102.49 Y92.231 E4.7579
G1 X103.176 Y92.578 E4.78347
G1 X103.823 Y92.994 E4.80905
G1 X104.423 Y93.475 E4.83463
G1 X104.97 Y94.016 E4.86022
G1 X105.458 Y94.611 E4.88581
G1 X105.881 Y95.253 E4.91138
G1 X106.236 Y95.936 E4.93699
G1 X106.517 Y96.651 E4.96254
G1 X106.723 Y97.393 E4.98815
G1 X106.851 Y98.151 E5.01372
G1 X106.9 Y99 E5.042
G1 X106.9 Y99.914 E5.0724
G1 X107.393 Y99.777 E5.08942
G1 X108.151 Y99.649 E5.11499
G1 X109 Y99.6 E5.14327
G1 X115 Y99.6 E5.34284
G1 X115.768 Y99.64 E5.36841
G1 X116.528 Y99.759 E5.394
G1 X117.271 Y99.957 E5.41957
G1 X117.99 Y100.231 E5.44517
G1 X118.676 Y100.578 E5.47074
G1 X119.323 Y100.994 E5.49632
G1 X119.923 Y101.475 E5.5219
G1 X120.47 Y102.016 E5.54748
G1 X120.958 Y102.611 E5.57308
G1 X121.381 Y103.253 E5.59865
G1 X121.736 Y103.936 E5.62425
G1 X122.017 Y104.651 E5.6498
G1 X122.223 Y105.393 E5.67542
G1 X122.351 Y106.151 E5.70098
G1 X122.4 Y107 E5.72927
G1 X122.4 Y107.4 E5.74257
G1 X123.268 Y107.44 E5.77147
G1 X124.028 Y107.559 E5.79706
G1 X124.771 Y107.757 E5.82263
G1 X125.49 Y108.031 E5.84823
G1 X126.176 Y108.378 E5.8738
G1 X126.823 Y108.794 E5.89938
G1 X127.423 Y109.275 E5.92496
G1 X127.97 Y109.816 E5.95054
G1 X128.458 Y110.411 E5.97614
G1 X128.881 Y111.053 E6.00171
G1 X129.236 Y111.736 E6.02731
G1 X129.517 Y112.451 E6.05286
G1 X129.723 Y113.193 E6.07848
G1 X129.851 Y113.951 E6.10404
G1 X129.9 Y114.8 E6.13233
G1 X129.9 Y119 E6.27202
G1 X129.86 Y119.768 E6.2976
G1 X129.741 Y120.528 E6.32319
G1 X129.543 Y121.271 E6.34876
G1 X129.269 Y121.99 E6.37435
G1 X128.922 Y122.676 E6.39992
G1 X128.506 Y123.323 E6.4255
G1 X128.025 Y123.923 E6.45108
G1 X127.484 Y124.47 E6.47667
G1 X126.889 Y124.958 E6.50226
G1 X126.247 Y125.381 E6.52784
G1 X125.564 Y125.736 E6.55344
G1 X124.849 Y126.017 E6.57899
G1 X124.107 Y126.223 E6.6046
G1 X123.349 Y126.351 E6.63017
G1 X122.5 Y126.4 E6.65846
G1 X97.5 Y126.4 E7.48996
G1 X96.732 Y126.36 E7.51554
G1 X95.972 Y126.241 E7.54112
G1 X95.229 Y126.043 E7.5667
G1 X94.51 Y125.769 E7.59229
G1 X93.824 Y125.422 E7.61786
G1 X93.177 Y125.006 E7.64344
G1 X92.577 Y124.525 E7.66902
G1 X92.03 Y123.984 E7.69461
G1 X91.542 Y123.389 E7.7202
G1 X91.119 Y122.747 E7.74577
G1 X90.764 Y122.064 E7.77138
G1 X90.483 Y121.349 E7.79693
G1 X90.277 Y120.607 E7.82254
G1 X90.149 Y119.849 E7.84811
G1 X90.1 Y119 E7.87639
G1 X90.1 Y99 E8.54159
G1 X90.14 Y98.232 E8.56717
G1 X90.259 Y97.472 E8.59276
G1 X90.457 Y96.729 E8.61833
G1 X90.731 Y96.01 E8.64393
G1 X91.078 Y95.324 E8.66949
G1 X91.494 Y94.677 E8.69508
G1 X91.975 Y94.077 E8.72066
G1 X92.516 Y93.53 E8.74624
G0 F3600 X92.908 Y93.716
G1 F1200 X93.498 Y93.257 E8.77111
G1 X94.134 Y92.862 E8.79601
G1 X94.808 Y92.538 E8.82088
G1 X95.513 Y92.288 E8.84576
G1 X96.241 Y92.114 E8.87066
G1 X96.983 Y92.019 E8.89554
G1 X97.5 Y92 E8.91274
G1 X99.5 Y92 E8.97926
G1 X100.247 Y92.04 E9.00414
G1 X100.985 Y92.159 E9.02901
G1 X101.707 Y92.357 E9.05391
G1 X102.403 Y92.63 E9.07877
G1 X103.066 Y92.977 E9.10366
G1 X103.689 Y93.392 E9.12856
G1 X104.263 Y93.871 E9.15343
G1 X104.784 Y94.408 E9.17831
G1 X105.243 Y94.998 E9.20317
G1 X105.638 Y95.634 E9.22807
G1 X105.962 Y96.308 E9.25295
G1 X106.212 Y97.013 E9.27783
G1 X106.386 Y97.741 E9.30272
G1 X106.481 Y98.483 E9.3276
G1 X106.5 Y99 E9.34481
G1 X106.5 Y100.47 E9.3937
G1 X107.013 Y100.288 E9.41181
G1 X107.741 Y100.114 E9.4367
G1 X108.483 Y100.019 E9.46158
G1 X109 Y100 E9.47879
G1 X115 Y100 E9.67835
G1 X115.747 Y100.04 E9.70323
G1 X116.485 Y100.159 E9.72809
G1 X117.207 Y100.357 E9.75299
G1 X117.903 Y100.63 E9.77786
G1 X118.566 Y100.977 E9.80275
G1 X119.189 Y101.392 E9.82765
G1 X119.763 Y101.871 E9.85251
G1 X120.284 Y102.408 E9.8774
G1 X120.743 Y102.998 E9.90226
G1 X121.138 Y103.634 E9.92716
G1 X121.462 Y104.308 E9.95203
G1 X121.712 Y105.013 E9.97691
G1 X121.886 Y105.741 E10.00181
G1 X121.981 Y106.483 E10.02669
G1 X122 Y107 E10.0439
G1 X122 Y107.8 E10.0705
G1 X122.5 Y107.8 E10.08714
G1 X123.247 Y107.84 E10.11202
G1 X123.985 Y107.959 E10.13688
G1 X124.707 Y108.157 E10.16178
G1 X125.403 Y108.43 E10.18665
G1 X126.066 Y108.777 E10.21153
G1 X126.689 Y109.192 E10.23643
G1 X127.263 Y109.671 E10.2613
G1 X127.784 Y110.208 E10.28618
G1 X128.243 Y110.798 E10.31105
G1 X128.638 Y111.434 E10.33595
G1 X128.962 Y112.108 E10.36082
G1 X129.212 Y112.813 E10.3857
G1 X129.386 Y113.541 E10.41059
G1 X129.481 Y114.283 E10.43547
G1 X129.5 Y114.8 E10.45268
G1 X129.5 Y119 E10.59237
G1 X129.46 Y119.747 E10.61726
G1 X129.341 Y120.485 E10.64212
G1 X129.143 Y121.207 E10.66702
G1 X128.87 Y121.903 E10.69188
G1 X128.523 Y122.566 E10.71677
G1 X128.108 Y123.189 E10.74167
G1 X127.629 Y123.763 E10.76654
G1 X127.092 Y124.284 E10.79142
G1 X126.502 Y124.743 E10.81628
G1 X125.866 Y125.138 E10.84119
G1 X125.192 Y125.462 E10.86606
G1 X124.487 Y125.712 E10.89094
G1 X123.759 Y125.886 E10.91583
G1 X123.017 Y125.981 E10.94071
G1 X122.5 Y126 E10.95792
G1 X97.5 Y126 E11.78942
G1 X96.753 Y125.96 E11.81431
G1 X96.015 Y125.841 E11.83917
G1 X95.293 Y125.643 E11.86407
G1 X94.597 Y125.37 E11.88893
G1 X93.934 Y125.023 E11.91382
G1 X93.311 Y124.608 E11.93872
G1 X92.737 Y124.129 E11.96359
G1 X92.216 Y123.592 E11.98847
G1 X91.757 Y123.002 E12.01333
G1 X91.362 Y122.366 E12.03824
G1 X91.038 Y121.692 E12.06311
G1 X90.788 Y120.987 E12.08799
G1 X90.614 Y120.259 E12.11288
G1 X90.519 Y119.517 E12.13776
G1 X90.5 Y119 E12.15497
G1 X90.5 Y99 E12.82017
G1 X90.54 Y98.253 E12.84505
G1 X90.659 Y97.515 E12.86992
G1 X90.857 Y96.793 E12.89482
G1 X91.13 Y96.097 E12.91968
G1 X91.477 Y95.434 E12.94457
G1 X91.892 Y94.811 E12.96947
G1 X92.371 Y94.237 E12.99434
G1 X92.908 Y93.716 E13.01922
G0 F3600 X92.765 Y94.402
G1 F1200 X93.299 Y93.909 E13.04339
G1 X93.884 Y93.479 E13.06754
G1 X94.513 Y93.115 E13.09171
G1 X95.178 Y92.822 E13.11588
G1 X95.871 Y92.604 E13.14005
G1 X96.583 Y92.464 E13.16418
G1 X97.5 Y92.4 E13.19475
G1 X99.5 Y92.4 E13.26127
G1 X100.225 Y92.44 E13.28543
G1 X100.942 Y92.559 E13.3096
G1 X101.641 Y92.757 E13.33376
G1 X102.314 Y93.03 E13.35792
G1 X102.953 Y93.375 E13.38207
G1 X103.55 Y93.789 E13.40623
G1 X104.098 Y94.265 E13.43038
G1 X104.591 Y94.799 E13.45455
G1 X105.021 Y95.384 E13.4787
G1 X105.385 Y96.013 E13.50287
G1 X105.678 Y96.678 E13.52704
G1 X105.896 Y97.371 E13.5512
G1 X106.036 Y98.083 E13.57534
G1 X106.1 Y99 E13.60591
G1 X106.1 Y101.077 E13.67499
G1 X106.678 Y100.822 E13.696
G1 X107.371 Y100.604 E13.72017
G1 X108.083 Y100.464 E13.7443
G1 X109 Y100.4 E13.77487
G1 X115 Y100.4 E13.97444
G1 X115.725 Y100.44 E13.99859
G1 X116.442 Y100.559 E14.02276
G1 X117.141 Y100.757 E14.04692
G1 X117.814 Y101.03 E14.07108
G1 X118.453 Y101.375 E14.09523
G1 X119.05 Y101.789 E14.1194
G1 X119.598 Y102.265 E14.14354
G1 X120.091 Y102.799 E14.16771
G1 X120.521 Y103.384 E14.19186
G1 X120.885 Y104.013 E14.21603
G1 X121.178 Y104.678 E14.2402
G1 X121.396 Y105.371 E14.26436
G1 X121.536 Y106.083 E14.2885
G1 X121.6 Y107 E14.31907
G1 X121.6 Y108.2 E14.35898
G1 X122.5 Y108.2 E14.38892
G1 X123.225 Y108.24 E14.41307
G1 X123.942 Y108.359 E14.43724
G1 X124.641 Y108.557 E14.4614
G1 X125.314 Y108.83 E14.48556
G1 X125.953 Y109.175 E14.50971
G1 X126.55 Y109.589 E14.53388
G1 X127.098 Y110.065 E14.55802
G1 X127.591 Y110.599 E14.58219
G1 X128.021 Y111.184 E14.60634
G1 X128.385 Y111.813 E14.63051
G1 X128.678 Y112.478 E14.65468
G1 X128.896 Y113.171 E14.67884
G1 X129.036 Y113.883 E14.70298
G1 X129.1 Y114.8 E14.73355
G1 X129.1 Y119 E14.87324
G1 X129.06 Y119.725 E14.89739
G1 X128.941 Y120.442 E14.92157
G1 X128.743 Y121.141 E14.94573
G1 X128.47 Y121.814 E14.96989
G1 X128.125 Y122.453 E14.99404
G1 X127.711 Y123.05 E15.0182
G1 X127.235 Y123.598 E15.04235
G1 X126.701 Y124.091 E15.06652
G1 X126.116 Y124.521 E15.09067
G1 X125.487 Y124.885 E15.11484
G1 X124.822 Y125.178 E15.13901
G1 X124.129 Y125.396 E15.16317
G1 X123.417 Y125.536 E15.18731
G1 X122.5 Y125.6 E15.21788
G1 X97.5 Y125.6 E16.04938
G1 X96.775 Y125.56 E16.07353
G1 X96.058 Y125.441 E16.09771
G1 X95.359 Y125.243 E16.12187
G1 X94.686 Y124.97 E16.14603
G1 X94.047 Y124.625 E16.17018
G1 X93.45 Y124.211 E16.19434
G1 X92.902 Y123.735 E16.21848
G1 X92.409 Y123.201 E16.24266
G1 X91.979 Y122.616 E16.2668
G1 X91.615 Y121.987 E16.29098
G1 X91.322 Y121.322 E16.31515
G1 X91.104 Y120.629 E16.33931
G1 X90.964 Y119.917 E16.36344
G1 X90.9 Y119 E16.39402
G1 X90.9 Y99 E17.05922
G1 X90.94 Y98.275 E17.08337
G1 X91.059 Y97.558 E17.10754
G1 X91.257 Y96.859 E17.13171
G1 X91.53 Y96.186 E17.15586
G1 X91.875 Y95.547 E17.18002
G1 X92.289 Y94.95 E17.20418
G1 X92.765 Y94.402 E17.22832
G0 F3600 X93.159 Y94.573
G1 F1200 X93.689 Y94.109 E17.25175
G1 X94.268 Y93.709 E17.27516
G1 X94.889 Y93.377 E17.29858
G1 X95.543 Y93.117 E17.32199
G1 X96.223 Y92.933 E17.34542
G1 X96.919 Y92.827 E17.36883
G1 X97.5 Y92.8 E17.38818
G1 X99.5 Y92.8 E17.4547
G1 X100.203 Y92.84 E17.47812
G1 X100.897 Y92.959 E17.50154
G1 X101.572 Y93.157 E17.52493
G1 X102.221 Y93.429 E17.54834
G1 X102.835 Y93.774 E17.57176
G1 X103.406 Y94.185 E17.59516
G1 X103.927 Y94.659 E17.61859
G1 X104.391 Y95.189 E17.64202
G1 X104.791 Y95.768 E17.66542
G1 X105.123 Y96.389 E17.68885
G1 X105.383 Y97.043 E17.71225
G1 X105.567 Y97.723 E17.73568
G1 X105.673 Y98.419 E17.7591
G1 X105.7 Y99 E17.77844
G1 X105.7 Y101.756 E17.87011
G1 X106.389 Y101.377 E17.89626
G1 X107.043 Y101.117 E17.91967
G1 X107.723 Y100.933 E17.9431
G1 X108.419 Y100.827 E17.96652
G1 X109 Y100.8 E17.98586
G1 X115 Y100.8 E18.18542
G1 X115.703 Y100.84 E18.20884
G1 X116.397 Y100.959 E18.23226
G1 X117.072 Y101.157 E18.25566
G1 X117.721 Y101.429 E18.27906
G1 X118.335 Y101.774 E18.30249
G1 X118.906 Y102.185 E18.32589
G1 X119.427 Y102.659 E18.34932
G1 X119.891 Y103.189 E18.37275
G1 X120.291 Y103.768 E18.39615
G1 X120.623 Y104.389 E18.41957
G1 X120.883 Y105.043 E18.44298
G1 X121.067 Y105.723 E18.46641
G1 X121.173 Y106.419 E18.48983
G1 X121.2 Y107 E18.50917
G1 X121.2 Y108.6 E18.56239
G1 X122.5 Y108.6 E18.60563
G1 X123.203 Y108.64 E18.62905
G1 X123.897 Y108.759 E18.65247
G1 X124.572 Y108.957 E18.67586
G1 X125.221 Y109.229 E18.69927
G1 X125.835 Y109.574 E18.72269
G1 X126.406 Y109.985 E18.74609
G1 X126.927 Y110.459 E18.76952
G1 X127.391 Y110.989 E18.79295
G1 X127.791 Y111.568 E18.81635
G1 X128.123 Y112.189 E18.83977
G1 X128.383 Y112.843 E18.86318
G1 X128.567 Y113.523 E18.88661
G1 X128.673 Y114.219 E18.91003
G1 X128.7 Y114.8 E18.92937
G1 X128.7 Y119 E19.06907
G1 X128.66 Y119.703 E19.09249
G1 X128.541 Y120.397 E19.11591
G1 X128.343 Y121.072 E19.1393
G1 X128.071 Y121.721 E19.16271
G1 X127.726 Y122.335 E19.18613
G1 X127.315 Y122.906 E19.20953
G1 X126.841 Y123.427 E19.23296
G1 X126.311 Y123.891 E19.25639
G1 X125.732 Y124.291 E19.27979
G1 X125.111 Y124.623 E19.30321
G1 X124.457 Y124.883 E19.32662
G1 X123.777 Y125.067 E19.35005
G1 X123.081 Y125.173 E19.37347
G1 X122.5 Y125.2 E19.39281
G1 X97.5 Y125.2 E20.22432
G1 X96.797 Y125.16 E20.24774
G1 X96.103 Y125.041 E20.27116
G1 X95.428 Y124.843 E20.29455
G1 X94.779 Y124.571 E20.31796
G1 X94.165 Y124.226 E20.34138
G1 X93.594 Y123.815 E20.36478
G1 X93.073 Y123.341 E20.38821
G1 X92.609 Y122.811 E20.41164
G1 X92.209 Y122.232 E20.43504
G1 X91.877 Y121.611 E20.45846
G1 X91.617 Y120.957 E20.48187
G1 X91.433 Y120.277 E20.5053
G1 X91.327 Y119.581 E20.52872
G1 X91.3 Y119 E20.54806
G1 X91.3 Y99 E21.21327
G1 X91.34 Y98.297 E21.23669
G1 X91.459 Y97.603 E21.26011
G1 X91.657 Y96.928 E21.2835
G1 X91.929 Y96.279 E21.30691
G1 X92.274 Y95.665 E21.33033
G1 X92.685 Y95.094 E21.35373
G1 X93.159 Y94.573 E21.37716
G0 F3600 X93.553 Y94.751
G1 F1200 X94.078 Y94.317 E21.39981
G1 X94.65 Y93.948 E21.42245
G1 X95.262 Y93.649 E21.44511
G1 X95.904 Y93.424 E21.46774
G1 X96.569 Y93.275 E21.4904
G1 X97.5 Y93.2 E21.52147
G1 X99.5 Y93.2 E21.58799
G1 X100.18 Y93.24 E21.61064
G1 X100.85 Y93.359 E21.63328
G1 X101.502 Y93.556 E21.65593
G1 X102.126 Y93.828 E21.67857
G1 X102.714 Y94.172 E21.70123
G1 X103.258 Y94.582 E21.72389
G1 X103.749 Y95.053 E21.74652
G1 X104.183 Y95.578 E21.76917
G1 X104.552 Y96.15 E21.79181
G1 X104.851 Y96.762 E21.81447
G1 X105.076 Y97.404 E21.83709
G1 X105.225 Y98.069 E21.85976
G1 X105.3 Y99 E21.89082
G1 X105.3 Y102.547 E22.0088
G1 X105.578 Y102.317 E22.0208
