;FLAVOR:Marlin
;TIME:3924
;Filament used: 1.86189m
;Layer height: 0.15
;MINX:71.006
;MINY:53.889
;MINZ:0.2
;MAXX:148.998
;MAXY:114.423
;MAXZ:13.4
;Generated with Cura_SteamEngine 4.6.1
M140 S60
M105
M190 S60
M104 S200
M105
M109 S200
M82 ;absolute extrusion mode
; -- START GCODE --
G21        ;metric values
G90        ;absolute positioning
M82        ;set extruder to absolute mode
M107       ;start with the fan off
G28 X0 Y0  ;move X/Y to min endstops
G28 Z0       ;move Z to min endstops
G92 E0                  ;zero the extruded length again
G1 Z1 F1000             ;move up slightly
G1 Y60.0 Z0 E9.0 F1000.0;intro line
G1 Y100.0 E21.5 F1000.0 ;continue line
G92 E0                  ;zero the extruded length again
G1 F80
;Put printing message on LCD screen
M117 Printing...
; -- end of START GCODE --
G92 E0
G92 E0
G1 F2700 E-5
;LAYER_COUNT:89
;LAYER:0
M107
G0 F3600 X76.512 Y60.552 Z0.2
;TYPE:SKIRT
G1 F2700 E0
G1 F1200 X77.161 Y59.783 E0.03347
G1 X77.768 Y59.131 E0.0631
G1 X78.754 Y58.196 E0.10829
G1 X79.228 Y57.792 E0.12901
G1 X79.896 Y57.266 E0.15729
G1 X80.445 Y56.871 E0.17978
G1 X81.136 Y56.418 E0.20726
G1 X81.704 Y56.079 E0.22926
G1 X82.409 Y55.698 E0.25592
G1 X83.013 Y55.404 E0.27826
G1 X83.746 Y55.086 E0.30483
G1 X84.418 Y54.831 E0.32874
G1 X85.125 Y54.599 E0.35349
G1 X85.742 Y54.424 E0.37482
G1 X86.486 Y54.246 E0.40026
G1 X87.192 Y54.111 E0.42417
G1 X87.902 Y54.009 E0.44803
G1 X88.549 Y53.944 E0.46965
G1 X89.29 Y53.9 E0.49434
G1 X89.97 Y53.889 E0.51696
G1 X90.684 Y53.909 E0.54072
G1 X91.359 Y53.957 E0.56323
G1 X92.062 Y54.038 E0.58676
G1 X92.731 Y54.145 E0.6093
G1 X93.421 Y54.286 E0.63272
G1 X94.051 Y54.442 E0.65431
G1 X94.7 Y54.632 E0.6768
G1 X95.325 Y54.845 E0.69876
G1 X95.973 Y55.096 E0.72188
G1 X96.594 Y55.368 E0.74442
G1 X97.213 Y55.672 E0.76736
G1 X97.816 Y56.002 E0.79022
G1 X98.402 Y56.357 E0.81301
G1 X98.972 Y56.737 E0.8358
G1 X99.526 Y57.143 E0.85864
G1 X100.089 Y57.597 E0.8827
G1 X100.617 Y58.065 E0.90616
G1 X101.13 Y58.563 E0.92994
G1 X101.59 Y59.053 E0.9523
G1 X102.044 Y59.583 E0.97551
G1 X102.47 Y60.127 E0.99849
G1 X102.905 Y60.741 E1.02352
G1 X103.291 Y61.346 E1.04739
G1 X103.671 Y62.012 E1.07289
G1 X103.983 Y62.627 E1.09583
G1 X104.276 Y63.276 E1.11951
G1 X104.543 Y63.948 E1.14356
G1 X104.79 Y64.67 E1.16894
G1 X104.999 Y65.396 E1.19407
G1 X105.175 Y66.148 E1.21976
G1 X105.308 Y66.874 E1.2443
G1 X105.405 Y67.582 E1.26807
G1 X105.475 Y68.361 E1.29409
G1 X105.506 Y69.069 E1.31766
G1 X105.505 Y69.882 E1.3447
G1 X105.47 Y70.608 E1.36887
G1 X105.39 Y71.452 E1.39707
G1 X105.296 Y72.131 E1.41987
G1 X105.135 Y73.004 E1.44939
G1 X105.021 Y73.52 E1.46697
G1 X104.895 Y74.013 E1.48389
G1 X104.486 Y75.34 E1.53008
G1 X104.303 Y75.853 E1.5482
G1 X104.004 Y76.606 E1.57514
G1 X102.838 Y79.436 E1.67694
G1 X102.73 Y79.887 E1.69237
G1 X102.681 Y80.264 E1.70501
G1 X102.666 Y80.718 E1.72012
G1 X102.695 Y81.123 E1.73363
G1 X102.77 Y81.556 E1.74824
G1 X102.885 Y81.964 E1.76234
G1 X103.03 Y82.335 E1.77559
G1 X103.218 Y82.705 E1.78939
G1 X103.452 Y83.07 E1.80381
G1 X103.699 Y83.381 E1.81702
G1 X104.006 Y83.699 E1.83173
G1 X104.294 Y83.944 E1.8443
G1 X104.646 Y84.188 E1.85855
G1 X105.022 Y84.395 E1.87282
G1 X105.371 Y84.546 E1.88547
G1 X105.833 Y84.692 E1.90159
G1 X106.174 Y84.763 E1.91317
G1 X106.66 Y84.815 E1.92943
G1 X107.04 Y84.817 E1.94207
G1 X107.472 Y84.776 E1.9565
G1 X107.87 Y84.697 E1.96999
G1 X108.278 Y84.576 E1.98415
G1 X108.66 Y84.416 E1.99792
G1 X109.025 Y84.221 E2.01169
G1 X109.377 Y83.984 E2.0258
G1 X109.704 Y83.712 E2.03995
G1 X109.984 Y83.43 E2.05317
G1 X110.257 Y83.091 E2.06764
G1 X110.494 Y82.729 E2.08203
G1 X110.675 Y82.379 E2.09514
G1 X110.831 Y81.991 E2.10905
G1 X110.954 Y81.561 E2.12392
G1 X111.021 Y81.203 E2.13604
G1 X111.065 Y80.783 E2.15008
G1 X111.188 Y80.003 E2.17635
G1 X111.334 Y79.42 E2.19634
G1 X111.478 Y78.926 E2.21345
G1 X111.748 Y78.108 E2.2421
G1 X112.066 Y77.28 E2.2716
G1 X112.425 Y76.468 E2.30113
G1 X112.661 Y75.992 E2.3188
G1 X113.121 Y75.14 E2.35101
G1 X113.395 Y74.674 E2.36899
G1 X113.671 Y74.238 E2.38615
G1 X114.197 Y73.478 E2.41689
G1 X114.521 Y73.053 E2.43466
G1 X115.102 Y72.343 E2.46518
G1 X115.463 Y71.931 E2.4834
G1 X115.811 Y71.562 E2.50027
G1 X116.442 Y70.944 E2.52964
G1 X116.854 Y70.575 E2.54804
G1 X117.544 Y70 E2.57791
G1 X117.968 Y69.67 E2.59578
G1 X118.856 Y69.055 E2.63171
G1 X119.653 Y68.565 E2.66283
G1 X120.327 Y68.195 E2.6884
G1 X121.166 Y67.787 E2.71943
G1 X121.831 Y67.501 E2.74351
G1 X122.578 Y67.22 E2.77005
G1 X123.205 Y67.014 E2.792
G1 X123.91 Y66.815 E2.81637
G1 X124.523 Y66.669 E2.83733
G1 X125.265 Y66.523 E2.86248
G1 X125.918 Y66.423 E2.88445
G1 X126.691 Y66.338 E2.91032
G1 X127.386 Y66.293 E2.93348
G1 X128.127 Y66.278 E2.95813
G1 X128.79 Y66.292 E2.98019
G1 X129.56 Y66.342 E3.00585
G1 X130.277 Y66.422 E3.02985
G1 X131.071 Y66.548 E3.05659
G1 X131.753 Y66.688 E3.07974
G1 X132.504 Y66.877 E3.1055
G1 X133.173 Y67.077 E3.12872
G1 X133.963 Y67.353 E3.15656
G1 X134.595 Y67.606 E3.1792
G1 X135.336 Y67.94 E3.20623
G1 X135.95 Y68.25 E3.22911
G1 X136.705 Y68.674 E3.25791
G1 X137.277 Y69.028 E3.28028
G1 X138.036 Y69.545 E3.31083
G1 X138.56 Y69.936 E3.33257
G1 X139.266 Y70.509 E3.36281
G1 X139.965 Y71.126 E3.39383
G1 X140.325 Y71.475 E3.4105
G1 X141.001 Y72.172 E3.4428
G1 X141.628 Y72.875 E3.47413
G1 X142.146 Y73.51 E3.50138
G1 X142.646 Y74.169 E3.5289
G1 X143.139 Y74.87 E3.5574
G1 X143.582 Y75.549 E3.58437
G1 X144.024 Y76.278 E3.61272
G1 X144.449 Y77.03 E3.64145
G1 X144.856 Y77.809 E3.67068
G1 X145.231 Y78.586 E3.69938
G1 X145.581 Y79.364 E3.72775
G1 X145.94 Y80.229 E3.7589
G1 X146.343 Y81.292 E3.79671
G1 X146.8 Y82.65 E3.84437
G1 X147.191 Y83.974 E3.89029
G1 X147.554 Y85.389 E3.93887
G1 X147.891 Y86.904 E3.99049
G1 X148.168 Y88.401 E4.04113
G1 X148.406 Y89.944 E4.09306
G1 X148.609 Y91.574 E4.14769
G1 X148.818 Y93.863 E4.22414
G1 X148.951 Y96.399 E4.3086
G1 X148.998 Y99.162 E4.40051
G1 X148.946 Y102.203 E4.50167
G1 X148.854 Y104.212 E4.56856
G1 X148.728 Y106.127 E4.63239
G1 X148.634 Y106.913 E4.65872
G1 X148.406 Y108.019 E4.69628
G1 X148.157 Y108.769 E4.72256
G1 X147.931 Y109.291 E4.74148
G1 X147.449 Y110.213 E4.77609
G1 X146.762 Y111.173 E4.81535
G1 X146.066 Y111.942 E4.84985
G1 X145.473 Y112.464 E4.87612
G1 X144.946 Y112.853 E4.89791
G1 X144.281 Y113.279 E4.92418
G1 X143.576 Y113.635 E4.95045
G1 X142.961 Y113.881 E4.97248
G1 X142.21 Y114.124 E4.99873
G1 X141.167 Y114.33 E5.03409
G1 X140.923 Y114.361 E5.04227
G1 X139.937 Y114.423 E5.07513
G1 X126.764 Y114.418 E5.51327
G1 X125.975 Y114.378 E5.53954
G1 X125.052 Y114.227 E5.57065
G1 X124.047 Y113.96 E5.60524
G1 X123.009 Y113.527 E5.64264
G1 X122.105 Y113.026 E5.67702
G1 X121.221 Y112.368 E5.71367
G1 X120.464 Y111.665 E5.74803
G1 X119.95 Y111.066 E5.77428
G1 X119.576 Y110.545 E5.79562
G1 X119.5 Y110.423 E5.8004
G1 X100.223 Y110.423 E6.44155
G1 X100.005 Y110.754 E6.45473
G1 X99.521 Y111.378 E6.481
G1 X98.977 Y111.95 E6.50725
G1 X98.488 Y112.382 E6.52896
G1 X97.863 Y112.864 E6.55521
G1 X96.946 Y113.41 E6.5907
G1 X96.006 Y113.842 E6.62511
G1 X94.9 Y114.177 E6.66355
G1 X93.879 Y114.364 E6.69807
G1 X92.963 Y114.418 E6.72859
G1 X84.118 Y114.423 E7.02278
G1 X83.502 Y114.415 E7.04327
G1 X82.84 Y114.378 E7.06532
G1 X82.356 Y114.33 E7.0815
G1 X81.596 Y114.217 E7.10705
G1 X81.116 Y114.121 E7.12333
G1 X80.405 Y113.943 E7.14771
G1 X79.935 Y113.802 E7.16403
G1 X79.167 Y113.527 E7.19116
G1 X78.715 Y113.338 E7.20746
G1 X78.039 Y113.017 E7.23235
G1 X77.608 Y112.786 E7.24861
G1 X76.966 Y112.401 E7.27351
G1 X76.555 Y112.127 E7.28994
G1 X75.936 Y111.668 E7.31557
G1 X75.558 Y111.358 E7.33183
G1 X74.989 Y110.842 E7.35738
G1 X74.641 Y110.494 E7.37375
G1 X74.116 Y109.914 E7.39977
G1 X73.808 Y109.537 E7.41596
G1 X73.363 Y108.936 E7.44083
G1 X73.089 Y108.526 E7.45723
G1 X72.699 Y107.877 E7.48242
G1 X72.468 Y107.446 E7.49868
G1 X72.14 Y106.753 E7.52418
G1 X71.951 Y106.298 E7.54057
G1 X71.687 Y105.561 E7.56661
G1 X71.546 Y105.094 E7.58283
G1 X71.363 Y104.36 E7.60799
G1 X71.267 Y103.877 E7.62437
G1 X71.155 Y103.121 E7.64979
G1 X71.107 Y102.634 E7.66607
G1 X71.069 Y101.871 E7.69147
G1 X71.063 Y81.728 E8.36143
G1 X71.006 Y79.846 E8.42406
G1 X71.025 Y77.706 E8.49524
G1 X71.126 Y75.813 E8.55829
G1 X71.313 Y73.941 E8.62086
G1 X71.56 Y72.278 E8.67678
G1 X71.852 Y70.776 E8.72767
G1 X72.18 Y69.429 E8.77378
G1 X72.541 Y68.185 E8.81686
G1 X72.968 Y66.939 E8.86067
G1 X73.427 Y65.779 E8.90216
G1 X73.908 Y64.716 E8.94097
G1 X74.37 Y63.807 E8.97489
G1 X74.862 Y62.939 E9.00807
G1 X75.375 Y62.118 E9.04027
G1 X75.938 Y61.304 E9.07319
G1 X76.512 Y60.552 E9.10465
G0 F3600 X76.828 Y60.797
G1 F1200 X77.464 Y60.044 E9.13744
G1 X78.058 Y59.407 E9.16641
G1 X79.026 Y58.49 E9.21075
G1 X79.475 Y58.106 E9.2304
G1 X80.143 Y57.58 E9.25868
G1 X80.664 Y57.205 E9.28003
G1 X81.355 Y56.752 E9.30751
G1 X81.894 Y56.431 E9.32838
G1 X82.599 Y56.05 E9.35503
G1 X83.172 Y55.771 E9.37623
G1 X83.905 Y55.453 E9.40281
G1 X84.543 Y55.211 E9.4255
G1 X85.25 Y54.979 E9.45025
G1 X85.835 Y54.813 E9.47048
G1 X86.579 Y54.635 E9.49592
G1 X87.249 Y54.507 E9.51861
G1 X87.959 Y54.405 E9.54246
G1 X88.572 Y54.343 E9.56296
G1 X89.313 Y54.299 E9.58765
G1 X89.959 Y54.289 E9.60913
G1 X90.673 Y54.309 E9.63289
G1 X91.313 Y54.355 E9.65423
G1 X92.016 Y54.436 E9.67777
G1 X92.651 Y54.537 E9.69915
G1 X93.341 Y54.678 E9.72258
G1 X93.938 Y54.826 E9.74304
G1 X94.587 Y55.016 E9.76553
G1 X95.181 Y55.218 E9.7864
G1 X95.829 Y55.469 E9.80951
G1 X96.418 Y55.727 E9.8309
G1 X97.037 Y56.031 E9.85383
G1 X97.609 Y56.344 E9.87552
G1 X98.195 Y56.699 E9.89831
G1 X98.735 Y57.059 E9.91989
G1 X99.289 Y57.465 E9.94274
G1 X99.823 Y57.896 E9.96556
G1 X100.351 Y58.364 E9.98903
G1 X100.838 Y58.837 E10.01161
G1 X101.298 Y59.327 E10.03396
G1 X101.729 Y59.83 E10.05599
G1 X102.155 Y60.374 E10.07897
G1 X102.567 Y60.956 E10.10269
G1 X102.953 Y61.561 E10.12656
G1 X103.314 Y62.193 E10.15077
G1 X103.626 Y62.808 E10.17371
G1 X103.904 Y63.424 E10.19618
G1 X104.171 Y64.096 E10.22023
G1 X104.405 Y64.781 E10.24431
G1 X104.614 Y65.507 E10.26944
G1 X104.782 Y66.221 E10.29383
G1 X104.915 Y66.947 E10.31838
G1 X105.006 Y67.618 E10.3409
G1 X105.076 Y68.397 E10.36692
G1 X105.106 Y69.068 E10.38926
G1 X105.105 Y69.881 E10.4163
G1 X105.072 Y70.57 E10.43924
G1 X104.992 Y71.414 E10.46744
G1 X104.902 Y72.058 E10.48907
G1 X104.741 Y72.931 E10.51859
G1 X104.634 Y73.421 E10.53527
G1 X104.508 Y73.914 E10.5522
G1 X104.105 Y75.219 E10.59762
G1 X103.932 Y75.705 E10.61478
G1 X103.633 Y76.458 E10.64173
G1 X102.463 Y79.294 E10.74377
G1 X102.335 Y79.823 E10.76187
G1 X102.281 Y80.246 E10.77605
G1 X102.266 Y80.736 E10.79236
G1 X102.301 Y81.196 E10.8077
G1 X102.376 Y81.625 E10.82219
G1 X102.501 Y82.077 E10.83778
G1 X102.663 Y82.494 E10.85266
G1 X102.869 Y82.901 E10.86784
G1 X103.125 Y83.3 E10.8836
G1 X103.411 Y83.66 E10.8989
G1 X103.732 Y83.989 E10.91418
G1 X104.071 Y84.277 E10.92898
G1 X104.424 Y84.521 E10.94325
G1 X104.851 Y84.757 E10.95948
G1 X105.255 Y84.929 E10.97408
G1 X105.74 Y85.081 E10.99099
G1 X106.122 Y85.16 E11.00396
G1 X106.633 Y85.214 E11.02105
G1 X107.076 Y85.216 E11.03579
G1 X107.525 Y85.173 E11.05079
G1 X107.961 Y85.087 E11.06557
G1 X108.412 Y84.953 E11.08122
G1 X108.841 Y84.773 E11.09669
G1 X109.235 Y84.561 E11.11157
G1 X109.625 Y84.298 E11.12722
G1 X109.984 Y83.998 E11.14278
G1 X110.292 Y83.686 E11.15736
G1 X110.585 Y83.321 E11.17293
G1 X110.828 Y82.951 E11.18765
G1 X111.048 Y82.524 E11.20363
G1 X111.206 Y82.13 E11.21775
G1 X111.343 Y81.656 E11.23416
G1 X111.417 Y81.261 E11.24752
G1 X111.463 Y80.825 E11.2621
G1 X111.583 Y80.065 E11.2877
G1 X111.718 Y79.532 E11.30598
G1 X111.862 Y79.038 E11.3231
G1 X112.127 Y78.237 E11.35116
G1 X112.438 Y77.427 E11.38002
G1 X112.789 Y76.634 E11.40886
G1 X113.013 Y76.182 E11.42564
G1 X113.473 Y75.33 E11.45784
G1 X113.732 Y74.888 E11.47488
G1 X114.008 Y74.452 E11.49204
G1 X114.523 Y73.71 E11.52209
G1 X114.83 Y73.307 E11.53894
G1 X115.411 Y72.597 E11.56945
G1 X115.754 Y72.206 E11.58675
G1 X116.102 Y71.837 E11.60362
G1 X116.719 Y71.232 E11.63236
G1 X117.11 Y70.882 E11.64981
G1 X117.8 Y70.307 E11.67969
G1 X118.202 Y69.995 E11.69661
G1 X119.065 Y69.396 E11.73155
G1 X119.862 Y68.906 E11.76267
G1 X120.502 Y68.555 E11.78695
G1 X121.341 Y68.147 E11.81798
G1 X121.972 Y67.876 E11.84082
G1 X122.719 Y67.595 E11.86736
G1 X123.314 Y67.399 E11.8882
G1 X124.019 Y67.2 E11.91256
G1 X124.6 Y67.061 E11.93243
G1 X125.342 Y66.915 E11.95759
G1 X125.962 Y66.82 E11.97845
G1 X126.735 Y66.735 E12.00431
G1 X127.394 Y66.693 E12.02627
G1 X128.135 Y66.678 E12.05093
G1 X128.765 Y66.692 E12.07188
G1 X129.535 Y66.742 E12.09755
G1 X130.215 Y66.817 E12.1203
G1 X131.009 Y66.943 E12.14704
G1 X131.655 Y67.076 E12.16898
G1 X132.406 Y67.265 E12.19474
G1 X133.041 Y67.455 E12.21678
G1 X133.831 Y67.731 E12.24461
G1 X134.431 Y67.971 E12.26611
G1 X135.172 Y68.305 E12.29314
G1 X135.754 Y68.599 E12.31483
G1 X136.509 Y69.023 E12.34363
G1 X137.052 Y69.359 E12.36487
G1 X137.811 Y69.876 E12.39541
G1 X138.308 Y70.246 E12.41602
G1 X139.014 Y70.819 E12.44626
G1 X139.696 Y71.423 E12.47656
G1 X140.714 Y72.45 E12.52466
G1 X141.326 Y73.137 E12.55526
G1 X141.835 Y73.761 E12.58204
G1 X142.326 Y74.409 E12.60908
G1 X142.81 Y75.099 E12.63712
G1 X143.246 Y75.766 E12.66362
G1 X143.681 Y76.483 E12.69151
G1 X144.1 Y77.225 E12.71985
G1 X144.501 Y77.993 E12.74867
G1 X144.87 Y78.758 E12.77692
G1 X145.215 Y79.527 E12.80495
G1 X145.57 Y80.381 E12.83571
G1 X145.968 Y81.432 E12.87309
G1 X146.421 Y82.776 E12.92027
G1 X146.807 Y84.086 E12.96569
G1 X147.167 Y85.487 E13.0138
G1 X147.501 Y86.99 E13.06501
G1 X147.774 Y88.472 E13.11513
G1 X148.011 Y90.004 E13.16669
G1 X148.212 Y91.623 E13.22095
G1 X148.42 Y93.898 E13.29693
G1 X148.552 Y96.419 E13.3809
G1 X148.598 Y99.168 E13.47234
G1 X148.546 Y102.196 E13.57307
G1 X148.455 Y104.193 E13.63956
G1 X148.328 Y106.1 E13.70313
G1 X148.24 Y106.846 E13.72811
G1 X148.015 Y107.932 E13.765
G1 X147.77 Y108.661 E13.79058
G1 X147.462 Y109.346 E13.81556
G1 X147.096 Y110.023 E13.84115
G1 X146.455 Y110.916 E13.87772
G1 X145.772 Y111.67 E13.91155
G1 X144.919 Y112.381 E13.94849
G1 X144.065 Y112.941 E13.98245
G1 X143.049 Y113.419 E14.0198
G1 X142.086 Y113.743 E14.05359
G1 X141.117 Y113.933 E14.08644
G1 X139.937 Y114.023 E14.1258
G1 X126.764 Y114.018 E14.56393
G1 X125.996 Y113.978 E14.58951
G1 X125.14 Y113.837 E14.61836
G1 X124.155 Y113.574 E14.65227
G1 X123.189 Y113.17 E14.6871
G1 X122.304 Y112.678 E14.72078
G1 X121.482 Y112.065 E14.75488
G1 X120.74 Y111.375 E14.78858
G1 X120.043 Y110.517 E14.82535
G1 X119.722 Y110.023 E14.84494
G1 X99.998 Y110.023 E15.50097
G1 X99.677 Y110.525 E15.52079
G1 X99.205 Y111.133 E15.54639
G1 X98.414 Y111.919 E15.58348
G1 X97.619 Y112.547 E15.61717
G1 X96.765 Y113.054 E15.6502
G1 X95.843 Y113.476 E15.68393
G1 X94.813 Y113.786 E15.71971
G1 X93.812 Y113.969 E15.75355
G1 X92.963 Y114.018 E15.78184
G1 X84.118 Y114.023 E16.07602
G1 X83.507 Y114.015 E16.09635
G1 X82.88 Y113.98 E16.11723
G1 X82.396 Y113.932 E16.13341
G1 X81.675 Y113.824 E16.15766
G1 X81.195 Y113.728 E16.17394
G1 X80.52 Y113.56 E16.19707
G1 X80.05 Y113.419 E16.21339
G1 X79.321 Y113.158 E16.23915
G1 X78.869 Y112.969 E16.25544
G1 X78.228 Y112.664 E16.27905
G1 X77.797 Y112.433 E16.29532
G1 X77.188 Y112.068 E16.31893
G1 X76.777 Y111.794 E16.33536
G1 X76.189 Y111.359 E16.35969
G1 X75.811 Y111.049 E16.37595
G1 X75.271 Y110.56 E16.40018
G1 X74.923 Y110.212 E16.41655
G1 X74.425 Y109.661 E16.44125
G1 X74.117 Y109.284 E16.45744
G1 X73.695 Y108.714 E16.48103
G1 X73.421 Y108.304 E16.49743
G1 X73.052 Y107.688 E16.52131
G1 X72.821 Y107.257 E16.53758
G1 X72.509 Y106.6 E16.56177
G1 X72.32 Y106.145 E16.57816
G1 X72.07 Y105.445 E16.60288
G1 X71.929 Y104.978 E16.6191
G1 X71.755 Y104.282 E16.64296
G1 X71.659 Y103.799 E16.65934
G1 X71.553 Y103.082 E16.68345
G1 X71.505 Y102.595 E16.69973
G1 X71.469 Y101.871 E16.72384
G1 X71.463 Y81.749 E17.3931
G1 X71.405 Y79.834 E17.45682
G1 X71.425 Y77.711 E17.52743
G1 X71.525 Y75.836 E17.58988
G1 X71.711 Y73.982 E17.65186
G1 X71.955 Y72.339 E17.7071
G1 X72.245 Y70.855 E17.7574
G1 X72.568 Y69.527 E17.80285
G1 X72.925 Y68.298 E17.84542
G1 X73.345 Y67.071 E17.88855
G1 X73.798 Y65.928 E17.92945
G1 X74.271 Y64.884 E17.96757
G1 X74.725 Y63.991 E18.00089
